;FLAVOR:Marlin
;TIME:1621
;Filament used: 0.747059m
;Layer height: 0.2
;MINX:91.722
;MINY:69.781
;MINZ:0.2
;MAXX:118.276
;MAXY:140.076
;MAXZ:36.2
;TARGET_MACHINE.NAME:Anycubic i3 Mega
;Generated with Cura_SteamEngine 5.7.0-alpha.0
M140 S60
M105
M190 S60
M104 S200
M105
M109 S200
M82 ;absolute extrusion mode
G21 ;metric values
G90 ;absolute positioning
M82 ;set extruder to absolute mode
M107 ;start with the fan off
G28 X0 Y0 ;move X/Y to min endstops
G28 Z0 ;move Z to min endstops
G1 Z15.0 F100 ;move the platform down 15mm
G92 E0 ;zero the extruded length
G1 F200 E3 ;extrude 3mm of feed stock
G92 E0 ;zero the extruded length again
G1 F100
G0 Y20 F100
M117 Printing...
G5
G92 E0
G92 E0
G1 F2400 E-6
;LAYER_COUNT:181
;LAYER:0
M107
M204 S3000
M205 X10 Y10
G1 F600 Z0.275
G0 F3000 X94.475 Y74.646 Z0.275
M204 S1800
M205 X8 Y8
;TYPE:SKIRT
G1 F600 Z0.2
G1 F2400 E0
G1 X95.176 Y73.885 E0.04818
G1 X95.919 Y73.152 E0.09678
G1 X96.575 Y72.597 E0.13679
G1 X97.185 Y72.155 E0.17187
G1 X97.653 Y71.853 E0.1978
G1 X98.4 Y71.427 E0.23784
G1 X99.134 Y71.034 E0.27661
G1 X99.845 Y70.715 E0.3129
G1 X100.459 Y70.518 E0.34293
G1 X102.103 Y70.091 E0.42202
G1 X102.768 Y69.938 E0.45379
G1 X103.627 Y69.804 E0.49427
G1 X104.431 Y69.781 E0.53173
G1 X105.188 Y69.813 E0.56701
G1 X106.753 Y69.92 E0.64005
G1 X107.612 Y70.04 E0.68044
G1 X108.366 Y70.244 E0.71681
G1 X108.935 Y70.444 E0.74489
G1 X110.199 Y70.936 E0.80805
G1 X111.16 Y71.418 E0.85811
G1 X112.238 Y72.087 E0.91719
G1 X112.911 Y72.537 E0.95489
G1 X113.699 Y73.167 E1.00186
G1 X114.439 Y73.868 E1.04933
G1 X115.027 Y74.454 E1.08798
G1 X115.592 Y75.1 E1.12795
G1 X116.444 Y76.388 E1.19985
G1 X116.75 Y76.886 E1.22707
G1 X117.143 Y77.635 E1.26646
G1 X117.369 Y78.212 E1.29531
G1 X117.655 Y79.074 E1.3376
G1 X117.851 Y79.715 E1.36881
G1 X118.069 Y80.728 E1.41706
G1 X118.215 Y81.95 E1.47437
G1 X118.265 Y82.562 E1.50296
G1 X118.276 Y83.452 E1.54441
G1 X118.153 Y84.595 E1.59794
G1 X118.028 Y85.486 E1.63983
G1 X117.551 Y88.178 E1.76714
G1 X117.156 Y90.845 E1.89268
G1 X116.843 Y93.468 E2.01568
G1 X116.602 Y96.105 E2.13898
G1 X116.436 Y98.764 E2.26304
G1 X116.347 Y101.406 E2.38613
G1 X116.331 Y104.043 E2.50892
G1 X116.392 Y106.718 E2.63351
G1 X116.521 Y109.288 E2.75333
G1 X116.738 Y112.037 E2.88174
G1 X116.902 Y113.737 E2.96126
G1 X116.925 Y114.386 E2.9915
G1 X116.843 Y115.312 E3.03479
G1 X116.635 Y116.228 E3.07853
G1 X116.15 Y117.524 E3.14296
G1 X115.842 Y118.315 E3.18249
G1 X114.955 Y120.796 E3.30518
G1 X114.144 Y123.285 E3.42707
G1 X113.382 Y125.863 E3.55225
G1 X112.708 Y128.414 E3.67511
G1 X112.109 Y130.974 E3.79753
G1 X111.632 Y133.382 E3.91184
G1 X111.369 Y134.648 E3.97205
G1 X111.177 Y135.34 E4.00549
G1 X110.848 Y136.13 E4.04534
G1 X110.456 Y136.812 E4.08197
G1 X109.994 Y137.429 E4.11786
G1 X109.652 Y137.8 E4.14135
G1 X109.16 Y138.283 E4.17346
G1 X108.565 Y138.792 E4.20992
G1 X108.027 Y139.156 E4.24016
G1 X107.198 Y139.578 E4.28348
G1 X106.461 Y139.836 E4.31984
G1 X105.828 Y139.982 E4.35009
G1 X104.903 Y140.076 E4.39338
G1 X104.11 Y140.05 E4.43033
G1 X103.391 Y139.94 E4.4642
G1 X102.715 Y139.788 E4.49646
G1 X101.964 Y139.562 E4.53298
G1 X101.367 Y139.306 E4.56322
G1 X100.629 Y138.88 E4.6029
G1 X100.003 Y138.403 E4.63955
G1 X99.44 Y137.854 E4.67617
G1 X98.946 Y137.234 E4.71308
G1 X98.498 Y136.492 E4.75344
G1 X98.092 Y135.56 E4.80078
G1 X97.822 Y134.69 E4.84319
G1 X97.646 Y133.976 E4.87744
G1 X97.153 Y131.193 E5.00904
G1 X96.633 Y128.67 E5.12899
G1 X96.016 Y126.048 E5.25442
G1 X95.333 Y123.487 E5.37784
G1 X94.586 Y120.968 E5.50018
G1 X93.769 Y118.474 E5.62238
G1 X93.289 Y117.146 E5.68814
G1 X92.89 Y115.998 E5.74473
G1 X92.676 Y115.208 E5.78284
G1 X92.572 Y114.499 E5.81621
G1 X92.545 Y113.66 E5.8553
G1 X92.721 Y112.053 E5.93057
G1 X93 Y109.325 E6.05826
G1 X93.195 Y106.69 E6.18129
G1 X93.315 Y104.043 E6.30468
G1 X93.36 Y101.41 E6.4273
G1 X93.33 Y98.77 E6.55023
G1 X93.225 Y96.103 E6.67452
G1 X93.047 Y93.462 E6.79777
G1 X92.795 Y90.84 E6.92043
G1 X92.47 Y88.238 E7.04253
G1 X92.014 Y85.393 E7.17669
G1 X91.994 Y85.203 E7.18559
G1 X91.786 Y83.851 E7.24929
G1 X91.722 Y82.804 E7.29813
G1 X91.751 Y81.772 E7.3462
G1 X91.789 Y81.121 E7.37657
G1 X91.912 Y80.166 E7.4214
G1 X92.219 Y79.022 E7.47656
G1 X92.409 Y78.377 E7.50787
G1 X92.655 Y77.705 E7.54119
G1 X92.964 Y77.083 E7.57353
G1 X93.558 Y76.048 E7.6291
G1 X94.015 Y75.303 E7.66979
G1 X94.475 Y74.646 E7.70714
M204 S3000
M205 X10 Y10
G0 F3000 X94.934 Y74.967
M204 S1800
M205 X8 Y8
G1 F2400 X95.569 Y74.283 E7.7506
G1 X96.281 Y73.58 E7.79719
G1 X96.937 Y73.025 E7.8372
G1 X97.489 Y72.626 E7.86892
G1 X97.957 Y72.324 E7.89485
G1 X98.665 Y71.92 E7.93281
G1 X99.365 Y71.544 E7.96981
G1 X100.017 Y71.248 E8.00315
G1 X100.6 Y71.06 E8.03167
G1 X102.229 Y70.637 E8.11004
G1 X102.894 Y70.484 E8.14182
G1 X103.644 Y70.364 E8.17718
G1 X104.408 Y70.341 E8.21277
G1 X105.15 Y70.372 E8.24736
G1 X106.715 Y70.479 E8.3204
G1 X107.466 Y70.581 E8.35569
G1 X108.22 Y70.785 E8.39206
G1 X108.733 Y70.966 E8.41739
G1 X109.949 Y71.437 E8.47811
G1 X110.865 Y71.894 E8.52578
G1 X111.928 Y72.553 E8.58402
G1 X112.562 Y72.975 E8.61948
G1 X113.314 Y73.574 E8.66425
G1 X114.044 Y74.265 E8.71105
G1 X114.605 Y74.823 E8.7479
G1 X115.17 Y75.469 E8.78786
G1 X115.967 Y76.681 E8.8554
G1 X116.273 Y77.179 E8.88262
G1 X116.622 Y77.84 E8.91743
G1 X116.837 Y78.388 E8.94484
G1 X117.119 Y79.238 E8.98654
G1 X117.315 Y79.879 E9.01775
G1 X117.521 Y80.845 E9.06374
G1 X117.657 Y81.997 E9.11776
G1 X117.705 Y82.572 E9.14462
G1 X117.719 Y83.392 E9.18281
G1 X117.598 Y84.517 E9.2355
G1 X117.473 Y85.408 E9.27739
G1 X116.997 Y88.096 E9.40451
G1 X116.602 Y90.763 E9.53005
G1 X116.285 Y93.417 E9.65451
G1 X116.044 Y96.054 E9.77781
G1 X115.877 Y98.729 E9.90261
G1 X115.787 Y101.387 E10.02645
G1 X115.771 Y104.04 E10.14999
G1 X115.832 Y106.731 E10.27532
G1 X115.963 Y109.332 E10.39659
G1 X116.181 Y112.091 E10.52546
G1 X116.342 Y113.757 E10.6034
G1 X116.365 Y114.406 E10.63364
G1 X116.296 Y115.191 E10.67033
G1 X116.11 Y116.032 E10.71044
G1 X115.628 Y117.321 E10.77452
G1 X115.32 Y118.112 E10.81404
G1 X114.428 Y120.607 E10.93742
G1 X113.607 Y123.126 E11.06079
G1 X112.845 Y125.704 E11.18597
G1 X112.167 Y128.271 E11.3096
G1 X111.564 Y130.846 E11.43274
G1 X111.084 Y133.268 E11.54772
G1 X110.829 Y134.498 E11.60621
G1 X110.637 Y135.19 E11.63965
G1 X110.361 Y135.853 E11.67309
G1 X110.006 Y136.478 E11.70656
G1 X109.582 Y137.049 E11.73967
G1 X109.24 Y137.42 E11.76317
G1 X108.794 Y137.859 E11.79231
G1 X108.251 Y138.328 E11.82572
G1 X107.713 Y138.692 E11.85597
G1 X107.01 Y139.05 E11.8927
G1 X106.335 Y139.29 E11.92606
G1 X105.702 Y139.436 E11.95631
G1 X104.918 Y139.516 E11.993
G1 X104.195 Y139.496 E12.02668
G1 X103.476 Y139.386 E12.06055
G1 X102.874 Y139.251 E12.08928
G1 X102.185 Y139.047 E12.12274
G1 X101.588 Y138.791 E12.15299
G1 X100.966 Y138.433 E12.1864
G1 X100.392 Y138 E12.21988
G1 X99.876 Y137.502 E12.25328
G1 X99.424 Y136.942 E12.28679
G1 X99.011 Y136.267 E12.32363
G1 X98.627 Y135.394 E12.36804
G1 X98.357 Y134.524 E12.41046
G1 X98.19 Y133.843 E12.44311
G1 X97.704 Y131.095 E12.57305
G1 X97.178 Y128.542 E12.69443
G1 X96.561 Y125.92 E12.81985
G1 X95.874 Y123.343 E12.94404
G1 X95.123 Y120.809 E13.06711
G1 X94.296 Y118.284 E13.19083
G1 X93.818 Y116.962 E13.25629
G1 X93.43 Y115.849 E13.31117
G1 X93.23 Y115.124 E13.34619
G1 X93.132 Y114.481 E13.37648
G1 X93.105 Y113.642 E13.41557
G1 X93.277 Y112.116 E13.48707
G1 X93.557 Y109.382 E13.61504
G1 X93.753 Y106.731 E13.73882
G1 X93.875 Y104.057 E13.86347
G1 X93.92 Y101.42 E13.98627
G1 X93.89 Y98.748 E14.1107
G1 X93.785 Y96.081 E14.23498
G1 X93.606 Y93.424 E14.35898
G1 X93.351 Y90.771 E14.48309
G1 X93.026 Y88.169 E14.60519
G1 X92.567 Y85.304 E14.7403
G1 X92.55 Y85.135 E14.74821
G1 X92.345 Y83.816 E14.81036
G1 X92.282 Y82.819 E14.85688
G1 X92.31 Y81.804 E14.90416
G1 X92.345 Y81.189 E14.93284
G1 X92.453 Y80.311 E14.97404
G1 X92.756 Y79.18 E15.02856
G1 X92.935 Y78.57 E15.05816
G1 X93.181 Y77.898 E15.09148
G1 X93.464 Y77.335 E15.12082
G1 X94.036 Y76.34 E15.17426
G1 X94.474 Y75.624 E15.21335
G1 X94.934 Y74.967 E15.25069
M204 S3000
M205 X10 Y10
G0 F3000 X95.392 Y75.289
M204 S1800
M205 X8 Y8
G1 F2400 X95.963 Y74.681 E15.28953
G1 X96.643 Y74.007 E15.33411
G1 X97.265 Y73.479 E15.3721
G1 X97.793 Y73.097 E15.40245
G1 X98.261 Y72.795 E15.42838
G1 X98.93 Y72.413 E15.46426
G1 X99.599 Y72.053 E15.49963
G1 X100.189 Y71.781 E15.52988
G1 X100.772 Y71.593 E15.55841
G1 X102.355 Y71.183 E15.63455
G1 X103.02 Y71.03 E15.66633
G1 X103.661 Y70.924 E15.69658
G1 X104.425 Y70.901 E15.73217
G1 X105.112 Y70.931 E15.76419
G1 X106.677 Y71.038 E15.83723
G1 X107.321 Y71.122 E15.86747
G1 X108.034 Y71.313 E15.90184
G1 X108.531 Y71.488 E15.92638
G1 X109.7 Y71.939 E15.98472
G1 X110.57 Y72.37 E16.02993
G1 X111.619 Y73.02 E16.0874
G1 X112.214 Y73.414 E16.12063
G1 X112.929 Y73.981 E16.16312
G1 X113.659 Y74.672 E16.20992
G1 X114.186 Y75.195 E16.24449
G1 X114.702 Y75.777 E16.28071
G1 X115.49 Y76.974 E16.34744
G1 X115.796 Y77.472 E16.37466
G1 X116.101 Y78.045 E16.40489
G1 X116.305 Y78.564 E16.43085
G1 X116.583 Y79.402 E16.47196
G1 X116.779 Y80.043 E16.50318
G1 X116.973 Y80.961 E16.54687
G1 X117.099 Y82.044 E16.59764
G1 X117.145 Y82.585 E16.62292
G1 X117.162 Y83.332 E16.65771
G1 X117.043 Y84.439 E16.70955
G1 X116.918 Y85.33 E16.75145
G1 X116.443 Y88.014 E16.87837
G1 X116.048 Y90.681 E17.00391
G1 X115.727 Y93.366 E17.12983
G1 X115.486 Y96.003 E17.25313
G1 X115.318 Y98.694 E17.37867
G1 X115.227 Y101.368 E17.50326
G1 X115.211 Y104.037 E17.62754
G1 X115.272 Y106.745 E17.75367
G1 X115.405 Y109.376 E17.87634
G1 X115.624 Y112.145 E18.00568
G1 X115.782 Y113.777 E18.08202
G1 X115.805 Y114.426 E18.11226
G1 X115.748 Y115.074 E18.14255
G1 X115.585 Y115.836 E18.17884
G1 X115.106 Y117.118 E18.24256
G1 X114.798 Y117.909 E18.28209
G1 X113.901 Y120.419 E18.4062
G1 X113.07 Y122.967 E18.531
G1 X112.308 Y125.545 E18.65618
G1 X111.626 Y128.128 E18.78057
G1 X111.019 Y130.718 E18.90444
G1 X110.536 Y133.155 E19.02013
G1 X110.289 Y134.351 E19.07699
G1 X110.119 Y134.978 E19.10724
G1 X109.873 Y135.579 E19.13748
G1 X109.555 Y136.146 E19.16775
G1 X109.17 Y136.669 E19.19799
G1 X108.828 Y137.04 E19.22149
G1 X108.426 Y137.437 E19.2478
G1 X107.937 Y137.864 E19.27803
G1 X107.399 Y138.228 E19.30827
G1 X106.82 Y138.523 E19.33853
G1 X106.209 Y138.744 E19.36879
G1 X105.576 Y138.89 E19.39903
G1 X104.93 Y138.956 E19.42927
G1 X104.28 Y138.942 E19.45954
G1 X103.561 Y138.832 E19.49341
G1 X103.03 Y138.713 E19.51875
G1 X102.406 Y138.532 E19.54901
G1 X101.809 Y138.276 E19.57925
G1 X101.248 Y137.949 E19.60949
G1 X100.732 Y137.555 E19.63972
G1 X100.267 Y137.101 E19.66998
G1 X99.862 Y136.593 E19.70023
G1 X99.523 Y136.039 E19.73048
G1 X99.162 Y135.228 E19.77181
G1 X98.892 Y134.358 E19.81423
G1 X98.734 Y133.71 E19.84529
G1 X98.255 Y130.998 E19.97352
G1 X97.723 Y128.414 E20.09637
G1 X97.106 Y125.792 E20.22179
G1 X96.415 Y123.199 E20.34675
G1 X95.66 Y120.65 E20.47054
G1 X94.823 Y118.094 E20.59578
G1 X94.347 Y116.778 E20.66094
G1 X93.959 Y115.665 E20.71582
G1 X93.784 Y115.04 E20.74605
G1 X93.686 Y114.397 E20.77633
G1 X93.665 Y113.627 E20.8122
G1 X93.833 Y112.181 E20.87999
G1 X94.114 Y109.439 E21.00833
G1 X94.311 Y106.772 E21.13286
G1 X94.435 Y104.067 E21.25895
G1 X94.48 Y101.43 E21.38175
G1 X94.45 Y98.726 E21.50767
G1 X94.345 Y96.059 E21.63195
G1 X94.164 Y93.386 E21.75671
G1 X93.907 Y90.702 E21.88226
G1 X93.582 Y88.1 E22.00436
G1 X93.12 Y85.215 E22.14041
G1 X93.105 Y85.063 E22.14752
G1 X92.904 Y83.779 E22.20803
G1 X92.842 Y82.834 E22.25213
G1 X92.869 Y81.836 E22.29862
G1 X92.904 Y81.221 E22.3273
G1 X92.994 Y80.456 E22.36317
G1 X93.293 Y79.337 E22.4171
G1 X93.462 Y78.76 E22.4451
G1 X93.682 Y78.149 E22.47534
G1 X93.95 Y77.614 E22.5032
G1 X94.514 Y76.632 E22.55593
G1 X94.952 Y75.916 E22.59502
G1 X95.392 Y75.289 E22.63068
M204 S3000
M205 X10 Y10
G1 F2400 E16.63068
G1 F600 Z0.275
G0 F3000 X103.73 Y81.567 Z0.275
M204 S1800
M205 X8 Y8
G1 F600 Z0.2
G1 F2400 E22.63068
G1 X104.07 Y81.227 E22.65307
G1 X104.488 Y81.014 E22.67492
G1 X104.955 Y80.94 E22.69694
G1 X105.422 Y81.014 E22.71895
G1 X105.84 Y81.227 E22.7408
G1 X106.18 Y81.567 E22.76319
G1 X106.392 Y81.983 E22.78493
G1 X106.466 Y82.451 E22.80699
G1 X106.392 Y82.917 E22.82896
G1 X106.18 Y83.335 E22.85079
G1 X105.84 Y83.675 E22.87318
G1 X105.423 Y83.888 E22.89498
G1 X104.956 Y83.962 E22.917
G1 X104.489 Y83.888 E22.93901
G1 X104.07 Y83.675 E22.9609
G1 X103.731 Y83.337 E22.98319
G1 X103.517 Y82.914 E23.00526
G1 X103.443 Y82.454 E23.02696
G1 X103.517 Y81.984 E23.04911
G1 X103.73 Y81.567 E23.07092
M204 S3000
M205 X10 Y10
G0 F3000 X104.19 Y81.899
M204 S1800
M205 X8 Y8
G1 F2400 X104.403 Y81.686 E23.08494
G1 X104.665 Y81.552 E23.09865
G1 X104.955 Y81.507 E23.11231
G1 X105.245 Y81.552 E23.12598
G1 X105.507 Y81.686 E23.13968
G1 X105.72 Y81.899 E23.15371
G1 X105.854 Y82.16 E23.16737
G1 X105.899 Y82.45 E23.18103
G1 X105.852 Y82.743 E23.19485
G1 X105.722 Y83.001 E23.2083
G1 X105.508 Y83.215 E23.2224
G1 X105.246 Y83.349 E23.2361
G1 X104.955 Y83.395 E23.24982
G1 X104.666 Y83.35 E23.26344
G1 X104.402 Y83.215 E23.27724
G1 X104.189 Y83.003 E23.29124
G1 X104.056 Y82.74 E23.30496
G1 X104.01 Y82.453 E23.31849
G1 X104.056 Y82.161 E23.33226
G1 X104.19 Y81.899 E23.34596
M204 S3000
M205 X10 Y10
G0 F3000 X104.648 Y82.233
M204 S1800
M205 X8 Y8
G1 F2400 X104.735 Y82.146 E23.35169
G1 X104.842 Y82.091 E23.35729
G1 X104.955 Y82.073 E23.36262
G1 X105.068 Y82.091 E23.36795
G1 X105.175 Y82.146 E23.37355
G1 X105.261 Y82.232 E23.37921
G1 X105.315 Y82.337 E23.38471
G1 X105.332 Y82.449 E23.38999
G1 X105.313 Y82.567 E23.39555
G1 X105.262 Y82.669 E23.40086
G1 X105.174 Y82.757 E23.40666
G1 X105.071 Y82.81 E23.41205
G1 X104.954 Y82.828 E23.41756
G1 X104.841 Y82.811 E23.42288
G1 X104.735 Y82.757 E23.42842
G1 X104.649 Y82.67 E23.43412
G1 X104.595 Y82.564 E23.43966
G1 X104.577 Y82.451 E23.44499
G1 X104.595 Y82.336 E23.45041
G1 X104.648 Y82.233 E23.4558
M204 S3000
M205 X10 Y10
G1 F2400 E17.4558
;MESH:SG90 Hand V4.stl
G0 F3000 X105.937 Y79.707
G0 X108.109 Y79.943
M204 S1800
M205 X8 Y8
;TYPE:WALL-INNER
G1 F2400 E23.4558
G1 F1206.9 X108.177 Y80.241 E23.47349
G1 F1500 X108.629 Y81.143 E23.52047
G1 X108.703 Y81.367 E23.53145
G1 X108.851 Y82.311 E23.57595
G1 X108.855 Y82.555 E23.58731
G1 X108.685 Y83.66 E23.63937
G1 X108.2 Y84.61 E23.68904
G1 X108.041 Y84.842 E23.70213
G1 X107.252 Y85.63 E23.75406
G1 X106.285 Y86.115 E23.80443
G1 X106.055 Y86.191 E23.81571
G1 X105.07 Y86.351 E23.86218
G1 X104.849 Y86.351 E23.87247
G1 X103.748 Y86.18 E23.92435
G1 X102.656 Y85.625 E23.98139
G1 X101.785 Y84.76 E24.03855
G1 X101.283 Y83.773 E24.09011
G1 X101.208 Y83.542 E24.10142
G1 X101.033 Y82.451 E24.15287
G1 X101.211 Y81.346 E24.20499
G1 X101.285 Y81.126 E24.2158
G1 X101.782 Y80.148 E24.26688
G1 X102.571 Y79.36 E24.3188
G1 X103.109 Y79.046 E24.34781
G1 F1242.6 X103.622 Y78.646 E24.38437
G1 F1056.6 X104.443 Y78.491 E24.4396
G1 F1088.1 X105.049 Y78.457 E24.47857
G1 F1100.9 X105.853 Y78.561 E24.53
G1 F1099.5 X106.256 Y78.67 E24.55652
G1 F1118.5 X107.094 Y79.059 E24.61421
G1 F1100.9 X107.447 Y79.316 E24.64192
G1 F1046.1 X108.109 Y79.943 E24.7028
M204 S3000
M205 X10 Y10
G0 F3000 X108.307 Y82.451
G0 X108.143 Y83.486
G0 X107.668 Y84.419
G0 X106.925 Y85.162
G0 X106.086 Y85.59
G0 X104.958 Y85.864
G0 X104.959 Y85.804
M204 S1800
M205 X8 Y8
G1 F1500 X103.94 Y85.643 E24.75083
G1 X102.984 Y85.166 E24.80058
G1 X102.228 Y84.4 E24.8507
G1 X101.764 Y83.472 E24.89901
G1 X101.602 Y82.469 E24.94632
G1 X101.775 Y81.394 E24.99702
G1 X102.259 Y80.462 E25.04592
G1 X102.999 Y79.731 E25.09435
G1 X103.915 Y79.267 E25.14217
G1 X104.943 Y79.098 E25.19068
G1 X105.978 Y79.26 E25.23946
G1 X106.935 Y79.747 E25.28946
G1 X107.671 Y80.482 E25.33789
G1 X108.145 Y81.423 E25.38695
G1 X108.307 Y82.449 E25.43532
G1 X108.143 Y83.489 E25.48435
G1 X107.674 Y84.411 E25.53251
G1 X106.924 Y85.167 E25.5821
G1 X105.994 Y85.636 E25.6306
G1 X104.959 Y85.804 E25.67942
M204 S3000
M205 X10 Y10
G0 F3000 X104.958 Y85.864
G0 X104.633 Y89.771
M204 S1800
M205 X8 Y8
G1 F1257.5 X104.339 Y90.45 E25.72052
G1 F1500 X103.804 Y91.229 E25.76453
G1 X103.742 Y91.561 E25.78025
G1 X103.806 Y91.961 E25.79912
G1 X104.342 Y92.901 E25.8495
G1 F1312.5 X104.599 Y93.449 E25.88171
