;FLAVOR:Marlin
;TIME:995
;Filament used: 1.25016m
;Layer height: 0.2
;MINX:84.106
;MINY:84.112
;MINZ:0.2
;MAXX:125.884
;MAXY:125.903
;MAXZ:12
;TARGET_MACHINE.NAME:Anycubic i3 Mega
;Generated with Cura_SteamEngine 5.7.0-alpha.0
M140 S60
M105
M190 S60
M104 S200
M105
M109 S200
M82 ;absolute extrusion mode
G21 ;metric values
G90 ;absolute positioning
M82 ;set extruder to absolute mode
M107 ;start with the fan off
G28 X0 Y0 ;move X/Y to min endstops
G28 Z0 ;move Z to min endstops
G1 Z15.0 F100 ;move the platform down 15mm
G92 E0 ;zero the extruded length
G1 F200 E3 ;extrude 3mm of feed stock
G92 E0 ;zero the extruded length again
G1 F100
G0 Y20 F100
M117 Printing...
G5
G92 E0
G92 E0
G1 F2400 E-6
;LAYER_COUNT:60
;LAYER:0
M107
M204 S3000
M205 X10 Y10
G1 F600 Z0.275
G0 F3000 X91.106 Y89.43 Z0.275
M204 S1800
M205 X8 Y8
;TYPE:SKIRT
G1 F600 Z0.2
G1 F2400 E0
G1 X91.671 Y88.914 E0.03563
G1 X92.859 Y88.089 E0.10298
G1 X94.486 Y87.018 E0.19368
G1 X95.087 Y86.638 E0.22679
G1 X95.896 Y86.204 E0.26954
G1 X97.096 Y85.744 E0.32938
G1 X98.91 Y85.082 E0.4193
G1 X99.558 Y84.858 E0.45122
G1 X100.475 Y84.611 E0.49544
G1 X101.678 Y84.449 E0.55196
G1 X103.649 Y84.219 E0.64437
G1 X104.39 Y84.144 E0.67905
G1 X105.152 Y84.112 E0.71456
G1 X106.607 Y84.248 E0.78261
G1 X108.446 Y84.463 E0.86882
G1 X109.225 Y84.567 E0.90542
G1 X109.972 Y84.713 E0.94086
G1 X111.388 Y85.19 E1.01043
G1 X113.124 Y85.825 E1.09651
G1 X113.808 Y86.087 E1.13061
G1 X114.665 Y86.486 E1.17463
G1 X115.757 Y87.179 E1.23485
G1 X117.376 Y88.246 E1.32514
G1 X117.966 Y88.65 E1.35844
G1 X118.635 Y89.175 E1.39804
G1 X119.612 Y90.173 E1.46307
G1 X120.787 Y91.422 E1.54292
G1 X121.374 Y92.066 E1.58349
G1 X121.966 Y92.814 E1.62791
G1 X122.587 Y93.849 E1.68411
G1 X123.558 Y95.534 E1.77467
G1 X123.922 Y96.189 E1.80956
G1 X124.324 Y97.048 E1.85373
G1 X124.71 Y98.263 E1.91309
G1 X125.26 Y100.106 E2.00264
G1 X125.444 Y100.752 E2.03392
G1 X125.624 Y101.568 E2.07283
G1 X125.742 Y103.004 E2.13992
G1 X125.852 Y104.911 E2.22887
G1 X125.884 Y105.656 E2.26359
G1 X125.871 Y106.416 E2.29898
G1 X125.652 Y107.862 E2.36708
G1 X125.329 Y109.692 E2.45361
G1 X125.185 Y110.44 E2.48908
G1 X124.964 Y111.284 E2.52971
G1 X124.466 Y112.514 E2.5915
G1 X123.696 Y114.303 E2.68219
G1 X123.406 Y114.948 E2.71512
G1 X122.996 Y115.72 E2.75582
G1 X122.202 Y116.835 E2.81956
G1 X121.073 Y118.354 E2.90769
G1 X120.637 Y118.923 E2.94107
G1 X120.003 Y119.639 E2.9856
G1 X119.002 Y120.508 E3.04732
G1 X117.569 Y121.711 E3.13445
G1 X116.995 Y122.178 E3.1689
G1 X116.24 Y122.709 E3.21188
G1 X115.092 Y123.31 E3.27222
G1 X113.403 Y124.16 E3.36027
G1 X112.745 Y124.478 E3.3943
G1 X111.853 Y124.834 E3.43902
G1 X110.69 Y125.13 E3.4949
G1 X108.731 Y125.596 E3.58866
G1 X108.07 Y125.742 E3.62018
G1 X107.202 Y125.875 E3.66107
G1 X105.807 Y125.903 E3.72604
G1 X103.927 Y125.902 E3.81358
G1 X103.251 Y125.892 E3.84506
G1 X102.274 Y125.809 E3.89072
G1 X100.985 Y125.528 E3.95215
G1 X99.146 Y125.091 E4.04017
G1 X98.457 Y124.916 E4.07327
G1 X97.695 Y124.673 E4.11051
G1 X96.401 Y124.06 E4.17719
G1 X94.757 Y123.234 E4.26286
G1 X94.022 Y122.849 E4.30149
G1 X93.248 Y122.37 E4.34388
G1 X92.232 Y121.545 E4.40482
G1 X90.785 Y120.328 E4.49286
G1 X90.219 Y119.835 E4.52781
G1 X89.622 Y119.243 E4.56696
G1 X88.792 Y118.171 E4.63009
G1 X87.657 Y116.645 E4.71864
G1 X87.228 Y116.049 E4.75284
G1 X86.728 Y115.237 E4.79724
G1 X86.202 Y114.07 E4.85685
G1 X85.455 Y112.328 E4.94511
G1 X85.179 Y111.66 E4.97876
G1 X84.918 Y110.902 E5.01609
G1 X84.631 Y109.477 E5.08378
G1 X84.302 Y107.603 E5.17237
G1 X84.19 Y106.903 E5.20538
G1 X84.106 Y105.948 E5.25002
G1 X84.157 Y104.738 E5.30642
G1 X84.267 Y102.833 E5.39527
G1 X84.322 Y102.078 E5.43052
G1 X84.447 Y101.18 E5.47273
G1 X84.804 Y99.89 E5.53506
G1 X85.354 Y98.052 E5.62439
G1 X85.583 Y97.33 E5.65966
G1 X85.921 Y96.48 E5.70226
G1 X86.557 Y95.331 E5.76341
G1 X87.465 Y93.758 E5.84798
G1 X87.868 Y93.084 E5.88455
G1 X88.417 Y92.298 E5.92919
G1 X89.303 Y91.326 E5.99043
G1 X90.567 Y89.985 E6.07624
G1 X91.106 Y89.43 E6.11227
M204 S3000
M205 X10 Y10
G0 F3000 X91.484 Y89.844
M204 S1800
M205 X8 Y8
G1 F2400 X92.049 Y89.328 E6.1479
G1 X93.167 Y88.557 E6.21114
G1 X94.786 Y87.491 E6.3014
G1 X95.355 Y87.13 E6.33277
G1 X96.096 Y86.727 E6.37205
G1 X97.288 Y86.27 E6.4315
G1 X99.094 Y85.611 E6.52101
G1 X99.706 Y85.398 E6.55119
G1 X100.55 Y85.166 E6.59195
G1 X101.743 Y85.005 E6.648
G1 X103.706 Y84.776 E6.74003
G1 X104.413 Y84.704 E6.77312
G1 X105.175 Y84.672 E6.80863
G1 X106.542 Y84.804 E6.87258
G1 X108.372 Y85.018 E6.95837
G1 X109.118 Y85.117 E6.99341
G1 X109.865 Y85.263 E7.02886
G1 X111.196 Y85.716 E7.09432
G1 X112.924 Y86.348 E7.18
G1 X113.574 Y86.596 E7.21239
G1 X114.365 Y86.959 E7.25292
G1 X115.449 Y87.647 E7.3127
G1 X117.06 Y88.709 E7.40255
G1 X117.62 Y89.091 E7.43412
G1 X118.289 Y89.616 E7.47372
G1 X119.204 Y90.557 E7.53483
G1 X120.374 Y91.8 E7.61432
G1 X120.937 Y92.416 E7.65318
G1 X121.486 Y93.102 E7.69409
G1 X122.102 Y94.129 E7.74985
G1 X123.069 Y95.807 E7.84003
G1 X123.416 Y96.429 E7.8732
G1 X123.79 Y97.218 E7.91386
G1 X124.173 Y98.423 E7.97273
G1 X124.721 Y100.259 E8.06195
G1 X124.905 Y100.905 E8.09323
G1 X125.077 Y101.688 E8.13056
G1 X125.183 Y103.036 E8.19352
G1 X125.293 Y104.935 E8.28209
G1 X125.324 Y105.646 E8.31523
G1 X125.311 Y106.406 E8.35063
G1 X125.101 Y107.765 E8.41466
G1 X124.779 Y109.587 E8.50081
G1 X124.643 Y110.298 E8.53452
G1 X124.422 Y111.142 E8.57514
G1 X123.952 Y112.292 E8.63299
G1 X123.185 Y114.073 E8.72329
G1 X122.895 Y114.718 E8.75622
G1 X122.54 Y115.395 E8.79181
G1 X121.753 Y116.501 E8.85502
G1 X120.628 Y118.013 E8.94278
G1 X120.192 Y118.582 E8.97615
G1 X119.636 Y119.216 E9.01542
G1 X118.642 Y120.079 E9.07672
G1 X117.215 Y121.277 E9.16347
G1 X116.67 Y121.722 E9.19624
G1 X115.98 Y122.213 E9.23567
G1 X114.84 Y122.81 E9.29559
G1 X113.159 Y123.656 E9.38322
G1 X112.501 Y123.974 E9.41725
G1 X111.715 Y124.291 E9.45671
G1 X110.56 Y124.585 E9.51221
G1 X108.609 Y125.049 E9.60559
G1 X107.985 Y125.188 E9.63536
G1 X107.117 Y125.321 E9.67625
G1 X105.807 Y125.343 E9.73726
G1 X103.935 Y125.342 E9.82442
G1 X103.259 Y125.332 E9.85591
G1 X102.393 Y125.262 E9.89636
G1 X101.114 Y124.983 E9.95732
G1 X99.283 Y124.548 E10.04495
G1 X98.627 Y124.382 E10.07646
G1 X97.865 Y124.139 E10.1137
G1 X96.652 Y123.56 E10.17629
G1 X95.016 Y122.738 E10.26154
G1 X94.314 Y122.371 E10.29843
G1 X93.601 Y121.935 E10.33734
G1 X92.592 Y121.116 E10.39786
G1 X91.152 Y119.905 E10.48547
G1 X90.611 Y119.435 E10.51884
G1 X90.065 Y118.9 E10.55443
G1 X89.241 Y117.837 E10.61706
G1 X88.112 Y116.318 E10.70519
G1 X87.683 Y115.722 E10.73938
G1 X87.239 Y115.007 E10.77857
G1 X86.717 Y113.849 E10.83772
G1 X85.973 Y112.114 E10.92562
G1 X85.697 Y111.446 E10.95928
G1 X85.448 Y110.72 E10.99502
G1 X85.183 Y109.38 E11.05862
G1 X84.855 Y107.514 E11.14684
G1 X84.748 Y106.851 E11.17811
G1 X84.666 Y105.971 E11.21927
G1 X84.716 Y104.77 E11.27524
G1 X84.826 Y102.874 E11.36367
G1 X84.881 Y102.119 E11.39892
G1 X84.987 Y101.329 E11.43604
G1 X85.34 Y100.051 E11.49778
G1 X85.888 Y98.221 E11.58673
G1 X86.105 Y97.534 E11.62027
G1 X86.411 Y96.751 E11.65942
G1 X87.042 Y95.611 E11.72009
G1 X87.946 Y94.045 E11.80429
G1 X88.329 Y93.402 E11.83914
G1 X88.831 Y92.675 E11.88028
G1 X89.711 Y91.71 E11.94109
G1 X90.969 Y90.375 E12.0265
G1 X91.484 Y89.844 E12.06095
M204 S3000
M205 X10 Y10
G0 F3000 X91.862 Y90.258
M204 S1800
M205 X8 Y8
G1 F2400 X92.427 Y89.742 E12.09658
G1 X93.475 Y89.025 E12.1557
G1 X95.087 Y87.963 E12.24559
G1 X95.626 Y87.62 E12.27534
G1 X96.296 Y87.25 E12.31098
G1 X97.48 Y86.796 E12.37003
G1 X99.278 Y86.14 E12.45915
G1 X99.89 Y85.927 E12.48932
G1 X100.625 Y85.721 E12.52486
G1 X101.808 Y85.561 E12.58045
G1 X103.763 Y85.333 E12.6721
G1 X104.436 Y85.264 E12.7036
G1 X105.198 Y85.232 E12.73912
G1 X106.477 Y85.36 E12.79897
G1 X108.299 Y85.573 E12.88439
G1 X109.011 Y85.667 E12.91783
G1 X109.758 Y85.813 E12.95327
G1 X111.004 Y86.242 E13.01463
G1 X112.724 Y86.871 E13.09991
G1 X113.374 Y87.119 E13.1323
G1 X114.065 Y87.432 E13.16763
G1 X115.141 Y88.114 E13.22695
G1 X116.745 Y89.172 E13.31642
G1 X117.277 Y89.534 E13.34638
G1 X117.887 Y90.006 E13.3823
G1 X118.796 Y90.941 E13.44302
G1 X119.961 Y92.178 E13.52214
G1 X120.524 Y92.794 E13.561
G1 X121.006 Y93.39 E13.59669
G1 X121.617 Y94.409 E13.65202
G1 X122.58 Y96.08 E13.74182
G1 X122.927 Y96.702 E13.77499
G1 X123.256 Y97.388 E13.81041
G1 X123.636 Y98.583 E13.8688
G1 X124.182 Y100.412 E13.95768
G1 X124.366 Y101.058 E13.98896
G1 X124.53 Y101.808 E14.02471
G1 X124.624 Y103.069 E14.08359
G1 X124.734 Y104.96 E14.17179
G1 X124.764 Y105.636 E14.2033
G1 X124.751 Y106.396 E14.23869
G1 X124.55 Y107.667 E14.29861
G1 X124.229 Y109.482 E14.38444
G1 X124.093 Y110.193 E14.41815
G1 X123.904 Y110.93 E14.45357
G1 X123.438 Y112.07 E14.51092
G1 X122.674 Y113.844 E14.60086
G1 X122.399 Y114.458 E14.63219
G1 X122.044 Y115.135 E14.66778
G1 X121.304 Y116.167 E14.72691
G1 X120.183 Y117.673 E14.81433
G1 X119.768 Y118.216 E14.84616
G1 X119.269 Y118.793 E14.88168
G1 X118.282 Y119.65 E14.94254
G1 X116.86 Y120.844 E15.02901
G1 X116.342 Y121.268 E15.06018
G1 X115.72 Y121.717 E15.0959
G1 X114.588 Y122.31 E15.1554
G1 X112.915 Y123.152 E15.24261
G1 X112.288 Y123.456 E15.27506
G1 X111.577 Y123.748 E15.31085
G1 X110.431 Y124.04 E15.36592
G1 X108.487 Y124.502 E15.45896
G1 X107.863 Y124.641 E15.48873
G1 X107.108 Y124.761 E15.52432
G1 X105.807 Y124.783 E15.58491
G1 X103.943 Y124.782 E15.67171
G1 X103.267 Y124.772 E15.70319
G1 X102.512 Y124.715 E15.73845
G1 X101.243 Y124.438 E15.79893
G1 X99.42 Y124.005 E15.88618
G1 X98.764 Y123.839 E15.91768
G1 X98.036 Y123.606 E15.95328
G1 X96.903 Y123.06 E16.01184
G1 X95.275 Y122.242 E16.09668
G1 X94.603 Y121.891 E16.13198
G1 X93.954 Y121.5 E16.16726
G1 X92.952 Y120.687 E16.22735
G1 X91.519 Y119.482 E16.31453
G1 X91.003 Y119.035 E16.34632
G1 X90.457 Y118.5 E16.38191
G1 X89.69 Y117.503 E16.44048
G1 X88.566 Y115.991 E16.52821
G1 X88.157 Y115.423 E16.5608
G1 X87.75 Y114.777 E16.59636
G1 X87.232 Y113.628 E16.65504
G1 X86.49 Y111.9 E16.74261
G1 X86.227 Y111.264 E16.77466
G1 X85.978 Y110.538 E16.8104
G1 X85.735 Y109.283 E16.86992
G1 X85.408 Y107.425 E16.95777
G1 X85.301 Y106.762 E16.98904
G1 X85.226 Y105.994 E17.02497
G1 X85.275 Y104.803 E17.08047
G1 X85.385 Y102.915 E17.16854
G1 X85.44 Y102.16 E17.20379
G1 X85.542 Y101.404 E17.23931
G1 X85.877 Y100.211 E17.29701
G1 X86.422 Y98.389 E17.38556
G1 X86.628 Y97.734 E17.41753
G1 X86.901 Y97.022 E17.45304
G1 X87.527 Y95.891 E17.51323
G1 X88.427 Y94.332 E17.59706
G1 X88.81 Y93.689 E17.6319
G1 X89.245 Y93.052 E17.66782
G1 X90.118 Y92.094 E17.72817
G1 X91.371 Y90.765 E17.81323
G1 X91.862 Y90.258 E17.84609
M204 S3000
M205 X10 Y10
G1 F2400 E11.84609
;MESH:Light Holder (single, new).stl
G0 F3000 X95.144 Y93.489
G0 X95.934 Y94.231
G0 X97.306 Y94.7
M204 S1800
M205 X8 Y8
;TYPE:WALL-INNER
G1 F2400 E17.84609
G1 F958.9 X97.525 Y94.542 E17.86576
G1 F930.2 X98.183 Y94.153 E17.92315
M204 S3000
M205 X10 Y10
G0 F3000 X94.663 Y97.71
M204 S1800
M205 X8 Y8
G1 F1794.9 X94.815 Y97.484 E17.93375
G1 F1690.1 X96.909 Y95.357 E18.0571
G1 F1388.4 X97.326 Y94.683 E18.09697
G1 F1222.7 X96.569 Y94.962 E18.14306
G1 F1288.3 X95.849 Y95.715 E18.19954
G1 F1418.9 X95.128 Y96.469 E18.25089
G1 F1578.9 X94.408 Y97.223 E18.29701
G1 F1631.1 X92.945 Y99.84 E18.4254
G1 F1365.9 X92.879 Y100.361 E18.45226
G1 F1064.6 X92.813 Y100.883 E18.48678
G1 X93.118 Y100.474 E18.52025
G1 F1365.9 X93.424 Y100.064 E18.54641
G1 F1700.4 X94.663 Y97.71 E18.65568
M204 S3000
M205 X10 Y10
G0 F3000 X92.813 Y100.883
M204 S1800
M205 X8 Y8
G1 F972.2 X92.72 Y101.148 E18.67586
G1 F939.6 X92.548 Y101.873 E18.73125
M204 S3000
M205 X10 Y10
G0 F3000 X92.596 Y102.854
M204 S1800
M205 X8 Y8
G1 F1640.6 X92.703 Y102.301 E18.75523
G1 F1176.5 X92.548 Y101.873 E18.78225
G1 X92.224 Y102.193 E18.80929
G1 F1640.6 X92.071 Y102.766 E18.83454
G1 F1647.1 X92 Y103.634 E18.87147
G1 F1178.1 X92.201 Y104.045 E18.89859
G1 X92.485 Y103.686 E18.92573
G1 F1647.1 X92.596 Y102.854 E18.96132
M204 S3000
M205 X10 Y10
G0 F3000 X92.201 Y104.045
M204 S1800
M205 X8 Y8
G1 F939.6 X92.094 Y105.054 E19.03675
G1 F975.6 X92.09 Y105.323 E19.05601
M204 S3000
M205 X10 Y10
G0 F3000 X92.355 Y105.769
M204 S1800
M205 X8 Y8
G1 F1237.1 X92.09 Y105.323 E19.0853
G1 F1240.8 X91.867 Y105.804 E19.11515
G1 F1746.4 X92.042 Y106.825 E19.15658
G1 F1171.5 X92.344 Y107.179 E19.18432
G1 X92.515 Y106.747 E19.21202
G1 F1739.1 X92.355 Y105.769 E19.25182
M204 S3000
M205 X10 Y10
G0 F3000 X92.344 Y107.179
M204 S1800
M205 X8 Y8
G1 F895.5 X92.611 Y108.769 E19.37757
G1 F957.8 X92.791 Y109.306 E19.41887
G1 F965.5 X93.308 Y110.41 E19.50706
G1 F887.9 X93.826 Y111.515 E19.60305
G1 F883.3 X94.617 Y112.79 E19.7217
G1 F897.4 X95.607 Y113.936 E19.83956
G1 F914 X96.211 Y114.489 E19.90214
G1 F988.2 X96.815 Y115.042 E19.96002
G1 F1076.9 X97.42 Y115.595 E20.01318
G1 F1064.6 X97.87 Y115.916 E20.04945
G1 F1016.9 X100.557 Y117.276 E20.25629
G1 F1112.6 X101.247 Y117.508 E20.30199
G1 F1147.5 X102.371 Y117.731 E20.37173
G1 F1029.4 X103.496 Y117.954 E20.44955
G1 F1021.9 X105.141 Y118.084 E20.56234
G1 F1050 X106.506 Y117.976 E20.65342
G1 F1074.2 X107.345 Y117.81 E20.70903
G1 F1168.3 X108.185 Y117.643 E20.76024
G1 F1282.4 X109.025 Y117.477 E20.80687
G1 F1274.7 X109.465 Y117.336 E20.83219
G1 F1198.3 X112.165 Y115.969 E21.00859
G1 F1250 X112.715 Y115.604 E21.04547
G1 F1261.3 X113.59 Y114.804 E21.11113
G1 F1157 X114.465 Y114.004 E21.1827
G1 F1163.4 X115.574 Y112.72 E21.28455
G1 F1179.8 X116.282 Y111.578 E21.3641
G1 F1184.8 X116.644 Y110.804 E21.41448
G1 F1282.4 X117.007 Y110.03 E21.46104
G1 F1397.7 X117.37 Y109.255 E21.50381
G1 F1374.8 X117.522 Y108.809 E21.52774
G1 F1248.1 X118.024 Y105.815 E21.69763
G1 F1261.3 X118.056 Y105.171 E21.73334
G1 F1248.1 X117.929 Y103.98 E21.80036
G1 F1118.5 X117.802 Y102.788 E21.87522
G1 F1130.6 X117.413 Y101.114 E21.9814
G1 F1115.5 X116.926 Y99.895 E22.06358
G1 F1081.1 X116.318 Y98.775 E22.14592
G1 F1179.8 X115.71 Y97.655 E22.22137
G1 F1171.5 X115.444 Y97.267 E22.24941
G1 F1082.5 X114.391 Y96.182 E22.34697
G1 F1024.4 X113.338 Y95.097 E22.45006
G1 F1082.5 X112.711 Y94.605 E22.50149
G1 F1121.5 X112.071 Y94.231 E22.54766
G1 F1013.3 X111.43 Y93.856 E22.59885
G1 F925.1 X110.79 Y93.482 E22.65481
G1 F935.4 X109.998 Y93.141 E22.7192
G1 F1051.3 X109.206 Y92.8 E22.77649
G1 F1102.4 X108.958 Y92.721 E22.79298
M204 S3000
M205 X10 Y10
G0 F3000 X105.296 Y92.314
M204 S1800
M205 X8 Y8
G1 F1842.1 X107.944 Y92.706 E22.89448
G1 F1618.5 X108.987 Y92.728 E22.9395
G1 X108.038 Y92.231 E22.98573
G1 F1775.9 X105.047 Y91.85 E23.10431
G1 F1787.2 X101.948 Y92.244 E23.2264
G1 F1242.6 X101.34 Y92.666 E23.268
G1 F1215.6 X102.062 Y92.738 E23.30969
G1 F1764.7 X105.019 Y92.302 E23.42799
G1 F1922.2 X105.296 Y92.314 E23.43807
M204 S3000
M205 X10 Y10
G0 F3000 X101.34 Y92.666
M204 S1800
M205 X8 Y8
G1 F973.3 X101.055 Y92.754 E23.45947
G1 F939.6 X100.292 Y93.081 E23.52118
M204 S3000
M205 X10 Y10
G0 F3000 X99.36 Y93.778
M204 S1800
M205 X8 Y8
G1 F1631.1 X100.036 Y93.459 E23.55319
G1 F1174.8 X100.292 Y93.081 E23.58033
G1 X99.841 Y93.009 E23.60748
G1 F1631.1 X99.117 Y93.298 E23.64086
G1 X98.394 Y93.746 E23.67729
G1 F1171.5 X98.183 Y94.153 E23.70462
G1 X98.64 Y94.172 E23.73189
G1 F1631.1 X99.36 Y93.778 E23.76703
M204 S3000
M205 X10 Y10
G0 F3000 X97.88 Y95.151
G0 X95.147 Y97.884
G0 X93.392 Y101.328
G0 X92.787 Y105.144
G0 X93.392 Y108.96
G0 X95.147 Y112.404
G0 X97.88 Y115.137
G0 X101.323 Y116.892
G0 X106.586 Y118.603
G0 X106.586 Y118.663
M204 S1800
M205 X8 Y8
G1 F1500 X109.681 Y117.928 E23.91516
G1 X112.515 Y116.501 E24.06291
G1 X114.947 Y114.458 E24.21081
G1 X116.847 Y111.903 E24.35907
G1 X118.104 Y108.983 E24.5071
G1 X118.655 Y105.851 E24.65518
G1 X118.47 Y102.671 E24.8035
G1 X117.559 Y99.623 E24.95163
G1 X115.974 Y96.873 E25.09943
G1 X113.791 Y94.558 E25.24759
G1 X111.131 Y92.804 E25.39596
G1 X108.159 Y91.721 E25.54325
G1 X105 Y91.35 E25.69136
G1 X101.841 Y91.72 E25.83946
G1 X98.868 Y92.804 E25.98681
G1 X96.209 Y94.558 E26.13513
G1 X94.026 Y96.873 E26.2833
G1 X92.442 Y99.623 E26.43107
G1 X91.53 Y102.671 E26.57922
G1 X91.345 Y105.851 E26.72754
G1 X91.896 Y108.982 E26.87558
G1 X93.153 Y111.903 E27.02365
G1 X95.053 Y114.458 E27.17191
G1 X97.485 Y116.501 E27.31981
