;FLAVOR:Marlin
;TIME:3609
;Filament used: 3.1733m
;Layer height: 0.2
;MINX:18.633
;MINY:18.614
;MINZ:0.2
;MAXX:191.39
;MAXY:191.388
;MAXZ:3
;TARGET_MACHINE.NAME:Anycubic i3 Mega
;Generated with Cura_SteamEngine 5.7.0-alpha.0
M140 S60
M105
M190 S60
M104 S200
M105
M109 S200
M82 ;absolute extrusion mode
G21 ;metric values
G90 ;absolute positioning
M82 ;set extruder to absolute mode
M107 ;start with the fan off
G28 X0 Y0 ;move X/Y to min endstops
G28 Z0 ;move Z to min endstops
G1 Z15.0 F100 ;move the platform down 15mm
G92 E0 ;zero the extruded length
G1 F200 E3 ;extrude 3mm of feed stock
G92 E0 ;zero the extruded length again
G1 F100
G0 Y20 F100
M117 Printing...
G5
G92 E0
G92 E0
G1 F2400 E-6
;LAYER_COUNT:15
;LAYER:0
M107
M204 S3000
M205 X10 Y10
G1 F600 Z0.275
G0 F3000 X43.757 Y44.086 Z0.275
M204 S1800
M205 X8 Y8
;TYPE:SKIRT
G1 F600 Z0.2
G1 F2400 E0
G1 X44.445 Y43.424 E0.04446
G1 X45.108 Y42.874 E0.08457
G1 X45.786 Y42.334 E0.12493
G1 X47.79 Y40.643 E0.24703
G1 X49.793 Y38.853 E0.37211
G1 X50.678 Y38.007 E0.42912
G1 X50.926 Y37.796 E0.44428
G1 X51.943 Y36.847 E0.50905
G1 X52.674 Y36.258 E0.55277
G1 X53.496 Y35.759 E0.59754
G1 X55.74 Y34.354 E0.72082
G1 X57.96 Y32.876 E0.84501
G1 X60.308 Y31.209 E0.9791
G1 X60.877 Y30.794 E1.01189
G1 X61.448 Y30.405 E1.04406
G1 X62.302 Y29.915 E1.08991
G1 X63.895 Y29.192 E1.17137
G1 X64.124 Y29.078 E1.18328
G1 X65.245 Y28.571 E1.24057
G1 X67.633 Y27.412 E1.36417
G1 X69.19 Y26.605 E1.44583
G1 X71.513 Y25.373 E1.56827
G1 X72.523 Y24.97 E1.6189
G1 X73.577 Y24.645 E1.67026
G1 X74.607 Y24.345 E1.72022
G1 X77.113 Y23.538 E1.84281
G1 X79.619 Y22.652 E1.96657
G1 X80.58 Y22.28 E2.01456
G1 X82.058 Y21.736 E2.08789
G1 X82.922 Y21.49 E2.12972
G1 X83.584 Y21.357 E2.16117
G1 X84.952 Y21.136 E2.22569
G1 X87.543 Y20.676 E2.34823
G1 X90.174 Y20.136 E2.47329
G1 X93.248 Y19.422 E2.62024
G1 X94.265 Y19.292 E2.66798
G1 X96.196 Y19.232 E2.75794
G1 X98.867 Y19.108 E2.88245
G1 X101.476 Y18.912 E3.00427
G1 X102.607 Y18.79 E3.05724
G1 X102.776 Y18.782 E3.06512
G1 X104.09 Y18.65 E3.12662
G1 X104.948 Y18.614 E3.1666
G1 X105.592 Y18.641 E3.19662
G1 X106.886 Y18.774 E3.25719
G1 X109.578 Y19.016 E3.38304
G1 X112.229 Y19.178 E3.50672
G1 X112.929 Y19.207 E3.53934
G1 X115.025 Y19.269 E3.63698
G1 X115.842 Y19.308 E3.67507
G1 X116.715 Y19.411 E3.716
G1 X118.083 Y19.741 E3.78153
G1 X120.765 Y20.343 E3.90952
G1 X123.373 Y20.852 E4.03325
G1 X124.878 Y21.111 E4.10436
G1 X126.715 Y21.412 E4.19104
G1 X127.59 Y21.615 E4.23286
G1 X131.003 Y22.889 E4.4025
G1 X133.55 Y23.763 E4.52788
G1 X134.967 Y24.211 E4.59709
G1 X137.495 Y24.988 E4.72023
G1 X138.302 Y25.3 E4.76052
G1 X139.872 Y26.123 E4.84306
G1 X140.444 Y26.438 E4.87347
G1 X142.767 Y27.632 E4.99509
G1 X145.977 Y29.15 E5.16043
G1 X147.758 Y29.955 E5.25144
G1 X148.728 Y30.537 E5.30411
G1 X150.22 Y31.604 E5.38953
G1 X150.323 Y31.669 E5.3952
G1 X150.85 Y32.052 E5.42553
G1 X153.024 Y33.543 E5.54828
G1 X155.595 Y35.193 E5.69053
G1 X156.53 Y35.779 E5.74191
G1 X157.504 Y36.439 E5.7967
G1 X158.231 Y37.022 E5.84009
G1 X160.541 Y39.187 E5.98751
G1 X162.491 Y40.906 E6.10856
G1 X164.105 Y42.258 E6.2066
G1 X165.38 Y43.301 E6.2833
G1 X165.933 Y43.797 E6.31789
G1 X166.541 Y44.438 E6.35903
G1 X168.734 Y47.105 E6.51981
G1 X170.443 Y49.065 E6.64089
G1 X172.298 Y51.075 E6.76826
G1 X173.064 Y51.878 E6.81993
G1 X173.668 Y52.606 E6.86398
G1 X174.517 Y53.943 E6.93772
G1 X175.174 Y55.019 E6.99643
G1 X176.605 Y57.228 E7.11899
G1 X178.617 Y60.119 E7.283
G1 X179.459 Y61.291 E7.35019
G1 X180.06 Y62.304 E7.40504
G1 X180.792 Y63.934 E7.48824
G1 X181.945 Y66.398 E7.61492
G1 X183.131 Y68.758 E7.7379
G1 X184.613 Y71.549 E7.88505
G1 X184.993 Y72.517 E7.93347
G1 X185.402 Y73.891 E8.00022
G1 X186.196 Y76.419 E8.12361
G1 X187.056 Y78.907 E8.24619
G1 X187.611 Y80.347 E8.31805
G1 X187.689 Y80.594 E8.33011
G1 X188.276 Y82.163 E8.40811
G1 X188.552 Y83.211 E8.45858
G1 X188.85 Y85.041 E8.54491
G1 X189.311 Y87.628 E8.66727
G1 X189.844 Y90.202 E8.78967
G1 X190.491 Y92.973 E8.92217
G1 X190.615 Y93.779 E8.96014
G1 X190.696 Y94.775 E9.00667
G1 X190.733 Y95.725 E9.05094
G1 X190.757 Y96.689 E9.09584
G1 X190.895 Y99.32 E9.21852
G1 X191.115 Y102.02 E9.34466
G1 X191.361 Y104.418 E9.45691
G1 X191.39 Y105.277 E9.49693
G1 X191.075 Y108.351 E9.64082
G1 X190.872 Y110.959 E9.76262
G1 X190.742 Y113.637 E9.88747
G1 X190.685 Y115.674 E9.98236
G1 X190.518 Y116.849 E10.03762
G1 X189.739 Y120.216 E10.19854
G1 X189.214 Y122.843 E10.32329
G1 X188.595 Y126.568 E10.49912
G1 X188.393 Y127.453 E10.54139
G1 X188.142 Y128.215 E10.57874
G1 X187.817 Y129.056 E10.62073
G1 X186.897 Y131.551 E10.74455
G1 X186.035 Y134.106 E10.87011
G1 X185.072 Y137.28 E11.02456
G1 X184.883 Y137.802 E11.05041
G1 X184.644 Y138.367 E11.07898
G1 X184.409 Y138.855 E11.1042
G1 X183.899 Y139.796 E11.15403
G1 X182.658 Y142.16 E11.27836
G1 X181.499 Y144.527 E11.40108
G1 X180.179 Y147.446 E11.55025
G1 X179.77 Y148.231 E11.59147
G1 X179.287 Y148.972 E11.63266
G1 X178.739 Y149.725 E11.67602
G1 X177.157 Y151.967 E11.80379
G1 X175.711 Y154.144 E11.92548
G1 X174.865 Y155.505 E12.0001
G1 X174.773 Y155.636 E12.00756
G1 X173.949 Y156.965 E12.08037
G1 X173.512 Y157.594 E12.11603
G1 X172.989 Y158.208 E12.15359
G1 X171.021 Y160.3 E12.28733
G1 X169.248 Y162.3 E12.41179
G1 X167.554 Y164.323 E12.53465
G1 X166.667 Y165.425 E12.60052
G1 X166.155 Y165.98 E12.63568
G1 X165.462 Y166.633 E12.68002
G1 X164.103 Y167.741 E12.76167
G1 X162.027 Y169.494 E12.88819
G1 X160.03 Y171.279 E13.01291
G1 X158.396 Y172.819 E13.11746
G1 X157.632 Y173.472 E13.16426
G1 X156.939 Y173.974 E13.20411
G1 X154.367 Y175.572 E13.3451
G1 X152.178 Y177.019 E13.46729
G1 X149.938 Y178.593 E13.59477
G1 X148.53 Y179.595 E13.67524
G1 X147.673 Y180.077 E13.72102
G1 X146.99 Y180.394 E13.75608
G1 X146.272 Y180.707 E13.79255
G1 X143.892 Y181.815 E13.9148
G1 X141.501 Y183.011 E14.03929
G1 X138.587 Y184.559 E14.19293
G1 X137.785 Y184.92 E14.23388
G1 X136.409 Y185.347 E14.30097
G1 X135.16 Y185.715 E14.3616
G1 X132.638 Y186.533 E14.48506
G1 X130.171 Y187.414 E14.60704
G1 X129.283 Y187.759 E14.6514
G1 X127.835 Y188.299 E14.72336
G1 X126.72 Y188.581 E14.77691
G1 X125.587 Y188.771 E14.83041
G1 X124.507 Y188.939 E14.8813
G1 X121.88 Y189.423 E15.00568
G1 X118.226 Y190.224 E15.17987
G1 X116.827 Y190.558 E15.24684
G1 X115.712 Y190.705 E15.29921
G1 X113.744 Y190.767 E15.3909
G1 X111.105 Y190.89 E15.51391
G1 X107.38 Y191.188 E15.68792
G1 X105.522 Y191.365 E15.77483
G1 X104.633 Y191.388 E15.81623
G1 X100.663 Y191.014 E16.00191
G1 X98.06 Y190.842 E16.12338
G1 X95.547 Y190.757 E16.24047
G1 X94.121 Y190.689 E16.30694
G1 X93.254 Y190.587 E16.34759
G1 X91.455 Y190.16 E16.43369
G1 X88.847 Y189.585 E16.55804
G1 X85.036 Y188.876 E16.73855
G1 X83.139 Y188.559 E16.8281
G1 X82.108 Y188.292 E16.87769
G1 X80.873 Y187.817 E16.93931
G1 X78.346 Y186.887 E17.06469
G1 X75.863 Y186.053 E17.18666
G1 X72.48 Y185.013 E17.35146
G1 X71.665 Y184.698 E17.39215
G1 X70.178 Y183.916 E17.47038
G1 X69.544 Y183.567 E17.50408
G1 X67.239 Y182.382 E17.62476
G1 X64.802 Y181.214 E17.7506
G1 X62.745 Y180.292 E17.85556
G1 X62.12 Y179.986 E17.88796
G1 X61.287 Y179.487 E17.93318
G1 X59.756 Y178.401 E18.02058
G1 X57.72 Y176.974 E18.13636
G1 X54.393 Y174.815 E18.32104
G1 X52.72 Y173.768 E18.41293
G1 X51.969 Y173.174 E18.45752
G1 X51.223 Y172.486 E18.50478
G1 X50.332 Y171.632 E18.56224
G1 X48.372 Y169.858 E18.68534
G1 X46.325 Y168.106 E18.8108
G1 X44.738 Y166.815 E18.90606
G1 X44.068 Y166.22 E18.94779
G1 X43.445 Y165.563 E18.98995
G1 X42.336 Y164.208 E19.07148
G1 X40.573 Y162.122 E19.19866
G1 X38.382 Y159.694 E19.35094
G1 X37.185 Y158.42 E19.43234
G1 X36.733 Y157.902 E19.46435
G1 X36.41 Y157.502 E19.48829
G1 X35.985 Y156.905 E19.52242
G1 X34.601 Y154.669 E19.64487
G1 X33.134 Y152.434 E19.76935
G1 X31.618 Y150.264 E19.89261
G1 X30.665 Y148.941 E19.96854
G1 X30.312 Y148.411 E19.99819
G1 X29.841 Y147.554 E20.04372
G1 X29.251 Y146.231 E20.11117
G1 X28.095 Y143.75 E20.23863
G1 X26.915 Y141.391 E20.36145
G1 X25.542 Y138.82 E20.49716
G1 X25.283 Y138.29 E20.52463
G1 X24.924 Y137.362 E20.57097
G1 X24.072 Y134.524 E20.70894
G1 X23.221 Y131.969 E20.83434
G1 X22.263 Y129.351 E20.96415
G1 X21.859 Y128.292 E21.01693
G1 X21.558 Y127.316 E21.06449
G1 X21.368 Y126.497 E21.10363
G1 X21.22 Y125.558 E21.1479
G1 X20.761 Y122.888 E21.27405
G1 X20.25 Y120.34 E21.39506
G1 X19.571 Y117.434 E21.53402
G1 X19.399 Y116.555 E21.57572
G1 X19.288 Y115.568 E21.62197
G1 X19.17 Y112.144 E21.7815
G1 X19.005 Y109.554 E21.90235
G1 X18.659 Y105.946 E22.07112
G1 X18.633 Y105.362 E22.09834
G1 X18.641 Y104.505 E22.13825
G1 X18.672 Y103.924 E22.16534
G1 X19.008 Y100.352 E22.3324
G1 X19.175 Y97.694 E22.45641
G1 X19.268 Y94.821 E22.59026
G1 X19.322 Y94.171 E22.62063
G1 X19.485 Y92.992 E22.67606
G1 X19.792 Y91.638 E22.7407
G1 X19.986 Y90.837 E22.77908
G1 X20.544 Y88.228 E22.90331
G1 X21.024 Y85.624 E23.02661
G1 X21.415 Y83.235 E23.13933
G1 X21.673 Y82.255 E23.18652
G1 X21.871 Y81.685 E23.21462
G1 X22.358 Y80.396 E23.27878
G1 X23.25 Y77.937 E23.40058
G1 X24.478 Y74.146 E23.58614
G1 X25.041 Y72.31 E23.67556
G1 X25.451 Y71.362 E23.72365
G1 X26.295 Y69.788 E23.80681
G1 X27.525 Y67.419 E23.93111
G1 X28.674 Y65.046 E24.05388
G1 X29.911 Y62.321 E24.19323
G1 X30.375 Y61.497 E24.23726
G1 X30.741 Y60.959 E24.26756
G1 X31.594 Y59.774 E24.33555
G1 X33.115 Y57.593 E24.45936
G1 X34.571 Y55.373 E24.58298
G1 X35.974 Y53.105 E24.70716
G1 X36.41 Y52.495 E24.74208
G1 X36.877 Y51.928 E24.77628
G1 X37.388 Y51.355 E24.81203
G1 X38.898 Y49.75 E24.91464
G1 X40.655 Y47.773 E25.0378
G1 X42.373 Y45.728 E25.16217
G1 X43.184 Y44.735 E25.22187
G1 X43.757 Y44.086 E25.26218
M204 S3000
M205 X10 Y10
G0 F3000 X44.177 Y44.457
M204 S1800
M205 X8 Y8
G1 F2400 X44.802 Y43.855 E25.30259
G1 X45.457 Y43.312 E25.3422
G1 X46.135 Y42.772 E25.38256
G1 X48.163 Y41.061 E25.50612
G1 X50.166 Y39.271 E25.6312
G1 X51.041 Y38.434 E25.68758
G1 X51.289 Y38.223 E25.70274
G1 X52.297 Y37.281 E25.76699
G1 X52.965 Y36.737 E25.8071
G1 X53.787 Y36.238 E25.85188
G1 X56.037 Y34.829 E25.97549
G1 X58.284 Y33.333 E26.10119
G1 X60.632 Y31.666 E26.23528
G1 X61.193 Y31.256 E26.26763
G1 X61.728 Y30.89 E26.29782
G1 X62.533 Y30.425 E26.34111
G1 X64.137 Y29.697 E26.42313
G1 X64.355 Y29.588 E26.43448
G1 X65.49 Y29.075 E26.49247
G1 X67.878 Y27.915 E26.61609
G1 X69.452 Y27.1 E26.69863
G1 X71.775 Y25.868 E26.82107
G1 X72.688 Y25.505 E26.86682
G1 X73.734 Y25.183 E26.91778
G1 X74.764 Y24.883 E26.96773
G1 X77.295 Y24.068 E27.09155
G1 X79.806 Y23.18 E27.21557
G1 X80.773 Y22.806 E27.26384
G1 X82.251 Y22.262 E27.33718
G1 X83.032 Y22.039 E27.375
G1 X83.673 Y21.91 E27.40545
G1 X85.041 Y21.689 E27.46997
G1 X87.656 Y21.225 E27.59364
G1 X90.287 Y20.684 E27.71871
G1 X93.32 Y19.977 E27.86373
G1 X94.283 Y19.852 E27.90895
G1 X96.214 Y19.791 E27.99891
G1 X98.9 Y19.667 E28.12411
G1 X101.536 Y19.469 E28.2472
G1 X102.667 Y19.347 E28.30017
G1 X102.82 Y19.34 E28.3073
G1 X104.146 Y19.207 E28.36935
G1 X104.925 Y19.174 E28.40566
G1 X105.569 Y19.201 E28.43567
G1 X106.836 Y19.332 E28.49499
G1 X109.529 Y19.574 E28.62089
G1 X112.206 Y19.738 E28.74577
G1 X112.906 Y19.767 E28.7784
G1 X114.999 Y19.828 E28.8759
G1 X115.779 Y19.864 E28.91226
G1 X116.584 Y19.955 E28.94998
G1 X117.96 Y20.287 E29.01589
G1 X120.658 Y20.893 E29.14465
G1 X123.266 Y21.402 E29.26838
G1 X124.787 Y21.664 E29.34025
G1 X126.624 Y21.965 E29.42693
G1 X127.394 Y22.14 E29.4637
G1 X130.813 Y23.416 E29.63362
G1 X133.368 Y24.293 E29.75941
G1 X134.798 Y24.745 E29.82924
G1 X137.295 Y25.511 E29.95086
G1 X138.042 Y25.796 E29.98809
G1 X139.602 Y26.614 E30.07011
G1 X140.174 Y26.929 E30.10052
G1 X142.51 Y28.13 E30.22283
G1 X145.746 Y29.66 E30.3895
G1 X147.527 Y30.465 E30.48051
G1 X148.402 Y30.993 E30.5281
G1 X149.907 Y32.069 E30.61424
G1 X149.993 Y32.122 E30.61895
G1 X150.522 Y32.507 E30.64941
G1 X152.707 Y34.005 E30.77277
G1 X155.298 Y35.668 E30.91613
G1 X156.217 Y36.243 E30.96661
G1 X157.154 Y36.876 E31.01926
G1 X157.848 Y37.431 E31.06064
G1 X160.158 Y39.596 E31.20806
G1 X162.131 Y41.335 E31.33053
G1 X163.75 Y42.691 E31.42886
G1 X165.007 Y43.719 E31.50448
G1 X165.527 Y44.183 E31.53693
G1 X166.108 Y44.794 E31.57619
G1 X168.301 Y47.461 E31.73697
G1 X170.031 Y49.445 E31.85954
G1 X171.886 Y51.455 E31.9869
G1 X172.635 Y52.238 E32.03735
G1 X173.195 Y52.906 E32.07794
G1 X174.039 Y54.235 E32.15125
G1 X174.696 Y55.311 E32.20996
G1 X176.145 Y57.548 E32.33406
G1 X178.162 Y60.446 E32.49847
G1 X179.004 Y61.618 E32.56567
G1 X179.549 Y62.534 E32.6153
G1 X180.282 Y64.164 E32.69852
G1 X181.445 Y66.65 E32.82632
G1 X182.637 Y69.021 E32.94989
G1 X184.092 Y71.755 E33.0941
G1 X184.456 Y72.677 E33.14026
G1 X184.865 Y74.051 E33.20701
G1 X185.667 Y76.602 E33.33153
G1 X186.533 Y79.108 E33.45499
G1 X187.088 Y80.548 E33.52685
G1 X187.164 Y80.789 E33.53862
G1 X187.735 Y82.307 E33.61414
G1 X187.999 Y83.301 E33.66203
G1 X188.298 Y85.131 E33.74837
G1 X188.763 Y87.742 E33.87186
G1 X189.299 Y90.33 E33.99493
G1 X189.938 Y93.059 E34.12544
G1 X190.057 Y93.824 E34.16149
G1 X190.136 Y94.797 E34.20695
G1 X190.173 Y95.739 E34.25084
G1 X190.197 Y96.703 E34.29574
G1 X190.337 Y99.365 E34.41987
G1 X190.558 Y102.077 E34.54657
G1 X190.801 Y104.437 E34.65704
G1 X190.83 Y105.296 E34.69706
G1 X190.518 Y108.293 E34.83737
G1 X190.314 Y110.916 E34.95988
G1 X190.182 Y113.622 E35.08603
G1 X190.13 Y115.596 E35.17798
G1 X189.972 Y116.723 E35.23097
G1 X189.193 Y120.09 E35.39189
G1 X188.665 Y122.733 E35.5174
G1 X188.049 Y126.445 E35.69261
G1 X187.861 Y127.278 E35.73237
G1 X187.619 Y128.014 E35.76845
G1 X187.295 Y128.855 E35.81041
G1 X186.366 Y131.372 E35.93534
G1 X185.504 Y133.927 E36.0609
G1 X184.545 Y137.089 E36.21476
G1 X184.356 Y137.611 E36.24061
G1 X184.139 Y138.124 E36.26655
G1 X183.904 Y138.612 E36.29177
G1 X183.407 Y139.529 E36.34034
G1 X182.162 Y141.9 E36.46503
G1 X180.996 Y144.281 E36.58848
G1 X179.682 Y147.187 E36.73699
G1 X179.273 Y147.972 E36.77821
G1 X178.834 Y148.642 E36.81551
G1 X178.286 Y149.395 E36.85887
G1 X176.699 Y151.644 E36.98704
G1 X175.235 Y153.848 E37.11025
G1 X174.389 Y155.209 E37.18487
G1 X174.31 Y155.321 E37.19125
G1 X173.488 Y156.647 E37.26389
G1 X173.085 Y157.231 E37.29693
G1 X172.581 Y157.824 E37.33317
G1 X170.613 Y159.916 E37.46691
G1 X168.829 Y161.928 E37.59212
G1 X167.125 Y163.963 E37.71572
G1 X166.255 Y165.045 E37.78036
G1 X165.743 Y165.6 E37.81553
G1 X165.108 Y166.199 E37.85617
G1 X163.749 Y167.307 E37.93782
G1 X161.654 Y169.076 E38.0655
G1 X159.657 Y170.861 E38.19022
G1 X158.032 Y172.394 E38.29424
G1 X157.303 Y173.019 E38.33896
G1 X156.643 Y173.498 E38.37693
G1 X154.071 Y175.096 E38.51793
G1 X151.869 Y176.552 E38.64085
G1 X149.616 Y178.135 E38.76906
G1 X148.255 Y179.107 E38.84694
G1 X147.437 Y179.569 E38.89068
G1 X146.766 Y179.881 E38.92514
G1 X146.036 Y180.199 E38.96222
G1 X143.641 Y181.314 E39.08523
G1 X141.238 Y182.516 E39.21034
G1 X138.324 Y184.064 E39.36399
G1 X137.556 Y184.409 E39.40319
G1 X136.251 Y184.81 E39.46676
G1 X134.987 Y185.182 E39.52812
G1 X132.465 Y186.001 E39.65159
G1 X129.968 Y186.892 E39.77504
G1 X129.087 Y187.234 E39.81905
G1 X127.639 Y187.774 E39.89101
G1 X126.627 Y188.029 E39.9396
G1 X125.501 Y188.218 E39.99277
G1 X124.406 Y188.388 E40.04437
G1 X121.774 Y188.873 E40.16899
G1 X118.096 Y189.679 E40.34431
G1 X116.697 Y190.013 E40.41129
G1 X115.694 Y190.145 E40.45839
G1 X113.726 Y190.208 E40.55008
G1 X111.063 Y190.332 E40.67421
G1 X107.335 Y190.63 E40.84836
G1 X105.508 Y190.805 E40.93382
G1 X104.619 Y190.828 E40.97523
G1 X100.7 Y190.455 E41.15854
G1 X98.085 Y190.282 E41.28057
G1 X95.573 Y190.198 E41.39761
G1 X94.184 Y190.133 E41.46236
G1 X93.383 Y190.042 E41.49989
G1 X91.576 Y189.613 E41.58637
G1 X88.954 Y189.035 E41.7114
G1 X85.138 Y188.326 E41.89213
G1 X83.277 Y188.016 E41.97998
G1 X82.309 Y187.769 E42.02649
G1 X81.074 Y187.294 E42.08811
G1 X78.539 Y186.361 E42.21389
G1 X76.041 Y185.522 E42.33659
G1 X72.68 Y184.49 E42.50031
G1 X71.926 Y184.202 E42.53789
G1 X70.448 Y183.425 E42.61564
G1 X69.814 Y183.076 E42.64934
G1 X67.481 Y181.877 E42.77148
G1 X65.044 Y180.709 E42.89732
G1 X62.991 Y179.789 E43.00207
G1 X62.366 Y179.483 E43.03448
G1 X61.611 Y179.03 E43.07548
G1 X60.08 Y177.944 E43.16288
G1 X58.025 Y176.504 E43.27972
G1 X54.698 Y174.345 E43.4644
