;FLAVOR:Marlin
;TIME:1648
;Filament used: 1.13173m
;Layer height: 0.2
;MINX:48.515
;MINY:90.526
;MINZ:0.2
;MAXX:161.484
;MAXY:119.474
;MAXZ:3.475
;TARGET_MACHINE.NAME:Anycubic i3 Mega
;Generated with Cura_SteamEngine 5.7.0-alpha.0
M140 S60
M105
M190 S60
M104 S200
M105
M109 S200
M82 ;absolute extrusion mode
G21 ;metric values
G90 ;absolute positioning
M82 ;set extruder to absolute mode
M107 ;start with the fan off
G28 X0 Y0 ;move X/Y to min endstops
G28 Z0 ;move Z to min endstops
G1 Z15.0 F100 ;move the platform down 15mm
G92 E0 ;zero the extruded length
G1 F200 E3 ;extrude 3mm of feed stock
G92 E0 ;zero the extruded length again
G1 F100
G0 Y20 F100
M117 Printing...
G5
G92 E0
G92 E0
G1 F2400 E-6
;LAYER_COUNT:17
;LAYER:0
M107
M204 S3000
M205 X10 Y10
G1 F600 Z0.275
G0 F3000 X52.649 Y91.42 Z0.275
M204 S1800
M205 X8 Y8
;TYPE:SKIRT
G1 F600 Z0.2
G1 F2400 E0
G1 X53.234 Y91.136 E0.03028
G1 X54.332 Y90.77 E0.08417
G1 X55.209 Y90.601 E0.12576
G1 X55.94 Y90.544 E0.1599
G1 X56.967 Y90.526 E0.20773
G1 X153.186 Y90.526 E4.68809
G1 X153.908 Y90.536 E4.72171
G1 X154.898 Y90.619 E4.76797
G1 X155.773 Y90.814 E4.80972
G1 X156.497 Y91.025 E4.84483
G1 X157.304 Y91.379 E4.88587
G1 X158.366 Y92.043 E4.94419
G1 X159.172 Y92.726 E4.99338
G1 X159.659 Y93.252 E5.02676
G1 X160.173 Y93.954 E5.06727
G1 X160.593 Y94.654 E5.10529
G1 X160.995 Y95.56 E5.15144
G1 X161.24 Y96.346 E5.18978
G1 X161.403 Y97.235 E5.23186
G1 X161.481 Y98.1 E5.2723
G1 X161.484 Y111.258 E5.88499
G1 X161.47 Y112.039 E5.92137
G1 X161.394 Y112.88 E5.96069
G1 X161.135 Y114.004 E6.0144
G1 X160.717 Y115.087 E6.06845
G1 X160.23 Y115.965 E6.1152
G1 X159.725 Y116.654 E6.15498
G1 X159.058 Y117.366 E6.20041
G1 X158.312 Y117.988 E6.24564
G1 X157.586 Y118.448 E6.28566
G1 X156.724 Y118.858 E6.3301
G1 X156.074 Y119.105 E6.36248
G1 X155.013 Y119.361 E6.4133
G1 X154.023 Y119.467 E6.45967
G1 X56.762 Y119.474 E10.98855
G1 X56.011 Y119.463 E11.02352
G1 X55.164 Y119.393 E11.06309
G1 X54.304 Y119.22 E11.10394
G1 X53.465 Y118.953 E11.14494
G1 X52.665 Y118.594 E11.18577
G1 X51.887 Y118.128 E11.228
G1 X51.242 Y117.631 E11.26591
G1 X50.634 Y117.062 E11.30469
G1 X50.047 Y116.365 E11.34712
G1 X49.594 Y115.686 E11.38513
G1 X49.015 Y114.473 E11.44771
G1 X48.759 Y113.651 E11.4878
G1 X48.571 Y112.599 E11.53757
G1 X48.527 Y111.876 E11.57129
G1 X48.515 Y111.02 E11.61116
G1 X48.516 Y98.707 E12.1845
G1 X48.528 Y97.993 E12.21775
G1 X48.638 Y96.891 E12.26932
G1 X48.831 Y96.087 E12.30782
G1 X49.076 Y95.389 E12.34227
G1 X49.445 Y94.583 E12.38355
G1 X49.952 Y93.767 E12.42828
G1 X50.563 Y93.015 E12.4734
G1 X51.212 Y92.386 E12.51548
G1 X51.876 Y91.88 E12.55435
G1 X52.649 Y91.42 E12.59624
M204 S3000
M205 X10 Y10
G0 F3000 X52.894 Y91.924
M204 S1800
M205 X8 Y8
G1 F2400 X53.479 Y91.64 E12.62652
G1 X54.438 Y91.32 E12.67359
G1 X55.315 Y91.151 E12.71518
G1 X55.95 Y91.104 E12.74483
G1 X56.977 Y91.086 E12.79266
G1 X153.178 Y91.086 E17.27218
G1 X153.9 Y91.096 E17.3058
G1 X154.777 Y91.166 E17.34677
G1 X155.616 Y91.352 E17.38679
G1 X156.34 Y91.563 E17.4219
G1 X157.009 Y91.855 E17.45589
G1 X158.005 Y92.471 E17.51042
G1 X158.763 Y93.109 E17.55656
G1 X159.207 Y93.583 E17.5868
G1 X159.721 Y94.285 E17.62731
G1 X160.082 Y94.883 E17.65984
G1 X160.46 Y95.727 E17.7029
G1 X160.705 Y96.513 E17.74124
G1 X160.845 Y97.285 E17.77777
G1 X160.923 Y98.15 E17.81821
G1 X160.924 Y111.249 E18.42816
G1 X160.912 Y111.992 E18.46276
G1 X160.848 Y112.754 E18.49836
G1 X160.589 Y113.878 E18.55207
G1 X160.226 Y114.818 E18.59899
G1 X159.777 Y115.636 E18.64244
G1 X159.316 Y116.271 E18.67898
G1 X158.649 Y116.983 E18.72441
G1 X158.01 Y117.516 E18.76316
G1 X157.345 Y117.942 E18.79993
G1 X156.483 Y118.352 E18.84438
G1 X155.876 Y118.581 E18.87459
G1 X154.953 Y118.804 E18.9188
G1 X153.963 Y118.91 E18.96517
G1 X56.77 Y118.914 E23.49088
G1 X56.019 Y118.903 E23.52585
G1 X55.273 Y118.844 E23.5607
G1 X54.474 Y118.686 E23.59862
G1 X53.635 Y118.419 E23.63962
G1 X52.951 Y118.112 E23.67453
G1 X52.229 Y117.684 E23.71362
G1 X51.584 Y117.187 E23.75153
G1 X51.061 Y116.699 E23.78484
G1 X50.513 Y116.054 E23.82425
G1 X50.06 Y115.375 E23.86226
G1 X49.55 Y114.306 E23.91741
G1 X49.294 Y113.484 E23.9575
G1 X49.13 Y112.565 E24.00097
G1 X49.087 Y111.868 E24.03348
G1 X49.075 Y111.02 E24.07297
G1 X49.076 Y98.716 E24.6459
G1 X49.088 Y98.002 E24.67915
G1 X49.183 Y97.022 E24.725
G1 X49.376 Y96.218 E24.7635
G1 X49.604 Y95.577 E24.79518
G1 X49.921 Y94.879 E24.83087
G1 X50.428 Y94.063 E24.87561
G1 X50.996 Y93.37 E24.91733
G1 X51.554 Y92.83 E24.95349
G1 X52.163 Y92.361 E24.98928
G1 X52.894 Y91.924 E25.02894
M204 S3000
M205 X10 Y10
G0 F3000 X53.139 Y92.428
M204 S1800
M205 X8 Y8
G1 F2400 X53.724 Y92.144 E25.05922
G1 X54.547 Y91.869 E25.09962
G1 X55.357 Y91.709 E25.13807
G1 X55.96 Y91.664 E25.16623
G1 X56.987 Y91.646 E25.21405
G1 X153.17 Y91.646 E29.69274
G1 X153.892 Y91.656 E29.72636
G1 X154.656 Y91.713 E29.76203
G1 X155.495 Y91.899 E29.80205
G1 X156.12 Y92.078 E29.83232
G1 X156.717 Y92.333 E29.86255
G1 X157.646 Y92.901 E29.91325
G1 X158.354 Y93.492 E29.9562
G1 X158.798 Y93.966 E29.98644
G1 X159.268 Y94.614 E30.02371
G1 X159.602 Y95.171 E30.05396
G1 X159.925 Y95.894 E30.09083
G1 X160.17 Y96.68 E30.12917
G1 X160.287 Y97.335 E30.16015
G1 X160.365 Y98.2 E30.20059
G1 X160.364 Y111.24 E30.80779
G1 X160.352 Y111.983 E30.84239
G1 X160.302 Y112.631 E30.87265
G1 X160.066 Y113.679 E30.92267
G1 X159.734 Y114.551 E30.96612
G1 X159.324 Y115.307 E31.00617
G1 X158.863 Y115.942 E31.0427
G1 X158.29 Y116.553 E31.08171
G1 X157.651 Y117.086 E31.12046
G1 X157.104 Y117.437 E31.15072
G1 X156.285 Y117.828 E31.19298
G1 X155.678 Y118.057 E31.22319
G1 X154.893 Y118.247 E31.2608
G1 X153.903 Y118.353 E31.30716
G1 X56.778 Y118.354 E35.8297
G1 X56.027 Y118.343 E35.86468
G1 X55.379 Y118.294 E35.89494
G1 X54.642 Y118.152 E35.92989
G1 X53.862 Y117.907 E35.96796
G1 X53.234 Y117.629 E35.99994
G1 X52.57 Y117.24 E36.03577
G1 X51.964 Y116.775 E36.07134
G1 X51.486 Y116.334 E36.10162
G1 X50.979 Y115.743 E36.13788
G1 X50.526 Y115.064 E36.17589
G1 X50.085 Y114.139 E36.2236
G1 X49.829 Y113.317 E36.26369
G1 X49.689 Y112.53 E36.30091
G1 X49.647 Y111.86 E36.33217
G1 X49.635 Y111.02 E36.37129
G1 X49.636 Y98.724 E36.94384
G1 X49.646 Y98.053 E36.97509
G1 X49.728 Y97.151 E37.01727
G1 X49.904 Y96.406 E37.05291
G1 X50.132 Y95.765 E37.08459
G1 X50.398 Y95.172 E37.11485
G1 X50.863 Y94.416 E37.15618
G1 X51.387 Y93.771 E37.19488
G1 X51.896 Y93.274 E37.228
G1 X52.505 Y92.805 E37.2638
G1 X53.139 Y92.428 E37.29814
M204 S3000
M205 X10 Y10
G1 F2400 E31.29814
;MESH:Sign Holmes-O-matic.stl
G0 F3000 X55.842 Y96.307
G0 X56.15 Y97.345
G0 X153.685 Y111.674
M204 S1800
M205 X8 Y8
;TYPE:WALL-INNER
G1 F2400 E37.29814
G1 F1500 X153.685 Y98.33 E37.9195
G1 X56.315 Y98.326 E42.45345
G1 X56.315 Y111.674 E43.07499
G1 X153.685 Y111.674 E47.60894
M204 S3000
M205 X10 Y10
G0 F3000 X56.222 Y112.174
G0 X56.222 Y112.234
M204 S1800
M205 X8 Y8
G1 F1500 X153.832 Y112.229 E52.15408
G1 X154.068 Y112.122 E52.16614
G1 X154.163 Y112.025 E52.17246
G1 X154.245 Y111.759 E52.18542
G1 X154.245 Y98.281 E52.81302
G1 X154.185 Y98.019 E52.82553
G1 X154.023 Y97.846 E52.83657
G1 X153.755 Y97.766 E52.84959
G1 X56.212 Y97.766 E57.3916
G1 X55.984 Y97.833 E57.40267
G1 X55.86 Y97.956 E57.4108
G1 X55.755 Y98.188 E57.42266
G1 X55.756 Y111.841 E58.0584
G1 X55.875 Y112.071 E58.07046
G1 X56.001 Y112.165 E58.07778
G1 X56.222 Y112.234 E58.08856
M204 S3000
M205 X10 Y10
G0 F3000 X56.222 Y112.174
G0 X55.196 Y111.755
M204 S1800
M205 X8 Y8
;TYPE:WALL-OUTER
G1 F1500 X55.224 Y112.006 E58.10032
G1 X55.319 Y112.255 E58.11273
G1 X55.47 Y112.467 E58.12485
G1 X55.743 Y112.671 E58.14072
G1 X56.138 Y112.794 E58.15998
G1 X153.942 Y112.794 E62.71414
G1 X154.383 Y112.594 E62.73669
G1 X154.675 Y112.267 E62.75711
G1 X154.805 Y111.842 E62.7778
G1 X154.805 Y98.247 E63.41084
G1 X154.775 Y98.003 E63.42229
G1 X154.681 Y97.746 E63.43503
G1 X154.478 Y97.482 E63.45054
G1 X154.271 Y97.336 E63.46233
G1 X153.837 Y97.206 E63.48343
G1 X56.131 Y97.206 E68.03303
G1 X55.752 Y97.318 E68.05143
G1 X55.394 Y97.632 E68.07361
G1 X55.222 Y98.006 E68.09277
G1 X55.195 Y98.237 E68.1036
G1 X55.196 Y111.755 E68.73306
M204 S3000
M205 X10 Y10
G0 F3000 X55.218 Y111.953
G0 X55.83 Y111.859
G0 X153.145 Y111.134
M204 S1800
M205 X8 Y8
;TYPE:SKIN
G1 F1200 X56.855 Y111.134 E73.21672
G1 X56.855 Y98.866 E73.78797
G1 X153.145 Y98.866 E78.27164
G1 X153.145 Y111.134 E78.84289
M204 S3000
M205 X10 Y10
G0 F3000 X152.208 Y99.146
M204 S1800
M205 X8 Y8
G1 F1200 X152.865 Y99.804 E78.88619
M204 S3000
M205 X10 Y10
G0 F3000 X152.865 Y100.596
M204 S1800
M205 X8 Y8
G1 F1200 X151.416 Y99.146 E78.98164
M204 S3000
M205 X10 Y10
G0 F3000 X150.624 Y99.146
M204 S1800
M205 X8 Y8
G1 F1200 X152.865 Y101.388 E79.12924
M204 S3000
M205 X10 Y10
G0 F3000 X152.865 Y102.18
M204 S1800
M205 X8 Y8
G1 F1200 X149.832 Y99.146 E79.32901
M204 S3000
M205 X10 Y10
G0 F3000 X149.04 Y99.146
M204 S1800
M205 X8 Y8
G1 F1200 X152.865 Y102.972 E79.58092
M204 S3000
M205 X10 Y10
G0 F3000 X152.865 Y103.764
M204 S1800
M205 X8 Y8
G1 F1200 X148.248 Y99.146 E79.88499
M204 S3000
M205 X10 Y10
G0 F3000 X147.456 Y99.146
M204 S1800
M205 X8 Y8
G1 F1200 X152.865 Y104.556 E80.24122
M204 S3000
M205 X10 Y10
G0 F3000 X152.865 Y105.348
M204 S1800
M205 X8 Y8
G1 F1200 X146.664 Y99.146 E80.6496
M204 S3000
M205 X10 Y10
G0 F3000 X145.872 Y99.146
M204 S1800
M205 X8 Y8
G1 F1200 X152.865 Y106.14 E81.11013
M204 S3000
M205 X10 Y10
G0 F3000 X152.865 Y106.932
M204 S1800
M205 X8 Y8
G1 F1200 X145.08 Y99.146 E81.62282
M204 S3000
M205 X10 Y10
G0 F3000 X144.288 Y99.146
M204 S1800
M205 X8 Y8
G1 F1200 X152.865 Y107.723 E82.18763
M204 S3000
M205 X10 Y10
G0 F3000 X152.865 Y108.515
M204 S1800
M205 X8 Y8
G1 F1200 X143.496 Y99.146 E82.80459
M204 S3000
M205 X10 Y10
G0 F3000 X142.704 Y99.146
M204 S1800
M205 X8 Y8
G1 F1200 X152.865 Y109.307 E83.47371
M204 S3000
M205 X10 Y10
G0 F3000 X152.865 Y110.099
M204 S1800
M205 X8 Y8
G1 F1200 X141.912 Y99.146 E84.19499
M204 S3000
M205 X10 Y10
G0 F3000 X141.12 Y99.146
M204 S1800
M205 X8 Y8
G1 F1200 X152.828 Y110.854 E84.96598
M204 S3000
M205 X10 Y10
G0 F3000 X152.036 Y110.854
M204 S1800
M205 X8 Y8
G1 F1200 X140.328 Y99.146 E85.73697
M204 S3000
M205 X10 Y10
G0 F3000 X139.536 Y99.146
M204 S1800
M205 X8 Y8
G1 F1200 X151.244 Y110.854 E86.50796
M204 S3000
M205 X10 Y10
G0 F3000 X150.452 Y110.854
M204 S1800
M205 X8 Y8
G1 F1200 X138.744 Y99.146 E87.27895
M204 S3000
M205 X10 Y10
G0 F3000 X137.952 Y99.146
M204 S1800
M205 X8 Y8
G1 F1200 X149.66 Y110.854 E88.04995
M204 S3000
M205 X10 Y10
G0 F3000 X148.868 Y110.854
M204 S1800
M205 X8 Y8
G1 F1200 X137.16 Y99.146 E88.82094
M204 S3000
M205 X10 Y10
G0 F3000 X136.368 Y99.146
M204 S1800
M205 X8 Y8
G1 F1200 X148.076 Y110.854 E89.59193
M204 S3000
M205 X10 Y10
G0 F3000 X147.284 Y110.854
M204 S1800
M205 X8 Y8
G1 F1200 X135.576 Y99.146 E90.36292
M204 S3000
M205 X10 Y10
G0 F3000 X134.784 Y99.146
M204 S1800
M205 X8 Y8
G1 F1200 X146.492 Y110.854 E91.13391
M204 S3000
M205 X10 Y10
G0 F3000 X145.7 Y110.854
M204 S1800
M205 X8 Y8
G1 F1200 X133.992 Y99.146 E91.9049
M204 S3000
M205 X10 Y10
G0 F3000 X133.201 Y99.146
M204 S1800
M205 X8 Y8
G1 F1200 X144.908 Y110.854 E92.67586
M204 S3000
M205 X10 Y10
G0 F3000 X144.116 Y110.854
M204 S1800
M205 X8 Y8
G1 F1200 X132.409 Y99.146 E93.44682
M204 S3000
M205 X10 Y10
G0 F3000 X131.617 Y99.146
M204 S1800
M205 X8 Y8
G1 F1200 X143.324 Y110.854 E94.21778
M204 S3000
M205 X10 Y10
G0 F3000 X142.532 Y110.854
M204 S1800
M205 X8 Y8
G1 F1200 X130.825 Y99.146 E94.98874
M204 S3000
M205 X10 Y10
G0 F3000 X130.033 Y99.146
M204 S1800
M205 X8 Y8
G1 F1200 X141.74 Y110.854 E95.7597
M204 S3000
M205 X10 Y10
G0 F3000 X140.948 Y110.854
M204 S1800
M205 X8 Y8
G1 F1200 X129.241 Y99.146 E96.53066
M204 S3000
M205 X10 Y10
G0 F3000 X128.449 Y99.146
M204 S1800
M205 X8 Y8
G1 F1200 X140.156 Y110.854 E97.30162
M204 S3000
M205 X10 Y10
G0 F3000 X139.364 Y110.854
M204 S1800
M205 X8 Y8
G1 F1200 X127.657 Y99.146 E98.07257
M204 S3000
M205 X10 Y10
G0 F3000 X126.865 Y99.146
M204 S1800
M205 X8 Y8
G1 F1200 X138.572 Y110.854 E98.84353
M204 S3000
M205 X10 Y10
G0 F3000 X137.78 Y110.854
M204 S1800
M205 X8 Y8
G1 F1200 X126.073 Y99.146 E99.61449
M204 S3000
M205 X10 Y10
G0 F3000 X125.281 Y99.146
M204 S1800
M205 X8 Y8
G1 F1200 X136.989 Y110.854 E100.38548
M204 S3000
M205 X10 Y10
G0 F3000 X136.197 Y110.854
M204 S1800
M205 X8 Y8
G1 F1200 X124.489 Y99.146 E101.15648
M204 S3000
M205 X10 Y10
G0 F3000 X123.697 Y99.146
M204 S1800
M205 X8 Y8
G1 F1200 X135.405 Y110.854 E101.92747
M204 S3000
M205 X10 Y10
G0 F3000 X134.613 Y110.854
M204 S1800
M205 X8 Y8
G1 F1200 X122.905 Y99.146 E102.69846
M204 S3000
M205 X10 Y10
G0 F3000 X122.113 Y99.146
M204 S1800
M205 X8 Y8
G1 F1200 X133.821 Y110.854 E103.46945
M204 S3000
M205 X10 Y10
G0 F3000 X133.029 Y110.854
M204 S1800
M205 X8 Y8
G1 F1200 X121.321 Y99.146 E104.24044
M204 S3000
M205 X10 Y10
G0 F3000 X120.529 Y99.146
M204 S1800
M205 X8 Y8
G1 F1200 X132.237 Y110.854 E105.01144
M204 S3000
M205 X10 Y10
G0 F3000 X131.445 Y110.854
M204 S1800
M205 X8 Y8
G1 F1200 X119.737 Y99.146 E105.78243
M204 S3000
M205 X10 Y10
G0 F3000 X118.945 Y99.146
M204 S1800
M205 X8 Y8
G1 F1200 X130.653 Y110.854 E106.55342
M204 S3000
M205 X10 Y10
G0 F3000 X129.861 Y110.854
M204 S1800
M205 X8 Y8
G1 F1200 X118.153 Y99.146 E107.32441
M204 S3000
M205 X10 Y10
G0 F3000 X117.361 Y99.146
M204 S1800
M205 X8 Y8
G1 F1200 X129.069 Y110.854 E108.0954
M204 S3000
M205 X10 Y10
G0 F3000 X128.277 Y110.854
M204 S1800
M205 X8 Y8
G1 F1200 X116.569 Y99.146 E108.86639
M204 S3000
M205 X10 Y10
G0 F3000 X115.777 Y99.146
M204 S1800
M205 X8 Y8
G1 F1200 X127.485 Y110.854 E109.63739
M204 S3000
M205 X10 Y10
G0 F3000 X126.693 Y110.854
M204 S1800
M205 X8 Y8
G1 F1200 X114.985 Y99.146 E110.40838
M204 S3000
M205 X10 Y10
G0 F3000 X114.194 Y99.146
M204 S1800
M205 X8 Y8
G1 F1200 X125.901 Y110.854 E111.17934
M204 S3000
M205 X10 Y10
G0 F3000 X125.109 Y110.854
M204 S1800
M205 X8 Y8
G1 F1200 X113.402 Y99.146 E111.9503
M204 S3000
M205 X10 Y10
G0 F3000 X112.61 Y99.146
M204 S1800
M205 X8 Y8
G1 F1200 X124.317 Y110.854 E112.72125
M204 S3000
M205 X10 Y10
G0 F3000 X123.525 Y110.854
M204 S1800
M205 X8 Y8
G1 F1200 X111.818 Y99.146 E113.49221
M204 S3000
M205 X10 Y10
G0 F3000 X111.026 Y99.146
M204 S1800
M205 X8 Y8
G1 F1200 X122.733 Y110.854 E114.26317
M204 S3000
M205 X10 Y10
G0 F3000 X121.941 Y110.854
M204 S1800
M205 X8 Y8
G1 F1200 X110.234 Y99.146 E115.03413
M204 S3000
M205 X10 Y10
G0 F3000 X109.442 Y99.146
M204 S1800
M205 X8 Y8
G1 F1200 X121.149 Y110.854 E115.80509
M204 S3000
M205 X10 Y10
G0 F3000 X120.357 Y110.854
M204 S1800
M205 X8 Y8
G1 F1200 X108.65 Y99.146 E116.57605
M204 S3000
M205 X10 Y10
G0 F3000 X107.858 Y99.146
M204 S1800
M205 X8 Y8
G1 F1200 X119.565 Y110.854 E117.34701
M204 S3000
M205 X10 Y10
G0 F3000 X118.773 Y110.854
M204 S1800
M205 X8 Y8
G1 F1200 X107.066 Y99.146 E118.11797
M204 S3000
M205 X10 Y10
G0 F3000 X106.274 Y99.146
M204 S1800
M205 X8 Y8
G1 F1200 X117.981 Y110.854 E118.88893
M204 S3000
M205 X10 Y10
G0 F3000 X117.19 Y110.854
M204 S1800
M205 X8 Y8
G1 F1200 X105.482 Y99.146 E119.65992
M204 S3000
M205 X10 Y10
G0 F3000 X104.69 Y99.146
M204 S1800
M205 X8 Y8
G1 F1200 X116.398 Y110.854 E120.43091
M204 S3000
M205 X10 Y10
G0 F3000 X115.606 Y110.854
M204 S1800
M205 X8 Y8
G1 F1200 X103.898 Y99.146 E121.2019
M204 S3000
M205 X10 Y10
G0 F3000 X103.106 Y99.146
M204 S1800
M205 X8 Y8
G1 F1200 X114.814 Y110.854 E121.97289
M204 S3000
M205 X10 Y10
G0 F3000 X114.022 Y110.854
M204 S1800
M205 X8 Y8
G1 F1200 X102.314 Y99.146 E122.74388
M204 S3000
M205 X10 Y10
G0 F3000 X101.522 Y99.146
M204 S1800
M205 X8 Y8
G1 F1200 X113.23 Y110.854 E123.51488
M204 S3000
M205 X10 Y10
G0 F3000 X112.438 Y110.854
M204 S1800
M205 X8 Y8
G1 F1200 X100.73 Y99.146 E124.28587
M204 S3000
M205 X10 Y10
G0 F3000 X99.938 Y99.146
M204 S1800
M205 X8 Y8
G1 F1200 X111.646 Y110.854 E125.05686
M204 S3000
M205 X10 Y10
G0 F3000 X110.854 Y110.854
M204 S1800
M205 X8 Y8
G1 F1200 X99.146 Y99.146 E125.82785
M204 S3000
M205 X10 Y10
G0 F3000 X98.354 Y99.146
M204 S1800
M205 X8 Y8
G1 F1200 X110.062 Y110.854 E126.59884
M204 S3000
M205 X10 Y10
G0 F3000 X109.27 Y110.854
M204 S1800
M205 X8 Y8
G1 F1200 X97.562 Y99.146 E127.36984
M204 S3000
M205 X10 Y10
G0 F3000 X96.77 Y99.146
M204 S1800
M205 X8 Y8
