;FLAVOR:Marlin
;TIME:812
;Filament used: 0.992185m
;Layer height: 0.2
;MINX:88.606
;MINY:83.445
;MINZ:0.2
;MAXX:121.376
;MAXY:126.23
;MAXZ:15
;TARGET_MACHINE.NAME:Anycubic i3 Mega
;Generated with Cura_SteamEngine 5.7.0-alpha.0
M140 S60
M105
M190 S60
M104 S200
M105
M109 S200
M82 ;absolute extrusion mode
G21 ;metric values
G90 ;absolute positioning
M82 ;set extruder to absolute mode
M107 ;start with the fan off
G28 X0 Y0 ;move X/Y to min endstops
G28 Z0 ;move Z to min endstops
G1 Z15.0 F100 ;move the platform down 15mm
G92 E0 ;zero the extruded length
G1 F200 E3 ;extrude 3mm of feed stock
G92 E0 ;zero the extruded length again
G1 F100
G0 Y20 F100
M117 Printing...
G5
G92 E0
G92 E0
G1 F2400 E-6
;LAYER_COUNT:75
;LAYER:0
M107
M204 S3000
M205 X10 Y10
G1 F600 Z0.275
G0 F3000 X93.097 Y85.745 Z0.275
M204 S1800
M205 X8 Y8
;TYPE:SKIRT
G1 F600 Z0.2
G1 F2400 E0
G1 X93.587 Y85.222 E0.03337
G1 X94.135 Y84.756 E0.06687
G1 X94.915 Y84.249 E0.11019
G1 X95.623 Y83.914 E0.14666
G1 X96.237 Y83.703 E0.17689
G1 X97.139 Y83.514 E0.2198
G1 X97.882 Y83.449 E0.25453
G1 X110.301 Y83.445 E0.83281
G1 X111.075 Y83.456 E0.86886
G1 X111.861 Y83.518 E0.90557
G1 X112.699 Y83.691 E0.94541
G1 X113.315 Y83.897 E0.97566
G1 X114.151 Y84.296 E1.01879
G1 X114.807 Y84.724 E1.05526
G1 X115.357 Y85.184 E1.08865
G1 X115.853 Y85.705 E1.12215
G1 X116.362 Y86.391 E1.16192
G1 X116.747 Y87.078 E1.19859
G1 X117.045 Y87.808 E1.23531
G1 X117.299 Y88.734 E1.28002
G1 X117.557 Y91.11 E1.39131
G1 X117.896 Y93.716 E1.51368
G1 X118.308 Y96.312 E1.63607
G1 X118.797 Y98.911 E1.75921
G1 X119.363 Y101.519 E1.88348
G1 X120.003 Y104.091 E2.00689
G1 X120.712 Y106.648 E2.13045
G1 X121.137 Y108.092 E2.20054
G1 X121.293 Y108.792 E2.23394
G1 X121.376 Y109.642 E2.2737
G1 X121.357 Y110.357 E2.30701
G1 X121.258 Y111.068 E2.34044
G1 X121.059 Y111.829 E2.37706
G1 X120.768 Y112.561 E2.41374
G1 X120.351 Y113.312 E2.45374
G1 X119.776 Y114.082 E2.49849
G1 X118.874 Y115.015 E2.55892
G1 X109.954 Y123.933 E3.14625
G1 X109.441 Y124.434 E3.17964
G1 X108.813 Y124.965 E3.21793
G1 X108.153 Y125.397 E3.25466
G1 X107.448 Y125.743 E3.29123
G1 X106.773 Y125.979 E3.32453
G1 X106.073 Y126.139 E3.35796
G1 X105.147 Y126.23 E3.40129
G1 X104.362 Y126.201 E3.43787
G1 X103.72 Y126.104 E3.4681
G1 X102.827 Y125.854 E3.51128
G1 X102.167 Y125.574 E3.54466
G1 X101.4 Y125.126 E3.58602
G1 X100.535 Y124.435 E3.63758
G1 X90.936 Y114.84 E4.26956
G1 X90.397 Y114.285 E4.30558
G1 X89.907 Y113.711 E4.34072
G1 X89.435 Y112.996 E4.38062
G1 X89.09 Y112.289 E4.41725
G1 X88.835 Y111.548 E4.45374
G1 X88.694 Y110.914 E4.48398
G1 X88.606 Y109.988 E4.52729
G1 X88.638 Y109.193 E4.56434
G1 X88.777 Y108.356 E4.60385
G1 X89.491 Y105.365 E4.74704
G1 X90.026 Y102.786 E4.86968
G1 X90.484 Y100.216 E4.99124
G1 X90.876 Y97.584 E5.11515
G1 X91.188 Y94.993 E5.23667
G1 X91.433 Y92.327 E5.36133
G1 X91.557 Y90.241 E5.45863
G1 X91.621 Y89.362 E5.49967
G1 X91.737 Y88.551 E5.53782
G1 X91.902 Y87.922 E5.5681
G1 X92.244 Y87.063 E5.61115
G1 X92.557 Y86.493 E5.64143
G1 X93.097 Y85.745 E5.68439
M204 S3000
M205 X10 Y10
G0 F3000 X93.508 Y86.126
M204 S1800
M205 X8 Y8
G1 F2400 X93.95 Y85.649 E5.71467
G1 X94.498 Y85.183 E5.74817
G1 X95.157 Y84.754 E5.78478
G1 X95.805 Y84.444 E5.81823
G1 X96.419 Y84.233 E5.84846
G1 X97.188 Y84.072 E5.88505
G1 X97.931 Y84.007 E5.91977
G1 X110.293 Y84.005 E6.4954
G1 X111.067 Y84.016 E6.53145
G1 X111.816 Y84.076 E6.56643
G1 X112.521 Y84.222 E6.59996
G1 X113.137 Y84.428 E6.6302
G1 X113.847 Y84.767 E6.66684
G1 X114.45 Y85.156 E6.70025
G1 X114.951 Y85.57 E6.73052
G1 X115.447 Y86.091 E6.76401
G1 X115.875 Y86.667 E6.79743
G1 X116.23 Y87.293 E6.83094
G1 X116.505 Y87.956 E6.86436
G1 X116.747 Y88.837 E6.9069
G1 X117 Y91.17 E7.01617
G1 X117.343 Y93.804 E7.13986
G1 X117.758 Y96.416 E7.26301
G1 X118.25 Y99.03 E7.38686
G1 X118.816 Y101.638 E7.51113
G1 X119.463 Y104.241 E7.63603
G1 X120.173 Y106.798 E7.7596
G1 X120.59 Y108.214 E7.82833
G1 X120.746 Y108.914 E7.86172
G1 X120.816 Y109.63 E7.89522
G1 X120.802 Y110.28 E7.9255
G1 X120.703 Y110.991 E7.95892
G1 X120.518 Y111.685 E7.99237
G1 X120.249 Y112.351 E8.02581
G1 X119.9 Y112.979 E8.05927
G1 X119.373 Y113.693 E8.10059
G1 X118.478 Y114.619 E8.16056
G1 X109.563 Y123.532 E8.74756
G1 X109.05 Y124.033 E8.78095
G1 X108.504 Y124.498 E8.81434
G1 X107.904 Y124.895 E8.84784
G1 X107.26 Y125.215 E8.88133
G1 X106.648 Y125.433 E8.91158
G1 X105.948 Y125.593 E8.94502
G1 X105.165 Y125.67 E8.98165
G1 X104.446 Y125.647 E9.01515
G1 X103.804 Y125.55 E9.04538
G1 X103.046 Y125.338 E9.08203
G1 X102.386 Y125.058 E9.11542
G1 X101.75 Y124.688 E9.14968
G1 X100.885 Y123.997 E9.20123
G1 X91.338 Y114.45 E9.82992
G1 X90.799 Y113.895 E9.86594
G1 X90.333 Y113.348 E9.8994
G1 X89.937 Y112.748 E9.93288
G1 X89.619 Y112.104 E9.96632
G1 X89.382 Y111.426 E9.99976
G1 X89.241 Y110.792 E10.03001
G1 X89.166 Y110.007 E10.06673
G1 X89.191 Y109.284 E10.10041
G1 X89.322 Y108.486 E10.13807
G1 X90.036 Y105.495 E10.28125
G1 X90.574 Y102.9 E10.40466
G1 X91.038 Y100.298 E10.52773
G1 X91.43 Y97.666 E10.65164
G1 X91.746 Y95.044 E10.77461
G1 X91.991 Y92.378 E10.89928
G1 X92.116 Y90.281 E10.99709
G1 X92.176 Y89.439 E11.0364
G1 X92.279 Y88.693 E11.07147
G1 X92.444 Y88.064 E11.10175
G1 X92.735 Y87.333 E11.13838
G1 X93.048 Y86.763 E11.16866
G1 X93.508 Y86.126 E11.20525
M204 S3000
M205 X10 Y10
G0 F3000 X93.919 Y86.507
M204 S1800
M205 X8 Y8
G1 F2400 X94.361 Y86.03 E11.23553
G1 X94.858 Y85.612 E11.26577
G1 X95.402 Y85.258 E11.29599
G1 X95.987 Y84.974 E11.32627
G1 X96.601 Y84.763 E11.3565
G1 X97.237 Y84.63 E11.38676
G1 X97.98 Y84.565 E11.42149
G1 X110.285 Y84.565 E11.99446
G1 X111.059 Y84.576 E12.03051
G1 X111.706 Y84.625 E12.06072
G1 X112.343 Y84.753 E12.09097
G1 X112.959 Y84.959 E12.12122
G1 X113.546 Y85.239 E12.1515
G1 X114.093 Y85.588 E12.18171
G1 X114.594 Y86.002 E12.21198
G1 X115.039 Y86.475 E12.24222
G1 X115.424 Y86.999 E12.27249
G1 X115.741 Y87.566 E12.30274
G1 X115.986 Y88.167 E12.33296
G1 X116.195 Y88.943 E12.37039
G1 X116.443 Y91.23 E12.4775
G1 X116.79 Y93.892 E12.6025
G1 X117.208 Y96.52 E12.72641
G1 X117.703 Y99.149 E12.85098
G1 X118.269 Y101.757 E12.97525
G1 X118.923 Y104.391 E13.10162
G1 X119.633 Y106.948 E13.22519
G1 X120.044 Y108.339 E13.29273
G1 X120.189 Y108.972 E13.32297
G1 X120.256 Y109.618 E13.35321
G1 X120.242 Y110.268 E13.38348
G1 X120.149 Y110.911 E13.41374
G1 X119.978 Y111.537 E13.44395
G1 X119.731 Y112.138 E13.47421
G1 X119.412 Y112.704 E13.50446
G1 X118.97 Y113.304 E13.53916
G1 X118.082 Y114.223 E13.59867
G1 X109.172 Y123.132 E14.18538
G1 X108.684 Y123.609 E14.21715
G1 X108.192 Y124.033 E14.24739
G1 X107.652 Y124.395 E14.27767
G1 X107.072 Y124.687 E14.3079
G1 X106.46 Y124.905 E14.33815
G1 X105.826 Y125.047 E14.36841
G1 X105.18 Y125.11 E14.39863
G1 X104.53 Y125.093 E14.42891
G1 X103.888 Y124.996 E14.45914
G1 X103.262 Y124.821 E14.48941
G1 X102.663 Y124.571 E14.51963
G1 X102.098 Y124.249 E14.54991
G1 X101.281 Y123.601 E14.59847
G1 X91.739 Y114.059 E15.22683
G1 X91.223 Y113.529 E15.26127
G1 X90.799 Y113.037 E15.29151
G1 X90.438 Y112.497 E15.32176
G1 X90.147 Y111.916 E15.35202
G1 X89.929 Y111.304 E15.38227
G1 X89.788 Y110.67 E15.41251
G1 X89.726 Y110.023 E15.44278
G1 X89.744 Y109.374 E15.47301
G1 X89.867 Y108.616 E15.50876
G1 X90.581 Y105.625 E15.65195
G1 X91.122 Y103.014 E15.77611
G1 X91.592 Y100.38 E15.9007
G1 X91.984 Y97.748 E16.02461
G1 X92.304 Y95.095 E16.14904
G1 X92.549 Y92.429 E16.2737
G1 X92.675 Y90.321 E16.37204
G1 X92.735 Y89.479 E16.41134
G1 X92.821 Y88.835 E16.4416
G1 X92.986 Y88.206 E16.47188
G1 X93.226 Y87.603 E16.5021
G1 X93.539 Y87.033 E16.53238
G1 X93.919 Y86.507 E16.56259
M204 S3000
M205 X10 Y10
G1 F2400 E10.56259
;MESH:Arrow.stl
G0 F3000 X97.327 Y90.259
G0 X98.406 Y90.259
G0 X99.377 Y90.942
G0 X99.377 Y91.23
M204 S1800
M205 X8 Y8
;TYPE:WALL-INNER
G1 F2400 E16.56259
G1 F1117 X99.816 Y90.85 E16.5989
G1 X99.162 Y90.71 E16.64072
G1 F1377 X98.857 Y90.71 E16.65619
G1 X98.857 Y91.015 E16.67166
G1 F1130.6 X98.991 Y91.842 E16.72342
G1 X99.377 Y91.23 E16.76812
M204 S3000
M205 X10 Y10
G0 F3000 X99.816 Y90.85
M204 S1800
M205 X8 Y8
G1 F949.2 X108.994 Y90.844 E17.44351
M204 S3000
M205 X10 Y10
G0 F3000 X109.607 Y91.23
M204 S1800
M205 X8 Y8
G1 F1129 X109.993 Y91.842 E17.48827
G1 X110.127 Y91.015 E17.5401
G1 F1377 X110.127 Y90.71 E17.55557
G1 X109.822 Y90.71 E17.57104
G1 F1130.6 X108.994 Y90.844 E17.62286
G1 X109.607 Y91.23 E17.66762
M204 S3000
M205 X10 Y10
G0 F3000 X109.993 Y91.842
M204 S1800
M205 X8 Y8
G1 F958.9 X109.995 Y109.845 E18.97895
M204 S3000
M205 X10 Y10
G0 F3000 X110.815 Y110.409
G0 X111.505 Y110.943
G0 X104.806 Y117.933
G0 X104.992 Y117.748
M204 S1800
M205 X8 Y8
G1 F1416.5 X104.502 Y117.503 E19.00596
G1 F1670 X98.472 Y111.471 E19.36269
G1 F1486.7 X98.176 Y110.998 E19.3889
G1 F1335.5 X98.201 Y110.689 E19.40512
G1 X97.992 Y110.719 E19.41616
G1 X97.104 Y110.719 E19.4626
G1 X97.641 Y111.256 E19.50232
G1 F1486.7 X98.118 Y111.824 E19.53717
G1 F1663.4 X104.198 Y117.901 E19.89814
G1 F1411.8 X104.751 Y118.328 E19.9327
G1 F1231.7 X104.992 Y118.57 E19.95207
G1 X105.232 Y118.329 E19.97136
G1 F1414.1 X105.785 Y117.9 E20.00593
G1 F1653.5 X111.993 Y111.693 E20.37674
G1 F1476.3 X112.342 Y111.257 E20.40317
G1 F1335.5 X112.88 Y110.719 E20.44296
G1 X111.769 Y110.719 E20.50107
G1 X111.807 Y110.998 E20.51579
G1 F1481.5 X111.595 Y111.387 E20.53668
G1 F1663.4 X105.48 Y117.505 E20.8999
G1 F1416.5 X104.992 Y117.748 E20.92678
M204 S3000
M205 X10 Y10
G0 F3000 X104.806 Y117.933
G0 X98.478 Y110.943
G0 X98.99 Y109.847
M204 S1800
M205 X8 Y8
G1 F957.8 X98.991 Y91.842 E22.23976
M204 S3000
M205 X10 Y10
G0 F3000 X98.42 Y110.273
G0 X98.24 Y110.117
M204 S1800
M205 X8 Y8
;TYPE:WALL-OUTER
G1 F1188.1 X97.383 Y110.119 E22.29014
G1 F1296.3 X96.526 Y110.122 E22.33632
G1 F1426.1 X95.669 Y110.125 E22.37829
G1 F1500 X104.992 Y119.448 E22.99222
G1 X114.315 Y110.125 E23.60616
G1 X111.583 Y110.125 E23.73337
G1 F1581.9 X110.953 Y110.093 E23.76123
G1 X110.712 Y109.844 E23.77653
G1 F1500 X110.712 Y90.125 E24.69472
G1 X98.272 Y90.125 E25.27398
G1 X98.272 Y109.846 E26.19228
G1 F1272.7 X98.33 Y110.021 E26.20239
G1 F1123 X98.24 Y110.117 E26.21058
M204 S3000
M205 X10 Y10
G0 F3000 X98.04 Y110.117
G0 X98.04 Y110.745
G0 X104.992 Y118.019
G0 X111.977 Y111.037
G0 X111.174 Y110.735
M204 S1800
M205 X8 Y8
G1 F1500 X111.217 Y110.931 E26.21992
G1 X111.168 Y111.059 E26.2263
G1 X105.154 Y117.077 E26.62247
G1 X104.992 Y117.127 E26.63036
G1 X104.831 Y117.077 E26.63821
G1 X98.847 Y111.096 E27.03217
G1 X98.766 Y110.931 E27.04073
G1 F1296.3 X98.777 Y110.615 E27.05777
G1 F1123 X98.867 Y110.519 E27.06595
G1 F1272.7 X99.046 Y110.563 E27.07607
G1 F1500 X99.709 Y110.562 E27.10694
G1 X99.709 Y91.842 E27.97862
G1 X99.791 Y91.644 E27.9886
G1 X99.94 Y91.566 E27.99643
G1 X108.994 Y91.562 E28.41802
G1 X109.193 Y91.644 E28.42804
G1 X109.274 Y91.842 E28.43801
G1 X109.276 Y110.562 E29.30969
G1 X109.995 Y110.562 E29.34317
G1 F1584.9 X110.958 Y110.594 E29.38563
G1 X111.174 Y110.735 E29.397
M204 S3000
M205 X10 Y10
G0 F3000 X111.216 Y110.93
G1 F2400 E23.397
;MESH:NONMESH
G0 F600 X111.216 Y110.93 Z0.4
G0 F3000 X111.697 Y111.411
G0 X111.283 Y110.409
G0 X109.422 Y91.414
G0 X98.406 Y90.259
G0 X97.327 Y90.259
G0 X93.919 Y86.507
;TIME_ELAPSED:27.299030
;LAYER:1
M106 S127.5
M204 S1800
M205 X8 Y8
;TYPE:SKIRT
G1 F2400 E29.397
G1 X94.361 Y86.03 E29.41863
G1 X94.858 Y85.612 E29.44023
G1 X95.402 Y85.258 E29.46181
G1 X95.987 Y84.974 E29.48344
G1 X96.601 Y84.763 E29.50504
G1 X97.237 Y84.63 E29.52665
G1 X97.98 Y84.565 E29.55145
G1 X110.285 Y84.565 E29.96072
G1 X111.059 Y84.576 E29.98646
G1 X111.706 Y84.625 E30.00805
G1 X112.343 Y84.753 E30.02966
G1 X112.959 Y84.959 E30.05126
G1 X113.546 Y85.239 E30.07289
G1 X114.093 Y85.588 E30.09447
G1 X114.594 Y86.002 E30.11609
G1 X115.039 Y86.475 E30.13769
G1 X115.424 Y86.999 E30.15931
G1 X115.741 Y87.566 E30.18092
G1 X115.986 Y88.167 E30.20251
G1 X116.195 Y88.943 E30.22924
G1 X116.443 Y91.23 E30.30575
G1 X116.79 Y93.892 E30.39504
G1 X117.208 Y96.52 E30.48354
G1 X117.703 Y99.149 E30.57252
G1 X118.269 Y101.757 E30.66128
G1 X118.923 Y104.391 E30.75155
G1 X119.633 Y106.948 E30.83981
G1 X120.044 Y108.339 E30.88805
G1 X120.189 Y108.972 E30.90965
G1 X120.256 Y109.618 E30.93125
G1 X120.242 Y110.268 E30.95288
G1 X120.149 Y110.911 E30.97449
G1 X119.978 Y111.537 E30.99607
G1 X119.731 Y112.138 E31.01768
G1 X119.412 Y112.704 E31.03929
G1 X118.97 Y113.304 E31.06408
G1 X118.082 Y114.223 E31.10658
G1 X109.172 Y123.132 E31.52566
G1 X108.684 Y123.609 E31.54836
G1 X108.192 Y124.033 E31.56996
G1 X107.652 Y124.395 E31.59158
G1 X107.072 Y124.687 E31.61318
G1 X106.46 Y124.905 E31.63479
G1 X105.826 Y125.047 E31.6564
G1 X105.18 Y125.11 E31.67798
G1 X104.53 Y125.093 E31.69961
G1 X103.888 Y124.996 E31.72121
G1 X103.262 Y124.821 E31.74282
G1 X102.663 Y124.571 E31.76441
G1 X102.098 Y124.249 E31.78604
G1 X101.281 Y123.601 E31.82073
G1 X91.739 Y114.059 E32.26955
G1 X91.223 Y113.529 E32.29415
G1 X90.799 Y113.037 E32.31576
G1 X90.438 Y112.497 E32.33736
G1 X90.147 Y111.916 E32.35897
G1 X89.929 Y111.304 E32.38058
G1 X89.788 Y110.67 E32.40218
G1 X89.726 Y110.023 E32.4238
G1 X89.744 Y109.374 E32.4454
G1 X89.867 Y108.616 E32.47094
G1 X90.581 Y105.625 E32.57321
G1 X91.122 Y103.014 E32.6619
G1 X91.592 Y100.38 E32.75089
G1 X91.984 Y97.748 E32.8394
G1 X92.304 Y95.095 E32.92828
G1 X92.549 Y92.429 E33.01732
G1 X92.675 Y90.321 E33.08756
G1 X92.735 Y89.479 E33.11563
G1 X92.821 Y88.835 E33.13724
G1 X92.986 Y88.206 E33.15887
G1 X93.226 Y87.603 E33.18046
G1 X93.539 Y87.033 E33.20209
G1 X93.919 Y86.507 E33.22367
M204 S3000
M205 X10 Y10
G1 F2400 E27.22367
;MESH:Arrow.stl
G0 F4500 X97.327 Y90.259
G0 X98.406 Y90.259
G0 X99.292 Y90.942
G0 X99.292 Y91.145
M204 S1800
M205 X8 Y8
;TYPE:WALL-INNER
G1 F2400 E33.22367
G1 F2295.9 X99.816 Y90.85 E33.24327
G1 X98.977 Y90.83 E33.27062
G1 F2349.9 X98.991 Y91.842 E33.30286
G1 X99.292 Y91.145 E33.32703
M204 S3000
M205 X10 Y10
G0 F4500 X99.816 Y90.85
M204 S1800
M205 X8 Y8
G1 F2222.2 X108.994 Y90.844 E33.63611
M204 S3000
M205 X10 Y10
G0 F4500 X109.692 Y91.145
M204 S1800
M205 X8 Y8
G1 F2343.8 X109.993 Y91.842 E33.66035
G1 X110.007 Y90.83 E33.69267
G1 F2349.9 X108.994 Y90.844 E33.72493
G1 X109.692 Y91.145 E33.74914
M204 S3000
M205 X10 Y10
G0 F4500 X109.993 Y91.842
M204 S1800
M205 X8 Y8
G1 F2272.7 X109.995 Y109.845 E34.34194
M204 S3000
M205 X10 Y10
G0 F4500 X110.745 Y110.414
G0 X111.814 Y111.513
M204 S1800
M205 X8 Y8
G1 F1694.9 X111.688 Y111.648 E34.35009
G1 F1727.4 X105.741 Y117.596 E34.71447
G1 F1711 X105.607 Y117.721 E34.72248
M204 S3000
M205 X10 Y10
G0 F4500 X104.992 Y117.868
M204 S1800
M205 X8 Y8
G1 F1836.7 X104.378 Y117.722 E34.7482
G1 F1717.6 X104.992 Y118.422 E34.78877
G1 F1727.4 X105.607 Y117.721 E34.82916
G1 F1848 X104.992 Y117.868 E34.85477
M204 S3000
M205 X10 Y10
G0 F4500 X104.378 Y117.722
M204 S1800
M205 X8 Y8
G1 F1704.5 X104.243 Y117.596 E34.86288
G1 F1730.8 X98.295 Y111.648 E35.22659
M204 S3000
M205 X10 Y10
G0 F4500 X98.057 Y111.012
M204 S1800
M205 X8 Y8
G1 F2313.6 X98.056 Y110.834 E35.23234
G1 X97.394 Y110.839 E35.25376
G1 X97.726 Y111.171 E35.26894
G1 F1978 X98.295 Y111.648 E35.29703
G1 X98.057 Y111.012 E35.32273
M204 S3000
M205 X10 Y10
G0 F4500 X98.487 Y110.389
M204 S1800
M205 X8 Y8
G1 F1291.2 X98.667 Y110.196 E35.33802
M204 S3000
M205 X10 Y10
G0 F4500 X98.99 Y109.847
M204 S1800
M205 X8 Y8
G1 F2267 X98.991 Y91.842 E35.93238
M204 S3000
M205 X10 Y10
G0 F4500 X99.161 Y91.014
G0 X109.419 Y90.942
G0 X109.419 Y91.417
M204 S1800
M205 X8 Y8
G1 F2250 X109.594 Y91.842 E35.94766
G1 X109.597 Y110.242 E36.55965
G1 X110.732 Y110.242 E36.5974
G1 X110.392 Y109.845 E36.61479
G1 X110.392 Y90.445 E37.26003
G1 X98.592 Y90.445 E37.6525
G1 X98.592 Y109.847 E38.29782
G1 F1607.1 X98.667 Y110.196 E38.31444
G1 X99.021 Y110.244 E38.33107
G1 F2250 X99.389 Y110.242 E38.34331
G1 X99.389 Y91.842 E38.9553
G1 X99.564 Y91.417 E38.97059
G1 X99.9 Y91.242 E38.98319
G1 X108.994 Y91.242 E39.28565
G1 X109.419 Y91.417 E39.30094
M204 S3000
M205 X10 Y10
G0 F4500 X109.419 Y90.942
G0 X110.564 Y110.273
G0 X111.454 Y110.279
G0 X112.257 Y111.172
M204 S1800
M205 X8 Y8
G1 F2313.6 X112.59 Y110.839 E39.31617
G1 X111.903 Y110.839 E39.33839
G1 X111.927 Y111.012 E39.34404
G1 F1939.7 X111.814 Y111.513 E39.36386
