;FLAVOR:Marlin
;TIME:2896
;Filament used: 3.36688m
;Layer height: 0.2
;MINX:82.606
;MINY:42.612
;MINZ:0.2
;MAXX:167.384
;MAXY:127.402
;MAXZ:10
;TARGET_MACHINE.NAME:Anycubic i3 Mega
;Generated with Cura_SteamEngine 5.7.0-alpha.0
M140 S60
M105
M190 S60
M104 S200
M105
M109 S200
M82 ;absolute extrusion mode
G21 ;metric values
G90 ;absolute positioning
M82 ;set extruder to absolute mode
M107 ;start with the fan off
G28 X0 Y0 ;move X/Y to min endstops
G28 Z0 ;move Z to min endstops
G1 Z15.0 F100 ;move the platform down 15mm
G92 E0 ;zero the extruded length
G1 F200 E3 ;extrude 3mm of feed stock
G92 E0 ;zero the extruded length again
G1 F100
G0 Y20 F100
M117 Printing...
G5
G92 E0
G92 E0
G1 F2400 E-6
;LAYER_COUNT:50
;LAYER:0
M107
M204 S3000
M205 X10 Y10
G1 F600 Z0.275
G0 F3000 X86.674 Y52.168 Z0.275
M204 S1800
M205 X8 Y8
;TYPE:SKIRT
G1 F600 Z0.2
G1 F2400 E0
G1 X87.206 Y51.406 E0.04327
G1 X88.071 Y50.459 E0.103
G1 X89.629 Y48.806 E0.20877
G1 X90.087 Y48.333 E0.23943
G1 X90.762 Y47.722 E0.28182
G1 X91.893 Y46.941 E0.34582
G1 X93.788 Y45.694 E0.45145
G1 X94.372 Y45.322 E0.48369
G1 X95.211 Y44.867 E0.52814
G1 X96.338 Y44.434 E0.58435
G1 X98.517 Y43.639 E0.69236
G1 X99.215 Y43.397 E0.72676
G1 X100.134 Y43.149 E0.77108
G1 X101.309 Y42.991 E0.82629
G1 X103.647 Y42.717 E0.9359
G1 X104.391 Y42.642 E0.97072
G1 X105.152 Y42.612 E1.00618
G1 X106.636 Y42.75 E1.07558
G1 X108.869 Y43.012 E1.18027
G1 X109.64 Y43.115 E1.21649
G1 X112.834 Y43.587 E1.36683
G1 X115.437 Y43.892 E1.48887
G1 X118.059 Y44.124 E1.61144
G1 X120.734 Y44.283 E1.73622
G1 X123.372 Y44.367 E1.85912
G1 X126.017 Y44.376 E1.98228
G1 X128.681 Y44.31 E2.10636
G1 X131.265 Y44.173 E2.22685
G1 X133.95 Y43.952 E2.3523
G1 X136.565 Y43.664 E2.4748
G1 X139.618 Y43.22 E2.61846
G1 X141.401 Y42.98 E2.70223
G1 X143.647 Y42.717 E2.80753
G1 X144.391 Y42.642 E2.84235
G1 X145.152 Y42.612 E2.87781
G1 X146.636 Y42.75 E2.94721
G1 X148.872 Y43.012 E3.05204
G1 X149.546 Y43.103 E3.08371
G1 X150.473 Y43.295 E3.12779
G1 X151.642 Y43.698 E3.18537
G1 X153.781 Y44.478 E3.29138
G1 X154.475 Y44.743 E3.32598
G1 X155.263 Y45.105 E3.36636
G1 X156.441 Y45.844 E3.43111
G1 X158.316 Y47.08 E3.53568
G1 X158.868 Y47.454 E3.56673
G1 X159.652 Y48.071 E3.61318
G1 X160.528 Y48.971 E3.67166
G1 X162.033 Y50.568 E3.77384
G1 X162.579 Y51.166 E3.81155
G1 X163.08 Y51.785 E3.84863
G1 X163.829 Y53.017 E3.91577
G1 X164.955 Y54.971 E4.02078
G1 X165.302 Y55.596 E4.05407
G1 X165.705 Y56.458 E4.09838
G1 X166.063 Y57.584 E4.15339
G1 X166.739 Y59.845 E4.26328
G1 X166.924 Y60.497 E4.29484
G1 X167.104 Y61.311 E4.33366
G1 X167.223 Y62.762 E4.40145
G1 X167.351 Y64.987 E4.50523
G1 X167.384 Y65.748 E4.54069
G1 X167.357 Y66.682 E4.5842
G1 X166.623 Y71.198 E4.79725
G1 X166.281 Y73.78 E4.91853
G1 X166.006 Y76.445 E5.04328
G1 X165.807 Y79.077 E5.16618
G1 X165.687 Y81.679 E5.28747
G1 X165.638 Y84.341 E5.41145
G1 X165.664 Y86.993 E5.53494
G1 X165.765 Y89.638 E5.65819
G1 X165.941 Y92.292 E5.78205
G1 X166.188 Y94.894 E5.90375
G1 X166.512 Y97.514 E6.02668
G1 X166.892 Y100.024 E6.14489
G1 X167.118 Y101.399 E6.20977
G1 X167.217 Y102.667 E6.269
G1 X167.351 Y104.987 E6.3772
G1 X167.384 Y105.746 E6.41258
G1 X167.371 Y106.51 E6.44816
G1 X167.154 Y107.952 E6.51606
G1 X166.756 Y110.209 E6.62278
G1 X166.634 Y110.842 E6.6528
G1 X166.381 Y111.786 E6.6983
G1 X165.896 Y112.974 E6.75805
G1 X165.006 Y115.037 E6.86267
G1 X164.694 Y115.731 E6.89811
G1 X164.294 Y116.483 E6.93777
G1 X163.493 Y117.605 E7.00196
G1 X162.196 Y119.35 E7.1032
G1 X161.701 Y119.994 E7.14102
G1 X161.143 Y120.629 E7.18039
G1 X160.088 Y121.551 E7.24563
G1 X158.433 Y122.94 E7.34624
G1 X157.815 Y123.443 E7.38334
G1 X157.057 Y123.976 E7.42649
G1 X155.955 Y124.553 E7.48441
G1 X153.914 Y125.58 E7.5908
G1 X153.296 Y125.88 E7.62279
G1 X152.375 Y126.249 E7.66899
G1 X151.127 Y126.567 E7.72896
G1 X148.896 Y127.097 E7.83573
G1 X148.246 Y127.241 E7.86673
G1 X147.371 Y127.375 E7.90795
G1 X146.007 Y127.402 E7.97148
G1 X143.745 Y127.401 E8.07681
G1 X142.951 Y127.386 E8.11378
G1 X142.058 Y127.3 E8.15556
G1 X139.49 Y126.861 E8.27687
G1 X136.905 Y126.493 E8.39845
G1 X134.299 Y126.196 E8.52058
G1 X131.648 Y125.97 E8.64447
G1 X129 Y125.821 E8.76797
G1 X126.329 Y125.744 E8.89239
G1 X123.721 Y125.744 E9.01383
G1 X121.056 Y125.818 E9.13798
G1 X118.398 Y125.968 E9.26194
G1 X115.755 Y126.193 E9.38545
G1 X113.178 Y126.486 E9.50622
G1 X110.538 Y126.861 E9.63039
G1 X109.247 Y127.087 E9.69142
G1 X107.846 Y127.313 E9.7575
G1 X107.009 Y127.385 E9.79661
G1 X106.007 Y127.402 E9.84328
G1 X103.752 Y127.401 E9.94828
G1 X103.073 Y127.391 E9.9799
G1 X102.088 Y127.307 E10.02593
G1 X100.838 Y127.034 E10.08551
G1 X98.639 Y126.511 E10.19076
G1 X97.968 Y126.341 E10.22299
G1 X97.1 Y126.058 E10.2655
G1 X95.901 Y125.486 E10.32736
G1 X93.855 Y124.456 E10.43402
G1 X93.198 Y124.111 E10.46858
G1 X92.425 Y123.633 E10.5109
G1 X91.392 Y122.794 E10.57287
G1 X89.755 Y121.419 E10.67241
G1 X89.121 Y120.866 E10.71159
G1 X88.476 Y120.218 E10.75416
G1 X87.667 Y119.168 E10.81588
G1 X86.383 Y117.437 E10.91624
G1 X85.93 Y116.807 E10.95237
G1 X85.426 Y115.992 E10.99699
G1 X84.93 Y114.887 E11.05339
G1 X84.015 Y112.762 E11.16112
G1 X83.727 Y112.064 E11.19628
G1 X83.441 Y111.198 E11.23875
G1 X83.192 Y109.92 E11.29937
G1 X82.802 Y107.693 E11.40465
G1 X82.689 Y106.979 E11.43831
G1 X82.606 Y106.036 E11.48239
G1 X82.655 Y104.865 E11.53697
G1 X82.789 Y102.551 E11.6449
G1 X82.859 Y101.583 E11.69009
G1 X83.068 Y100.235 E11.75361
G1 X83.225 Y99.325 E11.79661
G1 X83.594 Y96.756 E11.91746
G1 X83.898 Y94.104 E12.04175
G1 X84.125 Y91.469 E12.16491
G1 X84.275 Y88.87 E12.28613
G1 X84.354 Y86.163 E12.41223
G1 X84.358 Y83.522 E12.53521
G1 X84.285 Y80.886 E12.658
G1 X84.137 Y78.216 E12.78251
G1 X83.918 Y75.617 E12.90396
G1 X83.621 Y72.985 E13.0273
G1 X83.251 Y70.348 E13.15129
G1 X82.692 Y66.988 E13.3099
G1 X82.606 Y66.056 E13.35348
G1 X82.655 Y64.864 E13.40903
G1 X82.789 Y62.552 E13.51687
G1 X82.845 Y61.792 E13.55235
G1 X82.967 Y60.917 E13.59349
G1 X83.326 Y59.628 E13.65579
G1 X83.968 Y57.48 E13.76019
G1 X84.175 Y56.817 E13.79253
G1 X84.508 Y55.956 E13.83551
G1 X85.164 Y54.767 E13.89875
G1 X86.288 Y52.815 E14.00363
G1 X86.674 Y52.168 E14.03871
M204 S3000
M205 X10 Y10
G0 F3000 X87.135 Y52.486
M204 S1800
M205 X8 Y8
G1 F2400 X87.62 Y51.784 E14.07844
G1 X88.479 Y50.843 E14.13777
G1 X90.031 Y49.196 E14.24315
G1 X90.489 Y48.723 E14.27381
G1 X91.08 Y48.183 E14.31108
G1 X92.201 Y47.409 E14.37451
G1 X94.09 Y46.166 E14.47981
G1 X94.642 Y45.813 E14.51032
G1 X95.412 Y45.39 E14.55123
G1 X96.53 Y44.96 E14.607
G1 X98.701 Y44.168 E14.71461
G1 X99.364 Y43.937 E14.7473
G1 X100.209 Y43.704 E14.78812
G1 X101.374 Y43.547 E14.84286
G1 X103.703 Y43.274 E14.95205
G1 X104.413 Y43.202 E14.98528
G1 X105.174 Y43.172 E15.02074
G1 X106.571 Y43.306 E15.08609
G1 X108.795 Y43.567 E15.19036
G1 X109.558 Y43.669 E15.2262
G1 X112.752 Y44.141 E15.37654
G1 X115.388 Y44.45 E15.50013
G1 X118.012 Y44.682 E15.62279
G1 X120.716 Y44.843 E15.74892
G1 X123.354 Y44.927 E15.87182
G1 X126.029 Y44.936 E15.99638
G1 X128.695 Y44.87 E16.12056
G1 X131.306 Y44.731 E16.24231
G1 X134.011 Y44.509 E16.36869
G1 X136.626 Y44.221 E16.49119
G1 X139.693 Y43.775 E16.6355
G1 X141.466 Y43.536 E16.71881
G1 X143.703 Y43.274 E16.82369
G1 X144.413 Y43.202 E16.85692
G1 X145.174 Y43.172 E16.89238
G1 X146.571 Y43.306 E16.95773
G1 X148.798 Y43.567 E17.06214
G1 X149.435 Y43.652 E17.09206
G1 X150.291 Y43.825 E17.13272
G1 X151.45 Y44.224 E17.1898
G1 X153.581 Y45.001 E17.29542
G1 X154.275 Y45.266 E17.33001
G1 X154.965 Y45.579 E17.36529
G1 X156.133 Y46.312 E17.4295
G1 X158.002 Y47.544 E17.53374
G1 X158.554 Y47.918 E17.56478
G1 X159.251 Y48.462 E17.60595
G1 X160.12 Y49.355 E17.66398
G1 X161.619 Y50.946 E17.76576
G1 X162.165 Y51.544 E17.80347
G1 X162.644 Y52.137 E17.83896
G1 X163.344 Y53.296 E17.90201
G1 X164.466 Y55.244 E18.00669
G1 X164.796 Y55.836 E18.03825
G1 X165.171 Y56.628 E18.07905
G1 X165.526 Y57.744 E18.13358
G1 X166.2 Y59.998 E18.24313
G1 X166.385 Y60.65 E18.27469
G1 X166.557 Y61.431 E18.31193
G1 X166.664 Y62.794 E18.37559
G1 X166.792 Y65.012 E18.47904
G1 X166.824 Y65.735 E18.51274
G1 X166.804 Y66.592 E18.55265
G1 X166.07 Y71.108 E18.7657
G1 X165.726 Y73.707 E18.88777
G1 X165.449 Y76.387 E19.01323
G1 X165.249 Y79.035 E19.13688
G1 X165.127 Y81.669 E19.25967
G1 X165.078 Y84.331 E19.38364
G1 X165.104 Y87.014 E19.50858
G1 X165.206 Y89.675 E19.63258
G1 X165.382 Y92.329 E19.75643
G1 X165.632 Y94.963 E19.87963
G1 X165.958 Y97.598 E20.00326
G1 X166.339 Y100.115 E20.1218
G1 X166.565 Y101.49 E20.18668
G1 X166.658 Y102.699 E20.24315
G1 X166.792 Y105.012 E20.35103
G1 X166.824 Y105.736 E20.38478
G1 X166.811 Y106.5 E20.42036
G1 X166.602 Y107.855 E20.4842
G1 X166.206 Y110.103 E20.59048
G1 X166.084 Y110.736 E20.6205
G1 X165.863 Y111.574 E20.66086
G1 X165.382 Y112.752 E20.72011
G1 X164.495 Y114.808 E20.82437
G1 X164.198 Y115.471 E20.8582
G1 X163.838 Y116.158 E20.89432
G1 X163.043 Y117.271 E20.958
G1 X161.752 Y119.009 E21.05882
G1 X161.28 Y119.624 E21.09492
G1 X160.722 Y120.259 E21.13428
G1 X159.728 Y121.122 E21.19557
G1 X158.079 Y122.506 E21.29582
G1 X157.49 Y122.987 E21.33123
G1 X156.797 Y123.48 E21.37083
G1 X155.703 Y124.053 E21.42833
G1 X153.669 Y125.076 E21.53435
G1 X153.051 Y125.376 E21.56634
G1 X152.237 Y125.706 E21.60724
G1 X150.998 Y126.022 E21.66678
G1 X148.774 Y126.55 E21.77322
G1 X148.161 Y126.687 E21.80246
G1 X147.286 Y126.821 E21.84368
G1 X146.007 Y126.842 E21.90325
G1 X143.755 Y126.841 E22.00811
G1 X143.003 Y126.828 E22.04313
G1 X142.152 Y126.748 E22.08293
G1 X139.584 Y126.309 E22.20424
G1 X136.978 Y125.938 E22.32681
G1 X134.347 Y125.638 E22.45012
G1 X131.693 Y125.412 E22.57414
G1 X129.016 Y125.261 E22.69899
G1 X126.345 Y125.184 E22.82342
G1 X123.705 Y125.184 E22.94635
G1 X121.04 Y125.258 E23.07049
G1 X118.356 Y125.41 E23.19567
G1 X115.708 Y125.635 E23.31942
G1 X113.105 Y125.931 E23.4414
G1 X110.441 Y126.309 E23.56669
G1 X109.157 Y126.534 E23.62739
G1 X107.797 Y126.755 E23.69155
G1 X106.999 Y126.825 E23.72885
G1 X106.007 Y126.842 E23.77505
G1 X103.76 Y126.841 E23.87968
G1 X103.081 Y126.831 E23.9113
G1 X102.208 Y126.76 E23.95208
G1 X100.968 Y126.489 E24.01119
G1 X98.777 Y125.968 E24.11605
G1 X98.106 Y125.798 E24.14829
G1 X97.341 Y125.553 E24.18569
G1 X96.153 Y124.986 E24.24698
G1 X94.115 Y123.96 E24.35323
G1 X93.49 Y123.633 E24.38608
G1 X92.778 Y123.198 E24.42493
G1 X91.752 Y122.365 E24.48647
G1 X90.122 Y120.996 E24.58558
G1 X89.516 Y120.469 E24.62298
G1 X88.92 Y119.876 E24.66213
G1 X88.117 Y118.834 E24.72338
G1 X86.838 Y117.11 E24.82334
G1 X86.385 Y116.48 E24.85947
G1 X85.937 Y115.762 E24.89888
G1 X85.444 Y114.666 E24.95484
G1 X84.532 Y112.548 E25.06222
G1 X84.258 Y111.886 E25.09558
G1 X83.991 Y111.091 E25.13463
G1 X83.744 Y109.823 E25.19478
G1 X83.355 Y107.605 E25.29964
G1 X83.247 Y106.927 E25.33161
G1 X83.166 Y106.059 E25.3722
G1 X83.214 Y104.897 E25.42635
G1 X83.348 Y102.591 E25.53391
G1 X83.418 Y101.623 E25.5791
G1 X83.62 Y100.33 E25.64004
G1 X83.777 Y99.42 E25.68304
G1 X84.148 Y96.836 E25.8046
G1 X84.456 Y94.152 E25.93039
G1 X84.683 Y91.517 E26.05354
G1 X84.835 Y88.886 E26.17626
G1 X84.914 Y86.179 E26.30236
G1 X84.918 Y83.523 E26.42604
G1 X84.845 Y80.871 E26.54957
G1 X84.696 Y78.185 E26.67484
G1 X84.476 Y75.57 E26.79703
G1 X84.176 Y72.907 E26.92182
G1 X83.805 Y70.27 E27.04581
G1 X83.249 Y66.934 E27.2033
G1 X83.166 Y66.079 E27.2433
G1 X83.214 Y64.897 E27.29838
G1 X83.348 Y62.592 E27.40589
G1 X83.4 Y61.869 E27.43964
G1 X83.522 Y60.994 E27.48078
G1 X83.863 Y59.788 E27.53914
G1 X84.503 Y57.647 E27.64319
G1 X84.71 Y56.984 E27.67553
G1 X85.03 Y56.159 E27.71674
G1 X85.649 Y55.046 E27.77604
G1 X86.769 Y53.101 E27.88055
G1 X87.135 Y52.486 E27.91387
M204 S3000
M205 X10 Y10
G0 F3000 X87.598 Y52.801
M204 S1800
M205 X8 Y8
G1 F2400 X88.034 Y52.161 E27.94993
G1 X88.886 Y51.227 E28.0088
G1 X90.433 Y49.586 E28.11381
G1 X90.891 Y49.113 E28.14447
G1 X91.457 Y48.597 E28.18014
G1 X92.509 Y47.877 E28.2395
G1 X94.392 Y46.638 E28.34445
G1 X94.944 Y46.285 E28.37496
G1 X95.613 Y45.913 E28.41061
G1 X96.722 Y45.486 E28.46594
G1 X98.885 Y44.697 E28.57315
G1 X99.548 Y44.466 E28.60585
G1 X100.284 Y44.259 E28.64145
G1 X101.439 Y44.103 E28.69572
G1 X103.76 Y43.831 E28.80453
G1 X104.435 Y43.762 E28.83613
G1 X105.196 Y43.732 E28.87159
G1 X106.506 Y43.862 E28.93289
G1 X108.721 Y44.122 E29.03674
G1 X109.476 Y44.223 E29.0722
G1 X112.67 Y44.695 E29.22255
G1 X115.339 Y45.008 E29.34768
G1 X117.965 Y45.24 E29.47043
G1 X120.698 Y45.403 E29.59792
G1 X123.336 Y45.487 E29.72082
G1 X126.041 Y45.496 E29.84677
G1 X128.709 Y45.43 E29.97104
G1 X131.347 Y45.289 E30.09406
G1 X134.072 Y45.066 E30.22137
G1 X136.687 Y44.778 E30.34387
G1 X139.768 Y44.33 E30.48884
G1 X141.531 Y44.092 E30.57168
G1 X143.76 Y43.831 E30.67618
G1 X144.435 Y43.762 E30.70777
G1 X145.196 Y43.732 E30.74324
G1 X146.506 Y43.862 E30.80454
G1 X148.724 Y44.122 E30.90852
G1 X149.361 Y44.207 E30.93845
G1 X150.109 Y44.355 E30.97395
G1 X151.258 Y44.75 E31.03053
G1 X153.382 Y45.524 E31.13579
G1 X154.044 Y45.776 E31.16878
G1 X154.734 Y46.089 E31.20406
G1 X155.825 Y46.779 E31.26416
G1 X157.688 Y48.008 E31.36809
G1 X158.24 Y48.382 E31.39914
G1 X158.85 Y48.853 E31.43502
G1 X159.712 Y49.739 E31.49258
G1 X161.206 Y51.324 E31.59401
G1 X161.729 Y51.896 E31.6301
G1 X162.208 Y52.489 E31.66559
G1 X162.859 Y53.576 E31.72459
G1 X163.977 Y55.517 E31.82889
G1 X164.307 Y56.109 E31.86045
G1 X164.637 Y56.798 E31.89602
G1 X164.989 Y57.904 E31.95007
G1 X165.661 Y60.151 E32.05928
G1 X165.846 Y60.803 E32.09084
G1 X166.01 Y61.551 E32.12649
G1 X166.105 Y62.826 E32.18603
G1 X166.233 Y65.037 E32.28915
G1 X166.264 Y65.726 E32.32127
G1 X166.251 Y66.502 E32.35741
G1 X165.517 Y71.018 E32.57045
G1 X165.171 Y73.634 E32.69332
G1 X164.892 Y76.329 E32.81948
G1 X164.691 Y78.993 E32.94388
G1 X164.567 Y81.659 E33.06816
G1 X164.518 Y84.321 E33.19213
G1 X164.544 Y87.036 E33.31856
G1 X164.647 Y89.712 E33.44326
G1 X164.823 Y92.366 E33.56711
G1 X165.076 Y95.032 E33.69181
G1 X165.404 Y97.682 E33.81615
G1 X165.786 Y100.206 E33.93501
G1 X166.012 Y101.581 E33.9999
G1 X166.099 Y102.731 E34.0536
G1 X166.233 Y105.037 E34.16116
G1 X166.264 Y105.726 E34.19327
G1 X166.251 Y106.49 E34.22885
G1 X166.05 Y107.758 E34.28863
G1 X165.656 Y109.997 E34.39449
G1 X165.534 Y110.63 E34.42451
G1 X165.345 Y111.362 E34.45971
G1 X164.868 Y112.53 E34.51846
G1 X163.984 Y114.58 E34.62241
G1 X163.702 Y115.211 E34.6546
G1 X163.342 Y115.898 E34.69071
G1 X162.594 Y116.937 E34.75033
G1 X161.307 Y118.669 E34.8508
G1 X160.857 Y119.257 E34.88528
G1 X160.355 Y119.836 E34.92096
G1 X159.368 Y120.693 E34.98183
G1 X157.724 Y122.073 E35.08178
G1 X157.162 Y122.533 E35.11559
G1 X156.537 Y122.984 E35.15148
G1 X155.451 Y123.553 E35.20857
G1 X153.424 Y124.572 E35.31421
G1 X152.806 Y124.872 E35.3462
G1 X152.098 Y125.163 E35.38184
G1 X150.869 Y125.477 E35.44091
G1 X148.652 Y126.003 E35.54701
G1 X148.039 Y126.14 E35.57626
G1 X147.277 Y126.261 E35.61218
G1 X146.007 Y126.282 E35.67133
G1 X143.764 Y126.281 E35.77577
G1 X143.054 Y126.27 E35.80884
G1 X142.246 Y126.196 E35.84662
G1 X139.678 Y125.757 E35.96793
G1 X137.051 Y125.383 E36.09149
G1 X134.394 Y125.08 E36.21601
G1 X131.735 Y124.854 E36.34027
G1 X129.032 Y124.701 E36.46633
G1 X126.361 Y124.624 E36.59076
G1 X123.689 Y124.624 E36.71518
G1 X121.024 Y124.698 E36.83932
G1 X118.314 Y124.852 E36.96571
G1 X115.661 Y125.077 E37.08969
G1 X113.032 Y125.376 E37.2129
G1 X110.344 Y125.757 E37.33931
G1 X109.066 Y125.981 E37.39973
G1 X107.747 Y126.197 E37.46196
G1 X106.989 Y126.265 E37.4974
G1 X106.007 Y126.282 E37.54313
G1 X103.768 Y126.281 E37.64739
G1 X103.089 Y126.271 E37.67901
G1 X102.328 Y126.213 E37.71455
G1 X101.098 Y125.944 E37.77318
G1 X98.915 Y125.425 E37.87766
G1 X98.244 Y125.255 E37.90989
G1 X97.512 Y125.02 E37.94569
G1 X96.405 Y124.486 E38.00292
G1 X94.374 Y123.464 E38.10879
G1 X93.779 Y123.153 E38.14005
G1 X93.131 Y122.763 E38.17527
G1 X92.112 Y121.936 E38.23638
G1 X90.489 Y120.573 E38.33507
G1 X89.909 Y120.07 E38.37082
G1 X89.364 Y119.534 E38.40641
G1 X88.567 Y118.5 E38.4672
G1 X87.292 Y116.783 E38.56678
G1 X86.858 Y116.181 E38.60134
G1 X86.448 Y115.532 E38.63709
G1 X85.958 Y114.445 E38.69261
G1 X85.049 Y112.334 E38.79963
G1 X84.788 Y111.704 E38.83138
