;FLAVOR:Marlin
;TIME:702
;Filament used: 0.854375m
;Layer height: 0.2
;MINX:82.606
;MINY:82.612
;MINZ:0.2
;MAXX:127.384
;MAXY:127.402
;MAXZ:10
;TARGET_MACHINE.NAME:Anycubic i3 Mega
;Generated with Cura_SteamEngine 5.7.0-alpha.0
M140 S60
M105
M190 S60
M104 S200
M105
M109 S200
M82 ;absolute extrusion mode
G21 ;metric values
G90 ;absolute positioning
M82 ;set extruder to absolute mode
M107 ;start with the fan off
G28 X0 Y0 ;move X/Y to min endstops
G28 Z0 ;move Z to min endstops
G1 Z15.0 F100 ;move the platform down 15mm
G92 E0 ;zero the extruded length
G1 F200 E3 ;extrude 3mm of feed stock
G92 E0 ;zero the extruded length again
G1 F100
G0 Y20 F100
M117 Printing...
G5
G92 E0
G92 E0
G1 F2400 E-6
;LAYER_COUNT:50
;LAYER:0
M107
M204 S3000
M205 X10 Y10
G1 F600 Z0.275
G0 F3000 X90.087 Y88.333 Z0.275
M204 S1800
M205 X8 Y8
;TYPE:SKIRT
G1 F600 Z0.2
G1 F2400 E0
G1 X90.762 Y87.722 E0.0424
G1 X91.893 Y86.941 E0.1064
G1 X93.788 Y85.694 E0.21203
G1 X94.372 Y85.322 E0.24427
G1 X95.211 Y84.867 E0.28871
G1 X96.338 Y84.434 E0.34493
G1 X98.517 Y83.639 E0.45293
G1 X99.215 Y83.397 E0.48733
G1 X100.134 Y83.149 E0.53166
G1 X101.309 Y82.991 E0.58686
G1 X103.647 Y82.717 E0.69647
G1 X104.391 Y82.642 E0.73129
G1 X105.152 Y82.612 E0.76676
G1 X106.636 Y82.75 E0.83616
G1 X108.872 Y83.012 E0.94099
G1 X109.546 Y83.103 E0.97265
G1 X110.473 Y83.295 E1.01674
G1 X111.642 Y83.698 E1.07431
G1 X113.781 Y84.478 E1.18033
G1 X114.475 Y84.743 E1.21492
G1 X115.263 Y85.105 E1.2553
G1 X116.441 Y85.844 E1.32005
G1 X118.316 Y87.08 E1.42462
G1 X118.868 Y87.454 E1.45567
G1 X119.652 Y88.071 E1.50213
G1 X120.528 Y88.971 E1.56061
G1 X122.033 Y90.568 E1.66279
G1 X122.579 Y91.166 E1.70049
G1 X123.08 Y91.785 E1.73758
G1 X123.829 Y93.017 E1.80471
G1 X124.955 Y94.971 E1.90973
G1 X125.302 Y95.596 E1.94301
G1 X125.705 Y96.458 E1.98732
G1 X126.063 Y97.584 E2.04234
G1 X126.739 Y99.845 E2.15222
G1 X126.924 Y100.497 E2.18378
G1 X127.104 Y101.311 E2.2226
G1 X127.223 Y102.762 E2.29039
G1 X127.351 Y104.987 E2.39417
G1 X127.384 Y105.746 E2.42955
G1 X127.371 Y106.51 E2.46513
G1 X127.154 Y107.952 E2.53303
G1 X126.756 Y110.209 E2.63974
G1 X126.634 Y110.842 E2.66976
G1 X126.381 Y111.786 E2.71527
G1 X125.896 Y112.974 E2.77502
G1 X125.006 Y115.037 E2.87964
G1 X124.694 Y115.731 E2.91507
G1 X124.294 Y116.483 E2.95473
G1 X123.493 Y117.605 E3.01893
G1 X122.196 Y119.35 E3.12017
G1 X121.701 Y119.994 E3.15799
G1 X121.143 Y120.629 E3.19735
G1 X120.088 Y121.551 E3.26259
G1 X118.433 Y122.94 E3.3632
G1 X117.815 Y123.443 E3.4003
G1 X117.057 Y123.976 E3.44345
G1 X115.955 Y124.553 E3.50137
G1 X113.967 Y125.553 E3.605
G1 X113.229 Y125.909 E3.64315
G1 X112.38 Y126.248 E3.68572
G1 X111.127 Y126.567 E3.74592
G1 X108.896 Y127.097 E3.8527
G1 X108.246 Y127.241 E3.8837
G1 X107.371 Y127.375 E3.92492
G1 X106.007 Y127.402 E3.98844
G1 X103.752 Y127.401 E4.09345
G1 X103.073 Y127.391 E4.12507
G1 X102.088 Y127.307 E4.1711
G1 X100.838 Y127.034 E4.23068
G1 X98.639 Y126.511 E4.33593
G1 X97.968 Y126.341 E4.36816
G1 X97.1 Y126.058 E4.41067
G1 X95.901 Y125.486 E4.47253
G1 X93.855 Y124.456 E4.57919
G1 X93.198 Y124.111 E4.61374
G1 X92.425 Y123.633 E4.65606
G1 X91.392 Y122.794 E4.71803
G1 X89.755 Y121.419 E4.81758
G1 X89.121 Y120.866 E4.85675
G1 X88.476 Y120.218 E4.89933
G1 X87.667 Y119.168 E4.96105
G1 X86.383 Y117.437 E5.0614
G1 X85.93 Y116.807 E5.09754
G1 X85.426 Y115.992 E5.14216
G1 X84.93 Y114.887 E5.19856
G1 X84.015 Y112.762 E5.30629
G1 X83.727 Y112.064 E5.34145
G1 X83.441 Y111.198 E5.38391
G1 X83.192 Y109.92 E5.44454
G1 X82.802 Y107.693 E5.54982
G1 X82.689 Y106.979 E5.58348
G1 X82.606 Y106.036 E5.62756
G1 X82.655 Y104.864 E5.68218
G1 X82.789 Y102.552 E5.79002
G1 X82.845 Y101.792 E5.8255
G1 X82.967 Y100.917 E5.86664
G1 X83.326 Y99.628 E5.92894
G1 X83.968 Y97.48 E6.03334
G1 X84.175 Y96.817 E6.06568
G1 X84.508 Y95.956 E6.10866
G1 X85.164 Y94.767 E6.1719
G1 X86.288 Y92.815 E6.27678
G1 X86.674 Y92.168 E6.31186
G1 X87.206 Y91.406 E6.35514
G1 X88.071 Y90.459 E6.41486
G1 X89.629 Y88.806 E6.52063
G1 X90.087 Y88.333 E6.55129
M204 S3000
M205 X10 Y10
G0 F3000 X90.489 Y88.723
M204 S1800
M205 X8 Y8
G1 F2400 X91.08 Y88.183 E6.58857
G1 X92.201 Y87.409 E6.652
G1 X94.09 Y86.166 E6.75729
G1 X94.642 Y85.813 E6.7878
G1 X95.412 Y85.39 E6.82871
G1 X96.53 Y84.96 E6.88449
G1 X98.701 Y84.168 E6.99209
G1 X99.364 Y83.937 E7.02479
G1 X100.209 Y83.704 E7.0656
G1 X101.374 Y83.547 E7.12034
G1 X103.703 Y83.274 E7.22953
G1 X104.413 Y83.202 E7.26276
G1 X105.174 Y83.172 E7.29822
G1 X106.571 Y83.306 E7.36357
G1 X108.798 Y83.567 E7.46798
G1 X109.435 Y83.652 E7.4979
G1 X110.291 Y83.825 E7.53857
G1 X111.45 Y84.224 E7.59565
G1 X113.581 Y85.001 E7.70126
G1 X114.275 Y85.266 E7.73586
G1 X114.965 Y85.579 E7.77114
G1 X116.133 Y86.312 E7.83535
G1 X118.002 Y87.544 E7.93958
G1 X118.554 Y87.918 E7.97063
G1 X119.251 Y88.462 E8.0118
G1 X120.12 Y89.355 E8.06982
G1 X121.619 Y90.946 E8.1716
G1 X122.165 Y91.544 E8.20931
G1 X122.644 Y92.137 E8.24481
G1 X123.344 Y93.296 E8.30785
G1 X124.466 Y95.244 E8.41253
G1 X124.796 Y95.836 E8.44409
G1 X125.171 Y96.628 E8.48489
G1 X125.526 Y97.744 E8.53943
G1 X126.2 Y99.998 E8.64897
G1 X126.385 Y100.65 E8.68053
G1 X126.557 Y101.431 E8.71777
G1 X126.664 Y102.794 E8.78143
G1 X126.792 Y105.012 E8.88488
G1 X126.824 Y105.736 E8.91863
G1 X126.811 Y106.5 E8.95421
G1 X126.602 Y107.855 E9.01805
G1 X126.206 Y110.103 E9.12434
G1 X126.084 Y110.736 E9.15436
G1 X125.863 Y111.574 E9.19471
G1 X125.382 Y112.752 E9.25396
G1 X124.495 Y114.808 E9.35822
G1 X124.198 Y115.471 E9.39205
G1 X123.838 Y116.158 E9.42817
G1 X123.043 Y117.271 E9.49186
G1 X121.752 Y119.009 E9.59267
G1 X121.28 Y119.624 E9.62877
G1 X120.722 Y120.259 E9.66813
G1 X119.728 Y121.122 E9.72943
G1 X118.079 Y122.506 E9.82967
G1 X117.49 Y122.987 E9.86508
G1 X116.797 Y123.48 E9.90468
G1 X115.703 Y124.053 E9.96219
G1 X113.723 Y125.049 E10.06539
G1 X113.019 Y125.39 E10.10182
G1 X112.242 Y125.705 E10.14086
G1 X110.998 Y126.022 E10.20063
G1 X108.774 Y126.55 E10.30707
G1 X108.161 Y126.687 E10.33632
G1 X107.286 Y126.821 E10.37754
G1 X106.007 Y126.842 E10.4371
G1 X103.76 Y126.841 E10.54173
G1 X103.081 Y126.831 E10.57335
G1 X102.208 Y126.76 E10.61414
G1 X100.968 Y126.489 E10.67324
G1 X98.777 Y125.968 E10.77811
G1 X98.106 Y125.798 E10.81034
G1 X97.341 Y125.553 E10.84774
G1 X96.153 Y124.986 E10.90904
G1 X94.115 Y123.96 E11.01528
G1 X93.49 Y123.633 E11.04813
G1 X92.778 Y123.198 E11.08698
G1 X91.752 Y122.365 E11.14852
G1 X90.122 Y120.996 E11.24764
G1 X89.516 Y120.469 E11.28503
G1 X88.92 Y119.876 E11.32418
G1 X88.117 Y118.834 E11.38544
G1 X86.838 Y117.11 E11.48539
G1 X86.385 Y116.48 E11.52152
G1 X85.937 Y115.762 E11.56093
G1 X85.444 Y114.666 E11.61689
G1 X84.532 Y112.548 E11.72427
G1 X84.258 Y111.886 E11.75763
G1 X83.991 Y111.091 E11.79668
G1 X83.744 Y109.823 E11.85683
G1 X83.355 Y107.605 E11.96169
G1 X83.247 Y106.927 E11.99366
G1 X83.166 Y106.059 E12.03425
G1 X83.214 Y104.897 E12.0884
G1 X83.348 Y102.592 E12.19592
G1 X83.4 Y101.869 E12.22967
G1 X83.522 Y100.994 E12.27081
G1 X83.863 Y99.788 E12.32916
G1 X84.503 Y97.647 E12.43322
G1 X84.71 Y96.984 E12.46556
G1 X85.03 Y96.159 E12.50676
G1 X85.649 Y95.046 E12.56607
G1 X86.769 Y93.101 E12.67057
G1 X87.135 Y92.486 E12.7039
G1 X87.62 Y91.784 E12.74363
G1 X88.479 Y90.843 E12.80296
G1 X90.031 Y89.196 E12.90833
G1 X90.489 Y88.723 E12.93899
M204 S3000
M205 X10 Y10
G0 F3000 X90.891 Y89.113
M204 S1800
M205 X8 Y8
G1 F2400 X91.457 Y88.597 E12.97466
G1 X92.509 Y87.877 E13.03402
G1 X94.392 Y86.638 E13.13897
G1 X94.944 Y86.285 E13.16948
G1 X95.613 Y85.913 E13.20513
G1 X96.722 Y85.486 E13.26046
G1 X98.885 Y84.697 E13.36767
G1 X99.548 Y84.466 E13.40037
G1 X100.284 Y84.259 E13.43597
G1 X101.439 Y84.103 E13.49024
G1 X103.76 Y83.831 E13.59905
G1 X104.435 Y83.762 E13.63065
G1 X105.196 Y83.732 E13.66611
G1 X106.506 Y83.862 E13.72741
G1 X108.724 Y84.122 E13.83139
G1 X109.361 Y84.207 E13.86132
G1 X110.109 Y84.355 E13.89682
G1 X111.258 Y84.75 E13.9534
G1 X113.382 Y85.524 E14.05866
G1 X114.044 Y85.776 E14.09165
G1 X114.734 Y86.089 E14.12693
G1 X115.825 Y86.779 E14.18704
G1 X117.688 Y88.008 E14.29096
G1 X118.24 Y88.382 E14.32201
G1 X118.85 Y88.853 E14.35789
G1 X119.712 Y89.739 E14.41545
G1 X121.206 Y91.324 E14.51688
G1 X121.729 Y91.896 E14.55297
G1 X122.208 Y92.489 E14.58846
G1 X122.859 Y93.576 E14.64746
G1 X123.977 Y95.517 E14.75176
G1 X124.307 Y96.109 E14.78332
G1 X124.637 Y96.798 E14.81889
G1 X124.989 Y97.904 E14.87294
G1 X125.661 Y100.151 E14.98215
G1 X125.846 Y100.803 E15.01371
G1 X126.01 Y101.551 E15.04936
G1 X126.105 Y102.826 E15.1089
G1 X126.233 Y105.037 E15.21202
G1 X126.264 Y105.726 E15.24414
G1 X126.251 Y106.49 E15.27972
G1 X126.05 Y107.758 E15.3395
G1 X125.656 Y109.997 E15.44536
G1 X125.534 Y110.63 E15.47538
G1 X125.345 Y111.362 E15.51058
G1 X124.868 Y112.53 E15.56933
G1 X123.984 Y114.58 E15.67328
G1 X123.702 Y115.211 E15.70546
G1 X123.342 Y115.898 E15.74158
G1 X122.594 Y116.937 E15.80119
G1 X121.307 Y118.669 E15.90167
G1 X120.857 Y119.257 E15.93615
G1 X120.355 Y119.836 E15.97183
G1 X119.368 Y120.693 E16.0327
G1 X117.724 Y122.073 E16.13264
G1 X117.162 Y122.533 E16.16646
G1 X116.537 Y122.984 E16.20235
G1 X115.451 Y123.553 E16.25944
G1 X113.479 Y124.545 E16.36223
G1 X112.805 Y124.872 E16.39711
G1 X112.103 Y125.162 E16.43248
G1 X110.869 Y125.477 E16.49178
G1 X108.652 Y126.003 E16.59788
G1 X108.039 Y126.14 E16.62713
G1 X107.277 Y126.261 E16.66305
G1 X106.007 Y126.282 E16.7222
G1 X103.768 Y126.281 E16.82645
G1 X103.089 Y126.271 E16.85808
G1 X102.328 Y126.213 E16.89361
G1 X101.098 Y125.944 E16.95224
G1 X98.915 Y125.425 E17.05672
G1 X98.244 Y125.255 E17.08896
G1 X97.512 Y125.02 E17.12475
G1 X96.405 Y124.486 E17.18198
G1 X94.374 Y123.464 E17.28785
G1 X93.779 Y123.153 E17.31912
G1 X93.131 Y122.763 E17.35433
G1 X92.112 Y121.936 E17.41544
G1 X90.489 Y120.573 E17.51413
G1 X89.909 Y120.07 E17.54988
G1 X89.364 Y119.534 E17.58547
G1 X88.567 Y118.5 E17.64626
G1 X87.292 Y116.783 E17.74585
G1 X86.858 Y116.181 E17.7804
G1 X86.448 Y115.532 E17.81615
G1 X85.958 Y114.445 E17.87167
G1 X85.049 Y112.334 E17.97869
G1 X84.788 Y111.704 E18.01045
G1 X84.541 Y110.984 E18.04589
G1 X84.296 Y109.726 E18.10557
G1 X83.908 Y107.517 E18.21
G1 X83.8 Y106.839 E18.24197
G1 X83.726 Y106.082 E18.27739
G1 X83.773 Y104.93 E18.33108
G1 X83.907 Y102.632 E18.43826
G1 X83.959 Y101.909 E18.47201
G1 X84.061 Y101.146 E18.50786
G1 X84.399 Y99.949 E18.56578
G1 X85.038 Y97.814 E18.66955
G1 X85.245 Y97.151 E18.70189
G1 X85.519 Y96.431 E18.73776
G1 X86.134 Y95.325 E18.79669
G1 X87.25 Y93.387 E18.90082
G1 X87.598 Y92.801 E18.93256
G1 X88.034 Y92.161 E18.96862
G1 X88.886 Y91.227 E19.02748
G1 X90.433 Y89.586 E19.1325
G1 X90.891 Y89.113 E19.16316
M204 S3000
M205 X10 Y10
G1 F2400 E13.16316
;MESH:Light Holder Cap.stl
G0 F3000 X94.179 Y92.34
G0 X94.968 Y93.082
G0 X93.512 Y101.306
G0 X92.903 Y105.152
G0 X93.512 Y108.998
G0 X95.28 Y112.468
G0 X98.034 Y115.222
G0 X101.157 Y116.813
G0 X105.434 Y118.684
M204 S1800
M205 X8 Y8
;TYPE:WALL-INNER
G1 F2400 E19.16316
G1 F1002.4 X104.92 Y118.643 E19.19908
G1 F1208.6 X104.547 Y118.448 E19.22341
G1 F1500 X101.318 Y117.928 E19.3757
G1 X101.006 Y117.814 E19.39117
G1 X97.594 Y116.075 E19.56949
G1 X97.395 Y115.935 E19.58082
G1 X94.49 Y113.037 E19.77189
G1 X92.65 Y109.416 E19.96102
G1 X92.553 Y109.081 E19.97726
G1 X91.956 Y105.314 E20.15485
G1 X91.948 Y105.033 E20.16794
G1 X92.588 Y101.003 E20.35795
G1 X94.425 Y97.399 E20.54631
G1 X94.619 Y97.137 E20.56149
G1 X97.335 Y94.422 E20.74031
G1 X97.558 Y94.245 E20.75357
G1 X101.115 Y92.434 E20.93943
G1 X101.42 Y92.355 E20.9541
G1 X105.231 Y91.749 E21.13378
G1 X105.513 Y91.757 E21.14692
G1 X109.304 Y92.359 E21.32566
G1 X109.586 Y92.435 E21.33926
G1 X112.213 Y93.772 E21.47651
G1 F1206.9 X112.631 Y93.832 E21.50095
G1 F1020.7 X113.195 Y94.139 E21.54489
G1 F1010.8 X113.727 Y94.579 E21.5926
G1 F1009.6 X116.088 Y96.975 E21.82531
G1 F1075.5 X116.356 Y97.351 E21.85529
G1 X117.565 Y99.65 E22.02398
G1 F1056.6 X118.17 Y100.982 E22.12069
G1 F1070.1 X118.494 Y102.662 E22.23237
G1 F1096.6 X118.827 Y105.145 E22.39193
G1 F1132.1 X118.758 Y105.826 E22.43416
G1 F1150.7 X118.224 Y109.093 E22.6351
G1 F1198.3 X118.108 Y109.44 E22.65643
G1 F1184.8 X117.495 Y110.696 E22.73882
G1 F1115.5 X116.882 Y111.953 E22.82638
G1 F1096.6 X116.255 Y113.068 E22.90786
G1 F1075.5 X114.961 Y114.461 E23.03133
G1 X113.26 Y116.083 E23.18397
G1 X112.559 Y116.493 E23.2367
G1 F1048.7 X109.66 Y117.961 E23.45313
G1 F1060.6 X109.41 Y118.037 E23.47034
G1 F1035.8 X107.983 Y118.293 E23.5681
G1 F971.1 X106.555 Y118.55 E23.67246
G1 F966.6 X105.434 Y118.684 E23.75404
M204 S3000
M205 X10 Y10
G0 F3000 X105.351 Y118.007
M204 S1800
M205 X8 Y8
G1 F1500 X101.372 Y117.372 E23.94166
G1 X97.801 Y115.553 E24.12828
G1 X94.949 Y112.704 E24.31599
G1 X93.126 Y109.119 E24.50326
G1 X92.498 Y105.164 E24.68973
G1 X93.127 Y101.179 E24.87759
G1 X94.91 Y97.678 E25.06053
G1 X95.027 Y97.521 E25.06965
G1 X97.786 Y94.763 E25.2513
G1 X101.376 Y92.929 E25.43902
G1 X105.363 Y92.299 E25.62697
G1 X109.302 Y92.925 E25.81269
G1 X112.915 Y94.764 E26.00146
G1 X115.655 Y97.504 E26.1819
G1 X115.789 Y97.678 E26.19212
G1 X117.573 Y101.179 E26.37509
G1 X118.202 Y105.16 E26.56276
G1 X117.574 Y109.119 E26.74941
G1 X115.751 Y112.704 E26.93669
G1 X112.894 Y115.557 E27.1247
G1 X109.323 Y117.373 E27.31124
G1 X105.351 Y118.007 E27.49854
M204 S3000
M205 X10 Y10
G0 F3000 X105.35 Y118.065
G0 X105.35 Y119.481
M204 S1800
M205 X8 Y8
G1 F991.7 X106.676 Y119.436 E27.59198
G1 F967.7 X109.903 Y118.733 E27.83035
G1 F1019.4 X112.963 Y117.189 E28.06519
G1 F1075.5 X113.703 Y116.632 E28.12533
G1 X115.54 Y115.024 E28.28388
G1 F1088.1 X116.156 Y114.251 E28.34733
G1 F1189.8 X116.772 Y113.477 E28.4054
G1 F1160.2 X117.565 Y112.324 E28.48964
G1 F1115.5 X118.151 Y111.018 E28.57927
G1 F1184.8 X118.738 Y109.712 E28.66368
G1 F1196.6 X118.928 Y109.234 E28.6937
G1 F1149.1 X119.5 Y105.905 E28.89901
G1 F1183.1 X119.483 Y105.028 E28.9508
G1 F1191.5 X119.381 Y103.78 E29.0242
G1 F1100.9 X119.279 Y102.531 E29.10371
G1 F1088.1 X118.797 Y100.727 E29.22357
G1 F1074.2 X118.303 Y99.304 E29.32152
G1 F1075.5 X117.003 Y96.979 E29.4945
G1 F1085.3 X116.63 Y96.387 E29.53954
G1 F1018.2 X114.302 Y93.952 E29.77063
G1 F1020.7 X113.677 Y93.508 E29.8231
G1 F1031.9 X113.048 Y93.115 E29.8733
G1 F1206.9 X112.789 Y92.782 E29.89771
G1 F1500 X111.552 Y91.966 E29.96671
G1 X108.375 Y90.809 E30.12415
G1 X105 Y90.414 E30.28238
G1 X101.625 Y90.809 E30.44061
G1 X98.448 Y91.967 E30.59806
G1 X95.605 Y93.84 E30.75659
G1 X93.273 Y96.315 E30.91494
G1 X91.581 Y99.254 E31.07285
G1 X90.606 Y102.511 E31.23116
G1 X90.407 Y105.911 E31.38975
G1 X90.996 Y109.257 E31.54794
G1 X92.341 Y112.377 E31.70615
G1 X94.371 Y115.108 E31.8646
G1 X96.971 Y117.294 E32.02277
G1 X99.999 Y118.816 E32.18058
G1 X103.304 Y119.602 E32.33876
G1 X104.456 Y119.602 E32.39241
G1 F1208.6 X104.855 Y119.467 E32.41675
G1 F1029.4 X105.35 Y119.481 E32.45035
M204 S3000
M205 X10 Y10
G0 F3000 X106.761 Y120.102
G0 X106.761 Y120.162
M204 S1800
M205 X8 Y8
G1 F1500 X110.195 Y119.346 E32.6147
G1 X113.341 Y117.762 E32.77871
G1 X116.04 Y115.495 E32.94284
G1 X118.147 Y112.659 E33.10735
G1 X119.544 Y109.418 E33.27169
G1 X120.155 Y105.943 E33.43598
G1 X119.95 Y102.413 E33.60063
G1 X118.938 Y99.031 E33.76501
G1 X117.18 Y95.978 E33.92905
G1 X114.758 Y93.409 E34.09346
G1 X111.805 Y91.463 E34.25814
G1 X108.505 Y90.26 E34.42169
G1 X105 Y89.85 E34.58601
G1 X101.495 Y90.261 E34.75033
G1 X98.195 Y91.463 E34.91387
G1 X95.242 Y93.409 E35.07855
G1 X92.82 Y95.978 E35.24295
G1 X91.063 Y99.031 E35.40697
G1 X90.05 Y102.413 E35.57137
G1 X89.845 Y105.943 E35.73602
G1 X90.456 Y109.418 E35.90031
G1 X91.853 Y112.659 E36.06465
G1 X93.96 Y115.494 E36.22912
G1 X96.66 Y117.764 E36.39337
G1 X99.805 Y119.346 E36.5573
G1 X103.239 Y120.162 E36.72166
G1 X106.761 Y120.162 E36.88566
M204 S3000
M205 X10 Y10
G0 F3000 X106.827 Y120.722
M204 S1800
M205 X8 Y8
;TYPE:WALL-OUTER
G1 F1500 X110.388 Y119.876 E37.05609
G1 X113.651 Y118.233 E37.2262
G1 X116.45 Y115.881 E37.39644
G1 X118.635 Y112.941 E37.567
G1 X120.084 Y109.58 E37.73743
G1 X120.718 Y105.976 E37.90782
G1 X120.505 Y102.315 E38.07858
G1 X119.456 Y98.808 E38.24903
G1 X117.632 Y95.642 E38.41917
G1 X115.12 Y92.977 E38.5897
