;FLAVOR:Marlin
;TIME:1952
;Filament used: 1.57522m
;Layer height: 0.2
;MINX:58.609
;MINY:58.617
;MINZ:0.2
;MAXX:151.362
;MAXY:151.389
;MAXZ:2
;TARGET_MACHINE.NAME:Anycubic i3 Mega
;Generated with Cura_SteamEngine 5.7.0-alpha.0
M140 S60
M105
M190 S60
M104 S220
M105
M109 S220
M82 ;absolute extrusion mode
G21 ;metric values
G90 ;absolute positioning
M82 ;set extruder to absolute mode
M107 ;start with the fan off
G28 X0 Y0 ;move X/Y to min endstops
G28 Z0 ;move Z to min endstops
G1 Z15.0 F100 ;move the platform down 15mm
G92 E0 ;zero the extruded length
G1 F200 E3 ;extrude 3mm of feed stock
G92 E0 ;zero the extruded length again
G1 F100
G0 Y20 F100
M117 Printing...
G5
G92 E0
G92 E0
G1 F2400 E-6
;LAYER_COUNT:10
;LAYER:0
M107
M204 S3000
M205 X10 Y10
G1 F600 Z0.275
G0 F3000 X75.177 Y74.149 Z0.275
M204 S1800
M205 X8 Y8
;TYPE:SKIRT
G1 F600 Z0.2
G1 F2400 E0
G1 X76.013 Y73.382 E0.05283
G1 X76.585 Y72.882 E0.08821
G1 X77.089 Y72.49 E0.11794
G1 X77.65 Y72.099 E0.14978
G1 X79.912 Y70.483 E0.27922
G1 X81.781 Y69.085 E0.3879
G1 X82.257 Y68.767 E0.41456
G1 X83.232 Y68.192 E0.46727
G1 X83.922 Y67.809 E0.50401
G1 X84.516 Y67.522 E0.53473
G1 X85.06 Y67.295 E0.56218
G1 X87.508 Y66.232 E0.68645
G1 X89.968 Y65.099 E0.81257
G1 X92.513 Y64.055 E0.94065
G1 X94.901 Y62.994 E1.06233
G1 X97.269 Y61.864 E1.18451
G1 X99.637 Y60.648 E1.30846
G1 X101.973 Y59.37 E1.43245
G1 X102.624 Y59.069 E1.46584
G1 X103.442 Y58.806 E1.50585
G1 X104.212 Y58.663 E1.54232
G1 X104.86 Y58.617 E1.57257
G1 X105.712 Y58.658 E1.61229
G1 X106.421 Y58.78 E1.64579
G1 X107.257 Y59.027 E1.68638
G1 X108.278 Y59.527 E1.73932
G1 X110.2 Y60.68 E1.84368
G1 X112.535 Y62.002 E1.96863
G1 X114.902 Y63.256 E2.09336
G1 X117.263 Y64.42 E2.21593
G1 X117.814 Y64.672 E2.24414
G1 X119.595 Y65.515 E2.33589
G1 X122.071 Y66.644 E2.46261
G1 X124.136 Y67.52 E2.56705
G1 X124.742 Y67.817 E2.59848
G1 X125.818 Y68.417 E2.65585
G1 X126.401 Y68.765 E2.68746
G1 X127.004 Y69.174 E2.72139
G1 X127.404 Y69.48 E2.74484
G1 X129.589 Y71.097 E2.87141
G1 X130.427 Y71.679 E2.91892
G1 X130.58 Y71.8 E2.928
G1 X131.643 Y72.549 E2.98856
G1 X132.167 Y72.963 E3.01965
G1 X132.839 Y73.557 E3.06141
G1 X133.514 Y74.182 E3.10425
G1 X133.994 Y74.68 E3.13646
G1 X134.329 Y75.07 E3.1604
G1 X136.88 Y77.922 E3.33857
G1 X137.791 Y78.9 E3.40081
G1 X138.216 Y79.408 E3.43165
G1 X138.584 Y79.897 E3.46015
G1 X139.316 Y80.927 E3.51898
G1 X139.656 Y81.471 E3.54886
G1 X140.008 Y82.112 E3.58291
G1 X141.331 Y84.454 E3.70816
G1 X142.511 Y86.42 E3.81493
G1 X142.796 Y86.961 E3.8434
G1 X143.262 Y87.966 E3.89498
G1 X144.458 Y90.674 E4.03283
G1 X145.609 Y93.082 E4.15711
G1 X146.827 Y95.454 E4.28127
G1 X148.102 Y97.775 E4.40458
G1 X149.441 Y100.058 E4.52782
G1 X150.455 Y101.709 E4.61804
G1 X150.833 Y102.44 E4.65636
G1 X151.083 Y103.111 E4.6897
G1 X151.256 Y103.808 E4.72314
G1 X151.362 Y104.728 E4.76626
G1 X151.353 Y105.444 E4.7996
G1 X151.263 Y106.157 E4.83307
G1 X151.03 Y107.058 E4.8764
G1 X150.764 Y107.72 E4.90962
G1 X150.479 Y108.259 E4.93801
G1 X149.11 Y110.528 E5.06141
G1 X147.832 Y112.788 E5.1823
G1 X146.559 Y115.193 E5.30901
G1 X145.412 Y117.519 E5.42977
G1 X144.288 Y119.969 E5.55529
G1 X143.494 Y121.825 E5.64929
G1 X142.831 Y123.287 E5.72404
G1 X142.498 Y123.917 E5.75722
G1 X142.147 Y124.494 E5.78867
G1 X140.81 Y126.761 E5.91122
G1 X140.144 Y127.97 E5.97549
G1 X139.57 Y128.983 E6.02971
G1 X139.254 Y129.477 E6.05701
G1 X138.62 Y130.363 E6.10774
G1 X138.17 Y130.962 E6.14263
G1 X137.762 Y131.446 E6.17211
G1 X137.338 Y131.897 E6.20093
G1 X134.636 Y134.884 E6.38848
G1 X133.904 Y135.725 E6.4404
G1 X133.5 Y136.144 E6.4675
G1 X132.895 Y136.707 E6.50598
G1 X132.113 Y137.394 E6.55445
G1 X131.562 Y137.825 E6.58702
G1 X130.991 Y138.222 E6.61941
G1 X128.822 Y139.768 E6.74344
G1 X126.882 Y141.221 E6.8563
G1 X126.408 Y141.54 E6.8829
G1 X125.87 Y141.863 E6.91212
G1 X124.786 Y142.477 E6.97013
G1 X124.222 Y142.754 E6.99939
G1 X123.47 Y143.07 E7.03737
G1 X121.021 Y144.137 E7.16176
G1 X118.565 Y145.273 E7.28776
G1 X116.589 Y146.148 E7.38839
G1 X114.206 Y147.285 E7.51134
G1 X111.893 Y148.471 E7.63237
G1 X109.516 Y149.777 E7.75866
G1 X108.091 Y150.586 E7.83496
G1 X107.508 Y150.872 E7.8652
G1 X106.629 Y151.174 E7.90848
G1 X105.858 Y151.329 E7.9451
G1 X105.077 Y151.389 E7.98157
G1 X104.428 Y151.366 E8.01181
G1 X103.584 Y151.234 E8.05159
G1 X102.894 Y151.038 E8.08499
G1 X102.104 Y150.705 E8.12491
G1 X101.419 Y150.355 E8.16073
G1 X100.112 Y149.663 E8.22959
G1 X97.743 Y148.495 E8.35258
G1 X95.314 Y147.381 E8.47702
G1 X92.942 Y146.374 E8.59701
G1 X89.882 Y145.18 E8.74996
G1 X89.048 Y144.787 E8.79289
G1 X86.554 Y143.649 E8.92054
G1 X84.474 Y142.766 E9.02575
G1 X83.984 Y142.528 E9.05112
G1 X82.964 Y141.965 E9.10537
G1 X82.198 Y141.507 E9.14693
G1 X81.644 Y141.131 E9.1781
G1 X81.183 Y140.78 E9.20508
G1 X79.072 Y139.216 E9.32742
G1 X78.178 Y138.591 E9.37821
G1 X78.059 Y138.497 E9.38527
G1 X77.062 Y137.799 E9.44195
G1 X76.498 Y137.356 E9.47534
G1 X75.805 Y136.744 E9.51839
G1 X75.167 Y136.153 E9.55889
G1 X74.692 Y135.662 E9.5907
G1 X74.197 Y135.089 E9.62596
G1 X72.41 Y133.068 E9.75157
G1 X70.919 Y131.469 E9.85338
G1 X70.487 Y130.952 E9.88475
G1 X69.746 Y129.963 E9.94229
G1 X69.327 Y129.363 E9.97637
G1 X68.972 Y128.788 E10.00784
G1 X68.665 Y128.227 E10.03761
G1 X67.295 Y125.803 E10.16727
G1 X66.118 Y123.837 E10.27396
G1 X65.82 Y123.272 E10.30371
G1 X65.382 Y122.317 E10.35263
G1 X64.984 Y121.382 E10.39995
G1 X64.161 Y119.031 E10.51593
G1 X63.221 Y116.545 E10.63969
G1 X62.235 Y114.149 E10.76034
G1 X61.129 Y111.662 E10.88708
G1 X59.996 Y109.297 E11.00919
G1 X59.281 Y107.871 E11.08346
G1 X58.998 Y107.212 E11.11686
G1 X58.742 Y106.321 E11.16003
G1 X58.633 Y105.61 E11.19352
G1 X58.609 Y104.757 E11.23326
G1 X58.667 Y104.11 E11.2635
G1 X58.863 Y103.204 E11.30667
G1 X59.172 Y102.348 E11.34904
G1 X59.82 Y101.078 E11.41543
G1 X61.003 Y98.68 E11.53994
G1 X62.101 Y96.285 E11.66263
G1 X63.136 Y93.848 E11.78591
G1 X64.109 Y91.362 E11.91022
G1 X64.629 Y89.905 E11.98226
G1 X65.066 Y88.739 E12.04024
G1 X65.551 Y87.616 E12.0972
G1 X65.862 Y86.947 E12.13155
G1 X66.178 Y86.359 E12.16263
G1 X66.535 Y85.777 E12.19443
G1 X67.86 Y83.528 E12.31597
G1 X68.499 Y82.364 E12.3778
G1 X69.074 Y81.349 E12.43212
G1 X69.447 Y80.754 E12.46482
G1 X70.424 Y79.43 E12.54144
G1 X70.918 Y78.84 E12.57727
G1 X71.345 Y78.387 E12.60626
G1 X73.203 Y76.359 E12.73433
G1 X74.755 Y74.582 E12.84419
G1 X75.177 Y74.149 E12.87235
M204 S3000
M205 X10 Y10
G0 F3000 X75.578 Y74.54
M204 S1800
M205 X8 Y8
G1 F2400 X76.382 Y73.803 E12.92313
G1 X76.929 Y73.324 E12.95699
G1 X77.433 Y72.932 E12.98672
G1 X77.976 Y72.555 E13.0175
G1 X80.238 Y70.939 E13.14695
G1 X82.092 Y69.551 E13.25479
G1 X82.568 Y69.233 E13.28145
G1 X83.504 Y68.681 E13.33205
G1 X84.166 Y68.313 E13.36731
G1 X84.732 Y68.039 E13.39659
G1 X85.276 Y67.812 E13.42404
G1 X87.731 Y66.746 E13.54867
G1 X90.181 Y65.617 E13.67428
G1 X92.726 Y64.573 E13.80237
G1 X95.128 Y63.506 E13.92476
G1 X97.525 Y62.362 E14.04843
G1 X99.893 Y61.146 E14.17238
G1 X102.211 Y59.877 E14.29544
G1 X102.799 Y59.601 E14.32568
G1 X103.546 Y59.356 E14.36229
G1 X104.252 Y59.222 E14.39575
G1 X104.9 Y59.176 E14.426
G1 X105.617 Y59.21 E14.45942
G1 X106.326 Y59.332 E14.49292
G1 X107.054 Y59.551 E14.52832
G1 X107.99 Y60.007 E14.5768
G1 X109.924 Y61.167 E14.68181
G1 X112.273 Y62.497 E14.80751
G1 X114.643 Y63.752 E14.93238
G1 X117.019 Y64.924 E15.05575
G1 X117.574 Y65.178 E15.08417
G1 X119.363 Y66.025 E15.17634
G1 X121.852 Y67.16 E15.30372
G1 X123.917 Y68.036 E15.40817
G1 X124.469 Y68.306 E15.43678
G1 X125.531 Y68.898 E15.49339
G1 X126.114 Y69.246 E15.52501
G1 X126.664 Y69.619 E15.55595
G1 X127.071 Y69.93 E15.57981
G1 X129.27 Y71.557 E15.70718
G1 X130.08 Y72.119 E15.75309
G1 X130.246 Y72.25 E15.76293
G1 X131.32 Y73.007 E15.82412
G1 X131.796 Y73.383 E15.85236
G1 X132.459 Y73.968 E15.89353
G1 X133.134 Y74.593 E15.93637
G1 X133.569 Y75.045 E15.96558
G1 X133.904 Y75.435 E15.98952
G1 X136.47 Y78.304 E16.16875
G1 X137.381 Y79.282 E16.23099
G1 X137.769 Y79.745 E16.25911
G1 X138.128 Y80.221 E16.28688
G1 X138.841 Y81.224 E16.34418
G1 X139.165 Y81.741 E16.37259
G1 X139.52 Y82.387 E16.40691
G1 X140.843 Y84.729 E16.53216
G1 X142.016 Y86.682 E16.63824
G1 X142.288 Y87.197 E16.66536
G1 X142.75 Y88.192 E16.71645
G1 X143.953 Y90.915 E16.85506
G1 X145.111 Y93.338 E16.98011
G1 X146.336 Y95.724 E17.105
G1 X147.611 Y98.045 E17.22831
G1 X148.964 Y100.351 E17.3528
G1 X149.959 Y101.968 E17.44121
G1 X150.309 Y102.638 E17.47641
G1 X150.539 Y103.246 E17.50668
G1 X150.712 Y103.943 E17.54012
G1 X150.802 Y104.724 E17.57673
G1 X150.797 Y105.374 E17.60699
G1 X150.707 Y106.087 E17.64046
G1 X150.51 Y106.849 E17.67711
G1 X150.244 Y107.511 E17.71033
G1 X149.985 Y107.995 E17.73589
G1 X148.623 Y110.252 E17.85864
G1 X147.337 Y112.526 E17.98028
G1 X146.064 Y114.931 E18.10699
G1 X144.903 Y117.285 E18.22921
G1 X143.779 Y119.735 E18.35472
G1 X142.984 Y121.594 E18.44887
G1 X142.336 Y123.025 E18.52202
G1 X142.003 Y123.655 E18.5552
G1 X141.669 Y124.203 E18.58508
G1 X140.328 Y126.477 E18.70801
G1 X139.657 Y127.694 E18.77272
G1 X139.098 Y128.681 E18.82554
G1 X138.782 Y129.175 E18.85284
G1 X138.172 Y130.027 E18.90164
G1 X137.742 Y130.601 E18.93503
G1 X137.354 Y131.062 E18.96309
G1 X136.93 Y131.513 E18.99191
G1 X134.221 Y134.508 E19.17996
G1 X133.5 Y135.337 E19.23112
G1 X133.118 Y135.734 E19.25677
G1 X132.525 Y136.286 E19.2945
G1 X131.743 Y136.973 E19.34296
G1 X131.242 Y137.365 E19.37259
G1 X130.671 Y137.762 E19.40497
G1 X128.497 Y139.312 E19.52929
G1 X126.569 Y140.757 E19.64149
G1 X126.12 Y141.06 E19.66671
G1 X125.594 Y141.376 E19.69528
G1 X124.539 Y141.974 E19.75175
G1 X123.975 Y142.251 E19.78101
G1 X123.253 Y142.554 E19.81747
G1 X120.797 Y143.624 E19.94221
G1 X118.338 Y144.761 E20.06836
G1 X116.362 Y145.636 E20.16899
G1 X113.965 Y146.78 E20.29266
G1 X111.623 Y147.98 E20.4152
G1 X109.246 Y149.286 E20.54149
G1 X107.844 Y150.083 E20.61658
G1 X107.261 Y150.369 E20.64682
G1 X106.516 Y150.626 E20.68352
G1 X105.813 Y150.771 E20.71694
G1 X105.097 Y150.829 E20.75039
G1 X104.448 Y150.806 E20.78063
G1 X103.737 Y150.695 E20.81414
G1 X103.047 Y150.499 E20.84754
G1 X102.359 Y150.206 E20.88236
G1 X101.681 Y149.86 E20.9178
G1 X100.374 Y149.168 E20.98666
G1 X97.991 Y147.993 E21.11038
G1 X95.547 Y146.872 E21.23559
G1 X93.146 Y145.852 E21.35706
G1 X90.086 Y144.658 E21.51001
G1 X89.287 Y144.281 E21.55114
G1 X86.773 Y143.134 E21.67981
G1 X84.719 Y142.262 E21.78372
G1 X84.229 Y142.024 E21.80908
G1 X83.251 Y141.484 E21.86111
G1 X82.485 Y141.026 E21.90266
G1 X81.983 Y140.685 E21.93092
G1 X81.522 Y140.334 E21.9579
G1 X79.393 Y138.757 E22.08127
G1 X78.525 Y138.151 E22.13056
G1 X78.397 Y138.05 E22.13816
G1 X77.383 Y137.34 E22.1958
G1 X76.869 Y136.936 E22.22624
G1 X76.186 Y136.333 E22.26866
G1 X75.548 Y135.742 E22.30916
G1 X75.116 Y135.296 E22.33807
G1 X74.621 Y134.723 E22.37333
G1 X72.83 Y132.697 E22.49924
G1 X71.329 Y131.087 E22.60174
G1 X70.935 Y130.616 E22.63033
G1 X70.205 Y129.642 E22.68701
G1 X69.786 Y129.042 E22.72109
G1 X69.463 Y128.519 E22.74971
G1 X69.156 Y127.958 E22.77949
G1 X67.783 Y125.528 E22.90945
G1 X66.613 Y123.576 E23.01542
G1 X66.329 Y123.038 E23.04375
G1 X65.897 Y122.097 E23.09196
G1 X65.513 Y121.197 E23.13753
G1 X64.69 Y118.846 E23.25351
G1 X63.745 Y116.347 E23.37792
G1 X62.747 Y113.921 E23.50007
G1 X61.641 Y111.434 E23.62681
G1 X60.497 Y109.046 E23.75011
G1 X59.782 Y107.62 E23.82439
G1 X59.513 Y106.992 E23.8562
G1 X59.296 Y106.236 E23.89282
G1 X59.187 Y105.525 E23.92632
G1 X59.167 Y104.807 E23.95976
G1 X59.225 Y104.16 E23.99001
G1 X59.391 Y103.391 E24.02664
G1 X59.671 Y102.603 E24.06558
G1 X60.319 Y101.333 E24.13197
G1 X61.505 Y98.928 E24.25684
G1 X62.61 Y96.518 E24.38029
G1 X63.651 Y94.067 E24.50429
G1 X64.63 Y91.566 E24.62935
G1 X65.153 Y90.101 E24.70178
G1 X65.58 Y88.961 E24.75846
G1 X66.059 Y87.851 E24.81476
G1 X66.355 Y87.212 E24.84755
G1 X66.656 Y86.651 E24.87719
G1 X67.012 Y86.069 E24.90896
G1 X68.351 Y83.797 E25.03176
G1 X68.986 Y82.64 E25.09322
G1 X69.549 Y81.646 E25.14641
G1 X69.898 Y81.087 E25.1771
G1 X70.875 Y79.763 E25.25372
G1 X71.326 Y79.224 E25.28644
G1 X71.753 Y78.771 E25.31543
G1 X73.616 Y76.737 E25.44386
G1 X75.156 Y74.973 E25.5529
G1 X75.578 Y74.54 E25.58106
M204 S3000
M205 X10 Y10
G0 F3000 X75.957 Y74.953
M204 S1800
M205 X8 Y8
G1 F2400 X76.751 Y74.224 E25.63125
G1 X77.274 Y73.765 E25.66365
G1 X77.752 Y73.392 E25.69188
G1 X78.302 Y73.011 E25.72304
G1 X80.564 Y71.395 E25.85248
G1 X82.403 Y70.017 E25.95949
G1 X82.879 Y69.699 E25.98614
G1 X83.776 Y69.17 E26.03463
G1 X84.41 Y68.817 E26.06842
G1 X84.948 Y68.556 E26.09627
G1 X85.492 Y68.329 E26.12371
G1 X87.954 Y67.26 E26.24869
G1 X90.394 Y66.135 E26.37381
G1 X92.939 Y65.091 E26.5019
G1 X95.355 Y64.018 E26.62499
G1 X97.781 Y62.86 E26.75016
G1 X100.149 Y61.644 E26.87412
G1 X102.449 Y60.384 E26.99623
G1 X103.037 Y60.108 E27.02648
G1 X103.654 Y59.906 E27.05671
G1 X104.292 Y59.781 E27.08698
G1 X104.94 Y59.735 E27.11723
G1 X105.588 Y59.769 E27.14745
G1 X106.228 Y59.883 E27.17772
G1 X106.849 Y60.074 E27.20797
G1 X107.702 Y60.487 E27.2521
G1 X109.648 Y61.654 E27.35776
G1 X112.011 Y62.992 E27.4842
G1 X114.384 Y64.248 E27.60922
G1 X116.775 Y65.428 E27.73338
G1 X117.334 Y65.684 E27.76201
G1 X119.131 Y66.535 E27.85459
G1 X121.633 Y67.676 E27.98264
G1 X123.698 Y68.552 E28.08709
G1 X124.196 Y68.795 E28.11289
G1 X125.244 Y69.379 E28.16876
G1 X125.827 Y69.727 E28.20037
G1 X126.324 Y70.064 E28.22833
G1 X126.738 Y70.38 E28.25258
G1 X128.951 Y72.017 E28.38076
G1 X129.761 Y72.579 E28.42666
G1 X129.917 Y72.703 E28.43594
G1 X130.974 Y73.447 E28.49613
G1 X131.426 Y73.803 E28.52292
G1 X132.079 Y74.379 E28.56347
G1 X132.731 Y74.982 E28.60482
G1 X133.144 Y75.41 E28.63252
G1 X133.479 Y75.8 E28.65646
G1 X136.06 Y78.686 E28.83674
G1 X136.971 Y79.664 E28.89898
G1 X137.322 Y80.082 E28.92439
G1 X137.672 Y80.546 E28.95146
G1 X138.366 Y81.521 E29.00718
G1 X138.69 Y82.038 E29.0356
G1 X139.032 Y82.662 E29.06873
G1 X140.355 Y85.004 E29.19398
G1 X141.521 Y86.944 E29.29937
G1 X141.78 Y87.433 E29.32514
G1 X142.238 Y88.418 E29.37572
G1 X143.448 Y91.156 E29.51511
G1 X144.613 Y93.594 E29.64093
G1 X145.845 Y95.994 E29.76655
G1 X147.12 Y98.315 E29.88986
G1 X148.487 Y100.644 E30.0156
G1 X149.482 Y102.261 E30.10401
G1 X149.785 Y102.836 E30.13428
G1 X150.015 Y103.444 E30.16455
G1 X150.168 Y104.075 E30.19478
G1 X150.242 Y104.72 E30.22501
G1 X150.237 Y105.37 E30.25528
G1 X150.152 Y106.014 E30.28552
G1 X149.989 Y106.643 E30.31578
G1 X149.75 Y107.247 E30.34603
G1 X149.491 Y107.731 E30.37159
G1 X148.136 Y109.976 E30.49369
G1 X146.842 Y112.264 E30.61609
G1 X145.569 Y114.669 E30.74279
G1 X144.394 Y117.051 E30.86647
G1 X143.27 Y119.501 E30.99199
G1 X142.474 Y121.363 E31.08628
G1 X141.826 Y122.794 E31.15943
G1 X141.525 Y123.364 E31.18944
G1 X141.191 Y123.912 E31.21932
G1 X139.837 Y126.207 E31.3434
G1 X139.17 Y127.418 E31.40778
G1 X138.626 Y128.38 E31.45924
G1 X138.327 Y128.849 E31.48514
G1 X137.724 Y129.692 E31.5334
G1 X137.314 Y130.24 E31.56527
G1 X136.926 Y130.701 E31.59333
G1 X136.515 Y131.137 E31.62123
G1 X133.806 Y134.132 E31.80927
G1 X133.096 Y134.949 E31.85967
G1 X132.714 Y135.346 E31.88533
G1 X132.155 Y135.865 E31.92084
G1 X131.373 Y136.552 E31.96931
G1 X130.897 Y136.924 E31.99744
G1 X130.352 Y137.302 E32.02833
G1 X128.172 Y138.856 E32.15299
G1 X126.255 Y140.293 E32.26455
G1 X125.831 Y140.58 E32.28839
G1 X125.318 Y140.889 E32.31627
G1 X124.292 Y141.471 E32.3712
G1 X123.728 Y141.748 E32.40046
G1 X123.029 Y142.041 E32.43575
G1 X120.573 Y143.111 E32.56049
G1 X118.111 Y144.249 E32.68679
G1 X116.135 Y145.124 E32.78742
G1 X113.724 Y146.275 E32.91182
G1 X111.353 Y147.489 E33.03586
G1 X108.976 Y148.795 E33.16215
G1 X107.597 Y149.58 E33.23603
G1 X107.014 Y149.866 E33.26627
G1 X106.4 Y150.078 E33.29652
G1 X105.765 Y150.213 E33.32675
G1 X105.117 Y150.269 E33.35703
G1 X104.468 Y150.246 E33.38727
G1 X103.827 Y150.142 E33.41751
G1 X103.203 Y149.961 E33.44776
G1 X102.581 Y149.692 E33.47932
G1 X101.943 Y149.365 E33.5127
G1 X100.636 Y148.673 E33.58156
G1 X98.239 Y147.491 E33.70601
G1 X95.78 Y146.363 E33.83198
G1 X93.35 Y145.33 E33.95493
G1 X90.29 Y144.136 E34.10788
G1 X89.526 Y143.775 E34.14723
G1 X86.992 Y142.619 E34.27692
