;FLAVOR:Marlin
;TIME:872
;Filament used: 0.403567m
;Layer height: 0.2
;MINX:88.615
;MINY:88.615
;MINZ:0.2
;MAXX:121.385
;MAXY:121.385
;MAXZ:10
;TARGET_MACHINE.NAME:Anycubic i3 Mega
;Generated with Cura_SteamEngine 5.7.0-alpha.0
M140 S60
M105
M190 S60
M104 S200
M105
M109 S200
M82 ;absolute extrusion mode
G21 ;metric values
G90 ;absolute positioning
M82 ;set extruder to absolute mode
M107 ;start with the fan off
G28 X0 Y0 ;move X/Y to min endstops
G28 Z0 ;move Z to min endstops
G1 Z15.0 F100 ;move the platform down 15mm
G92 E0 ;zero the extruded length
G1 F200 E3 ;extrude 3mm of feed stock
G92 E0 ;zero the extruded length again
G1 F100
G0 Y20 F100
M117 Printing...
G5
G92 E0
G92 E0
G1 F2400 E-6
;LAYER_COUNT:50
;LAYER:0
M107
M204 S3000
M205 X10 Y10
G1 F600 Z0.275
G0 F3000 X94.335 Y92.598 Z0.275
M204 S1800
M205 X8 Y8
;TYPE:SKIRT
G1 F600 Z0.2
G1 F2400 E0
G1 X95.051 Y91.982 E0.04398
G1 X95.654 Y91.54 E0.07879
G1 X96.439 Y91.056 E0.12174
G1 X98.765 Y89.873 E0.24325
G1 X99.582 Y89.535 E0.28442
G1 X100.202 Y89.33 E0.31483
G1 X101.205 Y89.087 E0.36288
G1 X103.726 Y88.689 E0.48172
G1 X104.61 Y88.619 E0.52301
G1 X105.28 Y88.615 E0.55421
G1 X106.319 Y88.694 E0.60273
G1 X108.821 Y89.093 E0.72071
G1 X109.659 Y89.293 E0.76082
G1 X110.396 Y89.529 E0.79686
G1 X111.292 Y89.899 E0.842
G1 X113.541 Y91.047 E0.95958
G1 X114.269 Y91.491 E0.99928
G1 X114.873 Y91.922 E1.03383
G1 X115.623 Y92.556 E1.07956
G1 X117.445 Y94.381 E1.19964
G1 X117.947 Y94.963 E1.23543
G1 X118.448 Y95.637 E1.27454
G1 X118.915 Y96.388 E1.31571
G1 X120.126 Y98.764 E1.43989
G1 X120.464 Y99.583 E1.48115
G1 X120.693 Y100.288 E1.51567
G1 X120.913 Y101.205 E1.55958
G1 X121.311 Y103.726 E1.67842
G1 X121.381 Y104.61 E1.71971
G1 X121.385 Y105.28 E1.75091
G1 X121.306 Y106.32 E1.79947
G1 X120.906 Y108.825 E1.9176
G1 X120.708 Y109.655 E1.95733
G1 X120.477 Y110.384 E1.99294
G1 X120.152 Y111.184 E2.03315
G1 X119.452 Y112.577 E2.10574
G1 X118.922 Y113.594 E2.15914
G1 X118.492 Y114.294 E2.19739
G1 X118.043 Y114.919 E2.23323
G1 X117.473 Y115.593 E2.27433
G1 X115.617 Y117.447 E2.39648
G1 X115.004 Y117.974 E2.43413
G1 X114.395 Y118.426 E2.46944
G1 X113.519 Y118.967 E2.51738
G1 X111.241 Y120.123 E2.63633
G1 X110.482 Y120.438 E2.6746
G1 X109.729 Y120.688 E2.71154
G1 X108.886 Y120.895 E2.75196
G1 X106.274 Y121.311 E2.87512
G1 X105.39 Y121.381 E2.91641
G1 X104.72 Y121.385 E2.94761
G1 X103.681 Y121.306 E2.99613
G1 X101.18 Y120.907 E3.11406
G1 X100.347 Y120.709 E3.15393
G1 X99.613 Y120.475 E3.1898
G1 X98.712 Y120.103 E3.23519
G1 X96.459 Y118.953 E3.35298
G1 X95.733 Y118.51 E3.39258
G1 X95.172 Y118.112 E3.42461
G1 X94.349 Y117.418 E3.47474
G1 X92.61 Y115.679 E3.58925
G1 X92 Y114.97 E3.6328
G1 X91.55 Y114.361 E3.66806
G1 X91.082 Y113.608 E3.70935
G1 X89.89 Y111.271 E3.8315
G1 X89.534 Y110.412 E3.8748
G1 X89.306 Y109.709 E3.90922
G1 X89.087 Y108.796 E3.95293
G1 X88.689 Y106.278 E4.07164
G1 X88.619 Y105.392 E4.11302
G1 X88.615 Y104.719 E4.14436
G1 X88.694 Y103.681 E4.19284
G1 X89.094 Y101.174 E4.31105
G1 X89.294 Y100.337 E4.35112
G1 X89.526 Y99.609 E4.3867
G1 X89.85 Y98.812 E4.42676
G1 X90.548 Y97.423 E4.49914
G1 X91.078 Y96.406 E4.55254
G1 X91.508 Y95.706 E4.5908
G1 X91.957 Y95.081 E4.62663
G1 X92.528 Y94.406 E4.6678
G1 X94.335 Y92.598 E4.78683
M204 S3000
M205 X10 Y10
G0 F3000 X94.731 Y92.994
M204 S1800
M205 X8 Y8
G1 F2400 X95.383 Y92.433 E4.82688
G1 X95.948 Y92.017 E4.85955
G1 X96.733 Y91.533 E4.90249
G1 X98.98 Y90.39 E5.01988
G1 X99.758 Y90.067 E5.05911
G1 X100.378 Y89.862 E5.08951
G1 X101.293 Y89.64 E5.13335
G1 X103.771 Y89.247 E5.25018
G1 X104.613 Y89.179 E5.28952
G1 X105.283 Y89.175 E5.32072
G1 X106.231 Y89.247 E5.36499
G1 X108.692 Y89.638 E5.48102
G1 X109.49 Y89.827 E5.5192
G1 X110.183 Y90.047 E5.55306
G1 X111.038 Y90.398 E5.5961
G1 X113.25 Y91.526 E5.71172
G1 X113.945 Y91.948 E5.74958
G1 X114.511 Y92.35 E5.7819
G1 X115.261 Y92.984 E5.82763
G1 X117.021 Y94.747 E5.94363
G1 X117.523 Y95.329 E5.97942
G1 X117.972 Y95.933 E6.01446
G1 X118.439 Y96.684 E6.05564
G1 X119.609 Y98.979 E6.17559
G1 X119.932 Y99.757 E6.21482
G1 X120.149 Y100.419 E6.24726
G1 X120.36 Y101.293 E6.28912
G1 X120.753 Y103.771 E6.40595
G1 X120.821 Y104.613 E6.44529
G1 X120.825 Y105.283 E6.47649
G1 X120.753 Y106.232 E6.5208
G1 X120.361 Y108.696 E6.63698
G1 X120.174 Y109.487 E6.67483
G1 X119.958 Y110.173 E6.70832
G1 X119.633 Y110.973 E6.74852
G1 X118.955 Y112.319 E6.8187
G1 X118.445 Y113.301 E6.87023
G1 X118.036 Y113.968 E6.90666
G1 X117.615 Y114.557 E6.94037
G1 X117.045 Y115.231 E6.98147
G1 X115.251 Y117.023 E7.09955
G1 X114.67 Y117.524 E7.13527
G1 X114.061 Y117.976 E7.17058
G1 X113.265 Y118.468 E7.21416
G1 X111.026 Y119.606 E7.33111
G1 X110.267 Y119.921 E7.36937
G1 X109.595 Y120.144 E7.40234
G1 X108.752 Y120.351 E7.44276
G1 X106.229 Y120.753 E7.56172
G1 X105.387 Y120.821 E7.60106
G1 X104.717 Y120.825 E7.63226
G1 X103.769 Y120.753 E7.67653
G1 X101.309 Y120.362 E7.79251
G1 X100.516 Y120.175 E7.83045
G1 X99.826 Y119.957 E7.86415
G1 X98.966 Y119.604 E7.90743
G1 X96.75 Y118.474 E8.02326
G1 X96.057 Y118.053 E8.06102
G1 X95.496 Y117.655 E8.09305
G1 X94.745 Y117.022 E8.13878
G1 X93.006 Y115.283 E8.2533
G1 X92.45 Y114.637 E8.29299
G1 X92.026 Y114.065 E8.32614
G1 X91.558 Y113.312 E8.36742
G1 X90.389 Y111.017 E8.48735
G1 X90.066 Y110.238 E8.52662
G1 X89.85 Y109.578 E8.55896
G1 X89.64 Y108.708 E8.60063
G1 X89.247 Y106.233 E8.71732
G1 X89.179 Y105.389 E8.75675
G1 X89.175 Y104.716 E8.78809
G1 X89.247 Y103.769 E8.83231
G1 X89.639 Y101.303 E8.94858
G1 X89.828 Y100.506 E8.98672
G1 X90.045 Y99.82 E9.02022
G1 X90.369 Y99.023 E9.06028
G1 X91.045 Y97.681 E9.13025
G1 X91.555 Y96.699 E9.18178
G1 X91.964 Y96.032 E9.21821
G1 X92.385 Y95.443 E9.25192
G1 X92.956 Y94.768 E9.29309
G1 X94.731 Y92.994 E9.40995
M204 S3000
M205 X10 Y10
G0 F3000 X95.127 Y93.39
M204 S1800
M205 X8 Y8
G1 F2400 X95.716 Y92.883 E9.44613
G1 X96.243 Y92.493 E9.47666
G1 X96.987 Y92.032 E9.51742
G1 X99.195 Y90.907 E9.63281
G1 X99.934 Y90.599 E9.67009
G1 X100.554 Y90.394 E9.70049
G1 X101.381 Y90.193 E9.74012
G1 X103.817 Y89.805 E9.85498
G1 X104.616 Y89.739 E9.89231
G1 X105.286 Y89.735 E9.92351
G1 X106.143 Y89.8 E9.96353
G1 X108.564 Y90.183 E10.07767
G1 X109.322 Y90.361 E10.11392
G1 X109.971 Y90.565 E10.1456
G1 X110.784 Y90.897 E10.18649
G1 X112.96 Y92.005 E10.3002
G1 X113.621 Y92.405 E10.33617
G1 X114.187 Y92.807 E10.3685
G1 X114.865 Y93.38 E10.40983
G1 X116.597 Y95.113 E10.52392
G1 X117.099 Y95.695 E10.55971
G1 X117.496 Y96.229 E10.59069
G1 X117.963 Y96.98 E10.63187
G1 X119.092 Y99.194 E10.7476
G1 X119.4 Y99.933 E10.78488
G1 X119.605 Y100.552 E10.81524
G1 X119.807 Y101.381 E10.85497
G1 X120.195 Y103.817 E10.96983
G1 X120.261 Y104.616 E11.00716
G1 X120.265 Y105.286 E11.03836
G1 X120.2 Y106.144 E11.07843
G1 X119.816 Y108.568 E11.19271
G1 X119.64 Y109.32 E11.22867
G1 X119.439 Y109.962 E11.25999
G1 X119.114 Y110.762 E11.3002
G1 X118.458 Y112.061 E11.36796
G1 X117.967 Y113.009 E11.41768
G1 X117.58 Y113.643 E11.45226
G1 X117.187 Y114.195 E11.48382
G1 X116.617 Y114.869 E11.52492
G1 X114.885 Y116.599 E11.63891
G1 X114.304 Y117.1 E11.67463
G1 X113.766 Y117.5 E11.70585
G1 X113.011 Y117.969 E11.74723
G1 X110.81 Y119.089 E11.86223
G1 X110.089 Y119.39 E11.89861
G1 X109.461 Y119.6 E11.92944
G1 X108.618 Y119.807 E11.96986
G1 X106.183 Y120.195 E12.08468
G1 X105.384 Y120.261 E12.12201
G1 X104.714 Y120.265 E12.15321
G1 X103.857 Y120.2 E12.19323
G1 X101.436 Y119.817 E12.30736
G1 X100.683 Y119.641 E12.34337
G1 X100.038 Y119.439 E12.37484
G1 X99.22 Y119.105 E12.41598
G1 X97.04 Y117.995 E12.52989
G1 X96.381 Y117.596 E12.56577
G1 X95.82 Y117.198 E12.5978
G1 X95.141 Y116.626 E12.63914
G1 X93.402 Y114.887 E12.75365
G1 X92.899 Y114.303 E12.78954
G1 X92.502 Y113.769 E12.82053
G1 X92.034 Y113.016 E12.86181
G1 X90.906 Y110.802 E12.97751
G1 X90.598 Y110.062 E13.01483
G1 X90.394 Y109.445 E13.04509
G1 X90.193 Y108.62 E13.08463
G1 X89.805 Y106.187 E13.19936
G1 X89.739 Y105.386 E13.23678
G1 X89.735 Y104.713 E13.26812
G1 X89.8 Y103.857 E13.30809
G1 X90.184 Y101.431 E13.42246
G1 X90.362 Y100.674 E13.45867
G1 X90.564 Y100.031 E13.49006
G1 X90.888 Y99.234 E13.53012
G1 X91.542 Y97.939 E13.59767
G1 X92.033 Y96.991 E13.64738
G1 X92.42 Y96.357 E13.68197
G1 X92.813 Y95.805 E13.71352
G1 X93.384 Y95.13 E13.75469
G1 X95.127 Y93.39 E13.86937
M204 S3000
M205 X10 Y10
G1 F2400 E7.86937
;MESH:Single Cogwheel Display.stl
G0 F3000 X98.694 Y96.406
G0 X99.888 Y99.429
M204 S1800
M205 X8 Y8
;TYPE:WALL-OUTER
G1 F2400 E13.86937
G1 F1034.5 X99.402 Y99.897 E13.91493
M204 S3000
M205 X10 Y10
G0 F3000 X99.298 Y99.964
G0 X98.307 Y100.479
G0 X98.241 Y100.569
M204 S1800
M205 X8 Y8
G1 F1066 X97.728 Y100.198 E13.95641
G1 F1079.7 X97.443 Y99.855 E13.98526
G1 X97.19 Y99.406 E14.0186
G1 X97.268 Y99.298 E14.02722
G1 X97.711 Y99.382 E14.05638
G1 X98.113 Y99.529 E14.08407
G1 F1066 X98.697 Y99.941 E14.1309
G1 F1052.6 X99.045 Y100.006 E14.15439
G1 F1051.3 X99.402 Y99.897 E14.17919
G1 X99.047 Y100.247 E14.21231
G1 F1050 X98.385 Y101.329 E14.29669
G1 X98.433 Y101.103 E14.31206
G1 F1052.6 X98.405 Y100.905 E14.32533
G1 X98.241 Y100.569 E14.35014
M204 S3000
M205 X10 Y10
G0 F3000 X98.328 Y100.748
G0 X98.385 Y101.329
M204 S1800
M205 X8 Y8
G1 F1072.8 X98.075 Y101.875 E14.39102
M204 S3000
M205 X10 Y10
G0 F3000 X97.936 Y102.029
G0 X97.271 Y102.78
G0 X97.238 Y102.882
M204 S1800
M205 X8 Y8
G1 F1068.7 X96.598 Y102.679 E14.4349
G1 F1079.7 X96.229 Y102.448 E14.46306
G1 X95.844 Y102.093 E14.49694
G1 X95.885 Y101.967 E14.50551
G1 X96.335 Y101.911 E14.53485
G1 X96.764 Y101.926 E14.56262
G1 F1068.7 X97.449 Y102.135 E14.60942
G1 F1056.6 X97.686 Y102.117 E14.62513
G1 F1063.3 X97.873 Y102.04 E14.63842
G1 F1085.3 X98.075 Y101.875 E14.6552
G1 F1090.9 X97.962 Y102.077 E14.67002
G1 F1082.5 X97.561 Y103.554 E14.76878
G1 F1074.2 X97.531 Y103.32 E14.78412
G1 F1061.9 X97.407 Y103.058 E14.80318
G1 F1056.6 X97.238 Y102.882 E14.81931
M204 S3000
M205 X10 Y10
G0 F3000 X97.376 Y103.026
G0 X97.561 Y103.554
M204 S1800
M205 X8 Y8
G1 F1108.2 X97.459 Y104.074 E14.85271
M204 S3000
M205 X10 Y10
G0 F3000 X97.398 Y104.33
G0 X96.974 Y105.292
G0 X96.931 Y105.388
M204 S1800
M205 X8 Y8
G1 F1063.3 X96.297 Y105.39 E14.89436
G1 F1076.9 X95.868 Y105.281 E14.92306
G1 X95.394 Y105.064 E14.95688
G1 X95.394 Y104.933 E14.96537
G1 X95.802 Y104.739 E14.99467
G1 X96.212 Y104.623 E15.02231
G1 F1063.3 X96.932 Y104.613 E15.06961
G1 F1050 X97.157 Y104.518 E15.08585
G1 X97.312 Y104.394 E15.09906
G1 X97.429 Y104.223 E15.11284
G1 F1052.6 X97.431 Y105.562 E15.20169
G1 F1095.2 X97.46 Y105.924 E15.22485
G1 X97.306 Y105.604 E15.2475
G1 F1052.6 X97.155 Y105.481 E15.26042
G1 F1050 X96.931 Y105.388 E15.27656
M204 S3000
M205 X10 Y10
G0 F3000 X97.115 Y105.464
G0 X97.46 Y105.924
M204 S1800
M205 X8 Y8
G1 F1111.1 X97.575 Y106.525 E15.31502
M204 S3000
M205 X10 Y10
G0 F3000 X97.202 Y107.125
M204 S1800
M205 X8 Y8
G1 F1051.3 X97.486 Y106.829 E15.34227
G1 F1060.6 X97.569 Y106.544 E15.36182
G1 F1072.8 X97.959 Y107.939 E15.45613
G1 F1088.1 X98.035 Y108.091 E15.46704
G1 F1085.3 X97.869 Y107.959 E15.48069
G1 F1060.6 X97.683 Y107.881 E15.49397
G1 F1050 X97.441 Y107.863 E15.51011
G1 F1066 X96.83 Y108.062 E15.55222
G1 F1081.1 X96.406 Y108.092 E15.57968
G1 X95.884 Y108.031 E15.61363
G1 X95.842 Y107.903 E15.62234
G1 X96.172 Y107.594 E15.65155
G1 X96.53 Y107.354 E15.67939
G1 F1066 X97.202 Y107.125 E15.72591
M204 S3000
M205 X10 Y10
G0 F3000 X97.013 Y107.189
G0 X97.038 Y107.289
G0 X97.927 Y107.948
G0 X98.035 Y108.091
M204 S1800
M205 X8 Y8
G1 F1114.1 X98.104 Y108.185 E15.73322
G1 F1096.6 X98.396 Y108.706 E15.77126
M204 S3000
M205 X10 Y10
G0 F3000 X98.449 Y108.846
G0 X98.668 Y109.956
G0 X98.69 Y110.063
M204 S1800
M205 X8 Y8
G1 F1067.3 X98.18 Y110.436 E15.81261
G1 F1078.3 X97.775 Y110.597 E15.84084
G1 X97.266 Y110.7 E15.87448
G1 X97.188 Y110.591 E15.88316
G1 X97.404 Y110.198 E15.91221
G1 X97.674 Y109.854 E15.94053
G1 F1067.3 X98.234 Y109.435 E15.9863
G1 F1055.3 X98.403 Y109.094 E16.01149
G1 F1057.9 X98.429 Y108.896 E16.02467
G1 F1063.3 X98.396 Y108.706 E16.03734
G1 F1060.6 X99.045 Y109.782 E16.12009
G1 F1068.7 X99.444 Y110.157 E16.15588
G1 F1076.9 X99.292 Y110.065 E16.1674
G1 F1063.3 X99.056 Y109.996 E16.18356
G1 F1055.3 X98.69 Y110.063 E16.20818
M204 S3000
M205 X10 Y10
G0 F3000 X98.886 Y110.027
G0 X99.444 Y110.157
M204 S1800
M205 X8 Y8
G1 F1070.1 X99.839 Y110.538 E16.24401
M204 S3000
M205 X10 Y10
G0 F3000 X99.929 Y111.321
M204 S1800
M205 X8 Y8
G1 F1064.6 X99.993 Y111.062 E16.26151
G1 F1063.3 X99.939 Y110.707 E16.2851
G1 F1060.6 X99.839 Y110.538 E16.29803
G1 F1059.3 X100.593 Y111.238 E16.36587
G1 F1056.6 X101.268 Y111.592 E16.41625
G1 F1055.3 X101.102 Y111.569 E16.42734
G1 F1061.9 X100.907 Y111.601 E16.44034
G1 F1064.6 X100.557 Y111.776 E16.46601
G1 F1071.4 X100.198 Y112.272 E16.50593
G1 F1078.3 X99.855 Y112.557 E16.53481
G1 X99.407 Y112.81 E16.56814
G1 X99.298 Y112.731 E16.57686
G1 X99.381 Y112.293 E16.60574
G1 X99.529 Y111.887 E16.63373
G1 F1071.4 X99.929 Y111.321 E16.67891
M204 S3000
M205 X10 Y10
G0 F3000 X99.814 Y111.484
G0 X99.891 Y111.548
G0 X101.153 Y111.555
G0 X101.268 Y111.592
M204 S1800
M205 X8 Y8
G1 F1057.9 X101.8 Y111.862 E16.7183
M204 S3000
M205 X10 Y10
G0 F3000 X102.132 Y112.572
M204 S1800
M205 X8 Y8
G1 F1060.6 X102.115 Y112.317 E16.73513
G1 F1061.9 X102.045 Y112.129 E16.74832
G1 F1063.3 X101.8 Y111.862 E16.77213
G1 X102.441 Y112.196 E16.81961
G1 F1051.3 X103.45 Y112.409 E16.88812
G1 F1048.7 X103.178 Y112.512 E16.90749
G1 F1059.3 X102.87 Y112.811 E16.93579
G1 F1070.1 X102.679 Y113.402 E16.97634
G1 F1079.7 X102.448 Y113.771 E17.0045
G1 X102.093 Y114.156 E17.03838
G1 X101.967 Y114.115 E17.04695
G1 X101.91 Y113.661 E17.07655
G1 X101.925 Y113.235 E17.10412
G1 F1070.1 X102.132 Y112.572 E17.14946
M204 S3000
M205 X10 Y10
G0 F3000 X102.073 Y112.762
G0 X102.168 Y112.799
G0 X103.236 Y112.415
G0 X103.45 Y112.409
M204 S1800
M205 X8 Y8
G1 F1061.9 X104.093 Y112.527 E17.19246
M204 S3000
M205 X10 Y10
G0 F3000 X104.327 Y112.612
G0 X105.29 Y113.031
G0 X105.388 Y113.075
M204 S1800
M205 X8 Y8
G1 F1066 X105.39 Y113.703 E17.23361
G1 F1076.9 X105.281 Y114.132 E17.26231
G1 X105.064 Y114.606 E17.29612
G1 X104.933 Y114.606 E17.30462
G1 X104.74 Y114.197 E17.33395
G1 X104.624 Y113.79 E17.3614
G1 F1066 X104.613 Y113.073 E17.40839
G1 F1054 X104.465 Y112.762 E17.43121
G1 F1063.3 X104.251 Y112.593 E17.44912
G1 F1079.7 X104.093 Y112.527 E17.4602
G1 F1070.1 X104.53 Y112.614 E17.48928
G1 F1059.3 X105.91 Y112.518 E17.5805
G1 X105.605 Y112.693 E17.60369
G1 F1055.3 X105.483 Y112.846 E17.61664
G1 F1054 X105.388 Y113.075 E17.63307
M204 S3000
M205 X10 Y10
G0 F3000 X105.464 Y112.891
G0 X105.91 Y112.518
M204 S1800
M205 X8 Y8
G1 F1090.9 X106.495 Y112.457 E17.67073
M204 S3000
M205 X10 Y10
G0 F3000 X107.124 Y112.793
M204 S1800
M205 X8 Y8
G1 F1048.7 X106.855 Y112.537 E17.69546
G1 F1082.5 X106.509 Y112.458 E17.71836
G1 X106.889 Y112.359 E17.7437
G1 F1061.9 X108.166 Y111.906 E17.83281
G1 F1063.3 X107.953 Y112.126 E17.85293
G1 F1050 X107.88 Y112.317 E17.86653
G1 F1048.7 X107.862 Y112.555 E17.88243
G1 F1064.6 X108.062 Y113.17 E17.92486
G1 F1081.1 X108.092 Y113.594 E17.95232
G1 X108.031 Y114.116 E17.98627
G1 X107.903 Y114.158 E17.99498
G1 X107.594 Y113.828 E18.02418
G1 X107.354 Y113.47 E18.05203
G1 F1064.6 X107.124 Y112.793 E18.09894
M204 S3000
M205 X10 Y10
G0 F3000 X107.188 Y112.982
G0 X107.288 Y112.957
G0 X108.006 Y111.996
G0 X108.207 Y111.873
M204 S1800
M205 X8 Y8
G1 F1106.7 X108.681 Y111.638 E18.13233
M204 S3000
M205 X10 Y10
G0 F3000 X109.429 Y111.756
M204 S1800
M205 X8 Y8
G1 F1048.7 X109.223 Y111.631 E18.14838
G1 F1051.3 X109.029 Y111.579 E18.16172
G1 F1079.7 X108.747 Y111.619 E18.18015
G1 F1100.9 X110.129 Y110.636 E18.28774
G1 F1079.7 X110.015 Y110.869 E18.30452
G1 F1056.6 X110.001 Y111.064 E18.31745
G1 F1048.7 X110.056 Y111.3 E18.33359
G1 F1064.6 X110.436 Y111.82 E18.37584
G1 F1079.7 X110.599 Y112.229 E18.40432
G1 X110.7 Y112.733 E18.43757
G1 X110.591 Y112.813 E18.44632
G1 X110.201 Y112.598 E18.47513
G1 X109.853 Y112.325 E18.50374
G1 F1064.6 X109.429 Y111.756 E18.5503
M204 S3000
M205 X10 Y10
G0 F3000 X109.548 Y111.916
G0 X109.636 Y111.861
G0 X110.004 Y110.773
G0 X110.15 Y110.593
M204 S1800
M205 X8 Y8
G1 F1106.7 X110.543 Y110.166 E18.58692
M204 S3000
M205 X10 Y10
