;FLAVOR:Marlin
;TIME:610
;Filament used: 0.371393m
;Layer height: 0.2
;MINX:48.213
;MINY:93.082
;MINZ:0.2
;MAXX:161.8
;MAXY:116.889
;MAXZ:2.275
;TARGET_MACHINE.NAME:Anycubic i3 Mega
;Generated with Cura_SteamEngine 5.7.0-alpha.0
M140 S60
M105
M190 S60
M104 S200
M105
M109 S200
M82 ;absolute extrusion mode
G21 ;metric values
G90 ;absolute positioning
M82 ;set extruder to absolute mode
M107 ;start with the fan off
G28 X0 Y0 ;move X/Y to min endstops
G28 Z0 ;move Z to min endstops
G1 Z15.0 F100 ;move the platform down 15mm
G92 E0 ;zero the extruded length
G1 F200 E3 ;extrude 3mm of feed stock
G92 E0 ;zero the extruded length again
G1 F100
G0 Y20 F100
M117 Printing...
G5
G92 E0
G92 E0
G1 F2400 E-6
;LAYER_COUNT:11
;LAYER:0
M107
M204 S3000
M205 X10 Y10
G1 F600 Z0.275
G0 F3000 X52.972 Y94.141 Z0.275
M204 S1800
M205 X8 Y8
;TYPE:SKIRT
G1 F600 Z0.2
G1 F2400 E0
G1 X53.757 Y93.802 E0.03982
G1 X54.458 Y93.6 E0.07379
G1 X55.525 Y93.446 E0.12398
G1 X57.48 Y93.335 E0.21516
G1 X61.699 Y93.201 E0.41172
G1 X64.984 Y93.164 E0.56469
G1 X66.282 Y93.135 E0.62515
G1 X67.286 Y93.139 E0.6719
G1 X68.591 Y93.164 E0.73267
G1 X70.952 Y93.146 E0.84262
G1 X71.92 Y93.129 E0.8877
G1 X75.514 Y93.147 E1.05505
G1 X77.363 Y93.177 E1.14116
G1 X80.936 Y93.126 E1.30755
G1 X84.174 Y93.203 E1.45837
G1 X86.762 Y93.189 E1.57888
G1 X87.58 Y93.161 E1.61699
G1 X89.223 Y93.125 E1.69351
G1 X90.929 Y93.181 E1.77299
G1 X91.166 Y93.176 E1.78403
G1 X92.48 Y93.216 E1.84524
G1 X93.609 Y93.234 E1.89782
G1 X93.775 Y93.227 E1.90556
G1 X95.179 Y93.238 E1.97094
G1 X97.84 Y93.185 E2.09487
G1 X98.933 Y93.132 E2.14582
G1 X100.015 Y93.102 E2.19623
G1 X102.878 Y93.129 E2.32954
G1 X104.36 Y93.103 E2.39856
G1 X105.109 Y93.102 E2.43344
G1 X105.845 Y93.116 E2.46772
G1 X108.737 Y93.113 E2.60238
G1 X109.957 Y93.132 E2.6592
G1 X111.587 Y93.132 E2.7351
G1 X114.064 Y93.151 E2.85044
G1 X118.137 Y93.101 E3.04011
G1 X119.04 Y93.114 E3.08216
G1 X121.497 Y93.118 E3.19657
G1 X122.245 Y93.111 E3.2314
G1 X124.651 Y93.128 E3.34344
G1 X125.476 Y93.157 E3.38188
G1 X128.194 Y93.221 E3.50847
G1 X131.949 Y93.182 E3.68333
G1 X132.951 Y93.161 E3.73
G1 X133.668 Y93.175 E3.76339
G1 X137.66 Y93.159 E3.94928
G1 X139.441 Y93.116 E4.03223
G1 X140.905 Y93.102 E4.1004
G1 X141.837 Y93.109 E4.1438
G1 X143.811 Y93.095 E4.23572
G1 X144.639 Y93.106 E4.27428
G1 X148.09 Y93.082 E4.43498
G1 X151.293 Y93.134 E4.58414
G1 X152.544 Y93.123 E4.6424
G1 X153.6 Y93.204 E4.69171
G1 X154.403 Y93.336 E4.72961
G1 X155.194 Y93.525 E4.76748
G1 X155.762 Y93.727 E4.79555
G1 X156.458 Y94.02 E4.83071
G1 X157.304 Y94.458 E4.87507
G1 X158.151 Y94.989 E4.92162
G1 X158.864 Y95.539 E4.96355
G1 X159.469 Y96.13 E5.00293
G1 X160.104 Y96.898 E5.04933
G1 X160.5 Y97.469 E5.08169
G1 X160.908 Y98.158 E5.11898
G1 X161.337 Y99.162 E5.16982
G1 X161.595 Y100.087 E5.21453
G1 X161.703 Y100.704 E5.2437
G1 X161.785 Y101.644 E5.28764
G1 X161.8 Y102.293 E5.31786
G1 X161.713 Y103.197 E5.36015
G1 X161.502 Y104.434 E5.41858
G1 X161.083 Y107.113 E5.54485
G1 X160.641 Y110.683 E5.71235
G1 X160.522 Y111.321 E5.74257
G1 X160.242 Y112.202 E5.78562
G1 X159.938 Y112.853 E5.81907
G1 X159.485 Y113.579 E5.85892
G1 X159.078 Y114.086 E5.88919
G1 X158.414 Y114.73 E5.93226
G1 X157.896 Y115.122 E5.96251
G1 X157.157 Y115.554 E6.00237
G1 X156.342 Y115.892 E6.04345
G1 X155.465 Y116.12 E6.08565
G1 X153.933 Y116.384 E6.15804
G1 X153.347 Y116.47 E6.18562
G1 X152.764 Y116.525 E6.21288
G1 X151.058 Y116.6 E6.2924
G1 X150.929 Y116.614 E6.29844
G1 X150.023 Y116.648 E6.34066
G1 X146.58 Y116.884 E6.50135
G1 X145.768 Y116.887 E6.53916
G1 X144.797 Y116.829 E6.58446
G1 X143.852 Y116.76 E6.62858
G1 X141.202 Y116.646 E6.75209
G1 X138.58 Y116.606 E6.87419
G1 X135.882 Y116.641 E6.99983
G1 X131.148 Y116.869 E7.22053
G1 X129.696 Y116.889 E7.28814
G1 X128.949 Y116.863 E7.32295
G1 X127.75 Y116.778 E7.37892
G1 X125.141 Y116.628 E7.5006
G1 X122.442 Y116.552 E7.62633
G1 X119.835 Y116.552 E7.74772
G1 X117.131 Y116.629 E7.87368
G1 X114.909 Y116.749 E7.9773
G1 X113.59 Y116.832 E8.03884
G1 X112.415 Y116.852 E8.09356
G1 X111.912 Y116.837 E8.11699
G1 X109.798 Y116.673 E8.21573
G1 X107.093 Y116.529 E8.34186
G1 X104.465 Y116.465 E8.46427
G1 X101.827 Y116.475 E8.5871
G1 X100.459 Y116.513 E8.65083
G1 X98.268 Y116.534 E8.75286
G1 X94.187 Y116.672 E8.94299
G1 X92.492 Y116.684 E9.02192
G1 X89.778 Y116.763 E9.14835
G1 X88.359 Y116.842 E9.21453
G1 X87.628 Y116.867 E9.24859
G1 X85.879 Y116.889 E9.33003
G1 X83.774 Y116.753 E9.42825
G1 X82.938 Y116.69 E9.46729
G1 X80.94 Y116.588 E9.56045
G1 X79.086 Y116.523 E9.64683
G1 X76.413 Y116.466 E9.77133
G1 X73.8 Y116.483 E9.893
G1 X71.095 Y116.579 E10.01904
G1 X68.454 Y116.748 E10.14226
G1 X67.481 Y116.825 E10.18771
G1 X65.761 Y116.85 E10.26781
G1 X64.758 Y116.777 E10.31464
G1 X63.499 Y116.669 E10.37348
G1 X60.835 Y116.52 E10.49772
G1 X58.667 Y116.453 E10.59872
G1 X57.127 Y116.423 E10.67044
G1 X55.931 Y116.378 E10.72617
G1 X55.032 Y116.296 E10.76821
G1 X54.391 Y116.191 E10.79845
G1 X53.501 Y115.928 E10.84167
G1 X52.783 Y115.607 E10.87829
G1 X52.101 Y115.194 E10.91541
G1 X51.41 Y114.647 E10.95645
G1 X50.851 Y114.083 E10.99343
G1 X50.289 Y113.345 E11.03662
G1 X49.899 Y112.663 E11.0732
G1 X49.619 Y111.997 E11.10684
G1 X49.371 Y111.113 E11.1496
G1 X48.906 Y108.814 E11.25881
G1 X48.327 Y106.258 E11.38085
G1 X48.225 Y105.52 E11.41554
G1 X48.213 Y104.592 E11.45875
G1 X48.317 Y103.719 E11.49969
G1 X48.838 Y101.549 E11.60361
G1 X49.3 Y99.482 E11.70223
G1 X49.502 Y98.536 E11.74727
G1 X49.676 Y97.91 E11.77753
G1 X50.031 Y97.056 E11.82059
G1 X50.388 Y96.436 E11.85391
G1 X50.86 Y95.803 E11.89067
G1 X51.466 Y95.176 E11.93128
G1 X52.146 Y94.636 E11.97171
G1 X52.972 Y94.141 E12.01655
M204 S3000
M205 X10 Y10
G0 F3000 X53.196 Y94.654
M204 S1800
M205 X8 Y8
G1 F2400 X53.917 Y94.339 E12.05319
G1 X54.539 Y94.154 E12.0834
G1 X55.557 Y94.005 E12.13131
G1 X57.498 Y93.895 E12.22184
G1 X61.705 Y93.761 E12.41783
G1 X64.997 Y93.724 E12.57113
G1 X66.28 Y93.695 E12.63089
G1 X67.275 Y93.699 E12.67722
G1 X68.584 Y93.724 E12.73818
G1 X70.962 Y93.706 E12.84892
G1 X71.917 Y93.689 E12.89339
G1 X75.505 Y93.707 E13.06047
G1 X77.362 Y93.737 E13.14695
G1 X80.923 Y93.686 E13.31278
G1 X84.164 Y93.763 E13.46374
G1 X86.781 Y93.749 E13.5856
G1 X87.593 Y93.721 E13.62343
G1 X89.204 Y93.685 E13.69846
G1 X90.925 Y93.742 E13.77864
G1 X91.149 Y93.736 E13.78908
G1 X92.463 Y93.776 E13.85029
G1 X93.607 Y93.794 E13.90357
G1 X93.771 Y93.787 E13.91121
G1 X95.186 Y93.798 E13.9771
G1 X97.851 Y93.745 E14.10122
G1 X98.949 Y93.692 E14.15241
G1 X100.01 Y93.662 E14.20183
G1 X102.883 Y93.689 E14.33562
G1 X104.361 Y93.663 E14.40445
G1 X105.098 Y93.662 E14.43877
G1 X105.835 Y93.676 E14.47309
G1 X108.728 Y93.673 E14.6078
G1 X109.948 Y93.692 E14.66462
G1 X111.583 Y93.692 E14.74075
G1 X114.067 Y93.711 E14.85642
G1 X118.129 Y93.661 E15.04558
G1 X119.032 Y93.674 E15.08763
G1 X121.501 Y93.678 E15.20259
G1 X122.241 Y93.671 E15.23705
G1 X124.631 Y93.688 E15.34835
G1 X125.456 Y93.717 E15.38678
G1 X128.187 Y93.781 E15.51399
G1 X131.961 Y93.742 E15.68973
G1 X132.94 Y93.721 E15.73533
G1 X133.659 Y93.735 E15.76881
G1 X137.674 Y93.719 E15.95577
G1 X139.446 Y93.676 E16.0383
G1 X140.901 Y93.662 E16.10606
G1 X141.837 Y93.669 E16.14964
G1 X143.804 Y93.655 E16.24124
G1 X144.636 Y93.666 E16.27998
G1 X148.081 Y93.642 E16.4404
G1 X151.289 Y93.694 E16.5898
G1 X152.549 Y93.683 E16.64847
G1 X153.509 Y93.757 E16.6933
G1 X154.312 Y93.889 E16.7312
G1 X155.006 Y94.053 E16.7644
G1 X155.574 Y94.255 E16.79247
G1 X156.24 Y94.536 E16.82613
G1 X157.008 Y94.933 E16.86639
G1 X157.811 Y95.434 E16.91046
G1 X158.474 Y95.941 E16.94933
G1 X159.038 Y96.488 E16.98591
G1 X159.644 Y97.218 E17.03009
G1 X160.02 Y97.758 E17.06073
G1 X160.394 Y98.38 E17.09452
G1 X160.798 Y99.314 E17.14191
G1 X161.043 Y100.184 E17.184
G1 X161.151 Y100.801 E17.21316
G1 X161.225 Y101.657 E17.25317
G1 X161.24 Y102.306 E17.2834
G1 X161.161 Y103.103 E17.32069
G1 X160.95 Y104.34 E17.37912
G1 X160.527 Y107.044 E17.50656
G1 X160.09 Y110.58 E17.67247
G1 X159.971 Y111.218 E17.70269
G1 X159.733 Y111.968 E17.73933
G1 X159.461 Y112.559 E17.76962
G1 X159.048 Y113.228 E17.80623
G1 X158.641 Y113.735 E17.83651
G1 X158.076 Y114.283 E17.87316
G1 X157.558 Y114.675 E17.9034
G1 X156.939 Y115.038 E17.93682
G1 X156.201 Y115.35 E17.97413
G1 X155.324 Y115.578 E18.01632
G1 X153.851 Y115.83 E18.08591
G1 X153.294 Y115.912 E18.11212
G1 X152.711 Y115.967 E18.13939
G1 X151.014 Y116.042 E18.21849
G1 X150.908 Y116.054 E18.22345
G1 X149.997 Y116.088 E18.2659
G1 X146.542 Y116.325 E18.42716
G1 X145.801 Y116.328 E18.46167
G1 X144.838 Y116.271 E18.50659
G1 X143.884 Y116.201 E18.55113
G1 X141.211 Y116.086 E18.67571
G1 X138.582 Y116.046 E18.79814
G1 X135.875 Y116.081 E18.9242
G1 X131.121 Y116.31 E19.14582
G1 X129.715 Y116.329 E19.2113
G1 X128.989 Y116.304 E19.24512
G1 X127.79 Y116.219 E19.30109
G1 X125.157 Y116.068 E19.4239
G1 X122.458 Y115.992 E19.54963
G1 X119.819 Y115.992 E19.67251
G1 X117.115 Y116.069 E19.79847
G1 X114.874 Y116.19 E19.90297
G1 X113.58 Y116.272 E19.96335
G1 X112.432 Y116.292 E20.01681
G1 X111.929 Y116.277 E20.04024
G1 X109.828 Y116.114 E20.13837
G1 X107.107 Y115.969 E20.26525
G1 X104.477 Y115.905 E20.38775
G1 X101.811 Y115.915 E20.51189
G1 X100.454 Y115.953 E20.5751
G1 X98.249 Y115.974 E20.67778
G1 X94.183 Y116.112 E20.86722
G1 X92.476 Y116.124 E20.94671
G1 X89.762 Y116.203 E21.07314
G1 X88.34 Y116.282 E21.13945
G1 X87.62 Y116.307 E21.173
G1 X85.917 Y116.33 E21.2523
G1 X83.908 Y116.195 E21.34606
G1 X83.783 Y116.193 E21.35188
G1 X82.97 Y116.131 E21.38985
G1 X80.96 Y116.028 E21.48357
G1 X79.106 Y115.963 E21.56995
G1 X76.421 Y115.906 E21.695
G1 X73.78 Y115.923 E21.81798
G1 X71.075 Y116.019 E21.94402
G1 X68.418 Y116.189 E22.06799
G1 X67.472 Y116.265 E22.11218
G1 X65.801 Y116.291 E22.19
G1 X64.806 Y116.219 E22.23645
G1 X63.545 Y116.111 E22.29539
G1 X60.852 Y115.96 E22.42098
G1 X58.684 Y115.893 E22.52198
G1 X57.148 Y115.863 E22.59352
G1 X55.981 Y115.82 E22.64789
G1 X55.123 Y115.743 E22.68801
G1 X54.482 Y115.638 E22.71825
G1 X53.727 Y115.416 E22.7549
G1 X53.07 Y115.126 E22.78834
G1 X52.449 Y114.755 E22.82202
G1 X51.758 Y114.208 E22.86306
G1 X51.251 Y113.691 E22.89677
G1 X50.774 Y113.065 E22.93342
G1 X50.414 Y112.442 E22.96693
G1 X50.158 Y111.845 E22.99717
G1 X49.92 Y111.002 E23.03796
G1 X49.455 Y108.703 E23.14718
G1 X48.882 Y106.181 E23.26761
G1 X48.78 Y105.443 E23.3023
G1 X48.769 Y104.656 E23.33895
G1 X48.862 Y103.85 E23.37673
G1 X49.383 Y101.68 E23.48064
G1 X49.847 Y99.604 E23.5797
G1 X50.042 Y98.686 E23.6234
G1 X50.216 Y98.06 E23.65365
G1 X50.518 Y97.333 E23.69031
G1 X50.839 Y96.768 E23.72057
G1 X51.265 Y96.19 E23.754
G1 X51.814 Y95.615 E23.79102
G1 X52.494 Y95.075 E23.83145
G1 X53.196 Y94.654 E23.86957
M204 S3000
M205 X10 Y10
G0 F3000 X53.481 Y95.136
M204 S1800
M205 X8 Y8
G1 F2400 X54.077 Y94.876 E23.89984
G1 X54.699 Y94.691 E23.93006
G1 X55.589 Y94.564 E23.97192
G1 X57.516 Y94.455 E24.0618
G1 X61.711 Y94.321 E24.25723
G1 X65.01 Y94.284 E24.41086
G1 X66.278 Y94.255 E24.46992
G1 X67.264 Y94.259 E24.51583
G1 X68.577 Y94.284 E24.57698
G1 X70.972 Y94.266 E24.6885
G1 X71.914 Y94.249 E24.73237
G1 X75.496 Y94.267 E24.89917
G1 X77.361 Y94.297 E24.98602
G1 X80.91 Y94.246 E25.1513
G1 X84.154 Y94.323 E25.30239
G1 X86.8 Y94.309 E25.4256
G1 X87.606 Y94.281 E25.46316
G1 X89.185 Y94.245 E25.5367
G1 X90.925 Y94.303 E25.61777
G1 X91.132 Y94.296 E25.62741
G1 X92.446 Y94.336 E25.68863
G1 X93.605 Y94.354 E25.7426
G1 X93.767 Y94.347 E25.75015
G1 X95.193 Y94.358 E25.81655
G1 X97.862 Y94.305 E25.94086
G1 X98.965 Y94.252 E25.99228
G1 X100.005 Y94.222 E26.04072
G1 X102.888 Y94.249 E26.17497
G1 X104.362 Y94.223 E26.24362
G1 X105.087 Y94.222 E26.27738
G1 X105.825 Y94.236 E26.31175
G1 X108.719 Y94.233 E26.44651
G1 X109.939 Y94.252 E26.50332
G1 X111.579 Y94.252 E26.57969
G1 X114.07 Y94.271 E26.69568
G1 X118.121 Y94.221 E26.88433
G1 X119.024 Y94.234 E26.92638
G1 X121.505 Y94.238 E27.04191
G1 X122.237 Y94.231 E27.07599
G1 X124.611 Y94.248 E27.18654
G1 X125.436 Y94.277 E27.22498
G1 X128.18 Y94.341 E27.35278
G1 X131.973 Y94.302 E27.52941
G1 X132.929 Y94.281 E27.57394
G1 X133.65 Y94.295 E27.60752
G1 X137.688 Y94.279 E27.79554
G1 X139.451 Y94.236 E27.87766
G1 X140.897 Y94.222 E27.945
G1 X141.837 Y94.229 E27.98877
G1 X143.797 Y94.215 E28.08004
G1 X144.633 Y94.226 E28.11897
G1 X148.072 Y94.202 E28.27911
G1 X151.285 Y94.254 E28.42874
G1 X152.554 Y94.243 E28.48783
G1 X153.465 Y94.315 E28.53038
G1 X154.186 Y94.435 E28.56441
G1 X154.819 Y94.581 E28.59466
G1 X155.358 Y94.772 E28.62129
G1 X155.984 Y95.034 E28.65289
G1 X156.713 Y95.409 E28.69106
G1 X157.473 Y95.881 E28.73272
G1 X158.086 Y96.345 E28.76852
G1 X158.608 Y96.847 E28.80224
G1 X159.185 Y97.539 E28.8442
G1 X159.542 Y98.05 E28.87322
G1 X159.881 Y98.605 E28.90351
G1 X160.259 Y99.467 E28.94733
G1 X160.491 Y100.281 E28.98675
G1 X160.599 Y100.898 E29.01591
G1 X160.665 Y101.67 E29.05199
G1 X160.68 Y102.319 E29.08222
G1 X160.609 Y103.009 E29.11452
G1 X160.398 Y104.246 E29.17295
G1 X159.971 Y106.975 E29.30157
G1 X159.539 Y110.477 E29.46587
G1 X159.42 Y111.115 E29.49609
G1 X159.224 Y111.734 E29.52633
G1 X158.952 Y112.325 E29.55662
G1 X158.611 Y112.877 E29.58684
G1 X158.204 Y113.384 E29.61711
G1 X157.738 Y113.836 E29.64734
G1 X157.22 Y114.228 E29.67759
G1 X156.658 Y114.554 E29.70784
G1 X156.06 Y114.808 E29.73809
G1 X155.183 Y115.036 E29.78029
G1 X153.769 Y115.276 E29.84707
G1 X153.212 Y115.358 E29.87329
G1 X152.686 Y115.408 E29.89789
G1 X150.964 Y115.484 E29.97815
G1 X150.887 Y115.494 E29.98177
G1 X149.971 Y115.528 E30.02445
G1 X146.504 Y115.766 E30.18627
G1 X145.834 Y115.769 E30.21747
G1 X144.878 Y115.712 E30.26206
G1 X143.924 Y115.643 E30.3066
G1 X141.219 Y115.526 E30.43267
G1 X138.583 Y115.486 E30.55543
G1 X135.868 Y115.521 E30.68186
G1 X131.094 Y115.751 E30.90442
G1 X129.734 Y115.769 E30.96775
G1 X129.029 Y115.745 E31.0006
G1 X127.83 Y115.66 E31.05657
G1 X125.173 Y115.508 E31.18049
G1 X122.474 Y115.432 E31.30622
G1 X119.803 Y115.432 E31.43059
G1 X117.099 Y115.509 E31.55655
G1 X114.838 Y115.631 E31.66199
G1 X113.57 Y115.712 E31.72115
G1 X112.449 Y115.732 E31.77336
G1 X111.946 Y115.717 E31.79679
G1 X109.858 Y115.555 E31.89431
G1 X107.121 Y115.409 E32.02193
G1 X104.489 Y115.345 E32.14453
G1 X101.795 Y115.355 E32.26997
G1 X100.449 Y115.393 E32.33267
G1 X98.23 Y115.414 E32.436
G1 X94.179 Y115.552 E32.62474
G1 X92.46 Y115.564 E32.70479
G1 X89.746 Y115.643 E32.83122
G1 X88.32 Y115.722 E32.89772
G1 X87.612 Y115.747 E32.93071
G1 X85.955 Y115.771 E33.00787
G1 X83.931 Y115.635 E33.10233
G1 X83.826 Y115.635 E33.10722
G1 X83.002 Y115.572 E33.1457
G1 X80.98 Y115.468 E33.23998
G1 X79.126 Y115.403 E33.32636
G1 X76.429 Y115.346 E33.45197
G1 X73.76 Y115.363 E33.57626
G1 X71.055 Y115.459 E33.70229
G1 X68.382 Y115.63 E33.82701
G1 X67.463 Y115.705 E33.86995
G1 X65.841 Y115.732 E33.94548
G1 X64.854 Y115.661 E33.99156
G1 X63.591 Y115.553 E34.05059
G1 X60.869 Y115.4 E34.17753
G1 X58.701 Y115.333 E34.27853
G1 X57.168 Y115.303 E34.34993
G1 X56.03 Y115.262 E34.40296
G1 X55.214 Y115.19 E34.4411
G1 X54.573 Y115.085 E34.47134
G1 X53.95 Y114.902 E34.50158
G1 X53.354 Y114.643 E34.53184
G1 X52.794 Y114.314 E34.56208
G1 X52.158 Y113.816 E34.5997
G1 X51.651 Y113.299 E34.63341
G1 X51.257 Y112.782 E34.66368
G1 X50.929 Y112.221 E34.69394
G1 X50.673 Y111.624 E34.72419
G1 X50.469 Y110.891 E34.75962
G1 X50.004 Y108.592 E34.86884
G1 X49.437 Y106.104 E34.98766
G1 X49.335 Y105.366 E35.02235
G1 X49.326 Y104.717 E35.05257
G1 X49.407 Y103.98 E35.0871
G1 X49.927 Y101.81 E35.191
G1 X50.395 Y99.72 E35.29073
G1 X50.582 Y98.836 E35.3328
G1 X50.756 Y98.21 E35.36306
G1 X51.005 Y97.61 E35.39331
G1 X51.326 Y97.045 E35.42356
G1 X51.714 Y96.524 E35.45381
G1 X52.162 Y96.054 E35.48405
G1 X52.842 Y95.514 E35.52448
G1 X53.481 Y95.136 E35.55905
M204 S3000
M205 X10 Y10
G1 F2400 E29.55905
;MESH:Letters - Holmes-O-Matic.stl
G0 F3000 X54.826 Y99.959
G0 X55.963 Y103.38
G0 X56.507 Y109.667
M204 S1800
M205 X8 Y8
;TYPE:WALL-OUTER
G1 F2400 E35.55905
G1 F1576 X56.338 Y109.739 E35.56719
G1 F1985.8 X55.857 Y109.771 E35.58415
M204 S3000
M205 X10 Y10
G1 F2400 E29.58415
G0 F3000 X56.875 Y109.222
G0 X56.965 Y105.082
G0 X55.946 Y104.438
G0 X55.353 Y105.095
M204 S1800
M205 X8 Y8
