;FLAVOR:Marlin
;TIME:4029
;Filament used: 4.94685m
;Layer height: 0.2
;MINX:84.106
;MINY:54.112
;MINZ:0.2
;MAXX:155.884
;MAXY:125.903
;MAXZ:12.075
;TARGET_MACHINE.NAME:Anycubic i3 Mega
;Generated with Cura_SteamEngine 5.7.0-alpha.0
M140 S60
M105
M190 S60
M104 S200
M105
M109 S200
M82 ;absolute extrusion mode
G21 ;metric values
G90 ;absolute positioning
M82 ;set extruder to absolute mode
M107 ;start with the fan off
G28 X0 Y0 ;move X/Y to min endstops
G28 Z0 ;move Z to min endstops
G1 Z15.0 F100 ;move the platform down 15mm
G92 E0 ;zero the extruded length
G1 F200 E3 ;extrude 3mm of feed stock
G92 E0 ;zero the extruded length again
G1 F100
G0 Y20 F100
M117 Printing...
G5
G92 E0
G92 E0
G1 F2400 E-6
;LAYER_COUNT:60
;LAYER:0
M107
M204 S3000
M205 X10 Y10
G1 F600 Z0.275
G0 F3000 X88.417 Y62.298 Z0.275
M204 S1800
M205 X8 Y8
;TYPE:SKIRT
G1 F600 Z0.2
G1 F2400 E0
G1 X89.303 Y61.326 E0.06124
G1 X90.567 Y59.985 E0.14705
G1 X91.106 Y59.43 E0.18308
G1 X91.671 Y58.914 E0.21871
G1 X92.859 Y58.089 E0.28605
G1 X94.486 Y57.018 E0.37675
G1 X95.087 Y56.638 E0.40986
G1 X95.896 Y56.204 E0.45261
G1 X97.096 Y55.744 E0.51245
G1 X98.91 Y55.082 E0.60237
G1 X99.558 Y54.858 E0.6343
G1 X100.475 Y54.611 E0.67852
G1 X101.678 Y54.449 E0.73504
G1 X103.649 Y54.219 E0.82744
G1 X104.388 Y54.144 E0.86203
G1 X105.149 Y54.112 E0.8975
G1 X106.609 Y54.248 E0.96577
G1 X109.337 Y54.568 E1.09367
G1 X112 Y54.833 E1.21828
G1 X114.695 Y55.027 E1.3441
G1 X117.305 Y55.138 E1.46574
G1 X119.957 Y55.177 E1.58924
G1 X122.585 Y55.14 E1.71163
G1 X125.238 Y55.029 E1.83527
G1 X127.923 Y54.84 E1.9606
G1 X130.535 Y54.583 E2.08282
G1 X133.649 Y54.219 E2.2288
G1 X134.387 Y54.144 E2.26335
G1 X135.148 Y54.112 E2.29881
G1 X136.607 Y54.248 E2.36704
G1 X138.446 Y54.463 E2.45326
G1 X139.225 Y54.567 E2.48985
G1 X139.972 Y54.713 E2.5253
G1 X141.388 Y55.19 E2.59487
G1 X143.124 Y55.825 E2.68095
G1 X143.808 Y56.087 E2.71505
G1 X144.665 Y56.486 E2.75907
G1 X145.757 Y57.179 E2.81929
G1 X147.376 Y58.246 E2.90958
G1 X147.966 Y58.65 E2.94288
G1 X148.635 Y59.175 E2.98247
G1 X149.612 Y60.173 E3.04751
G1 X150.787 Y61.422 E3.12736
G1 X151.374 Y62.066 E3.16793
G1 X151.966 Y62.814 E3.21235
G1 X152.587 Y63.849 E3.26855
G1 X153.558 Y65.534 E3.35911
G1 X153.922 Y66.189 E3.394
G1 X154.324 Y67.048 E3.43816
G1 X154.71 Y68.263 E3.49753
G1 X155.26 Y70.106 E3.58708
G1 X155.444 Y70.752 E3.61836
G1 X155.624 Y71.568 E3.65727
G1 X155.742 Y73.004 E3.72436
G1 X155.852 Y74.911 E3.81331
G1 X155.884 Y75.706 E3.85036
G1 X155.84 Y76.695 E3.89645
G1 X155.664 Y78.074 E3.96119
G1 X155.389 Y80.458 E4.07293
G1 X155.155 Y83.135 E4.19806
G1 X155.001 Y85.739 E4.31952
G1 X154.919 Y88.441 E4.4454
G1 X154.912 Y91.082 E4.56838
G1 X154.981 Y93.721 E4.6913
G1 X155.122 Y96.325 E4.81273
G1 X155.341 Y98.967 E4.93618
G1 X155.64 Y101.672 E5.0629
G1 X155.742 Y103.004 E5.1251
G1 X155.852 Y104.91 E5.214
G1 X155.884 Y105.656 E5.24877
G1 X155.871 Y106.416 E5.28417
G1 X155.652 Y107.862 E5.35227
G1 X155.329 Y109.692 E5.43879
G1 X155.185 Y110.44 E5.47426
G1 X154.964 Y111.284 E5.51489
G1 X154.466 Y112.514 E5.57668
G1 X153.696 Y114.303 E5.66737
G1 X153.406 Y114.948 E5.7003
G1 X152.996 Y115.72 E5.741
G1 X152.202 Y116.835 E5.80474
G1 X151.073 Y118.354 E5.89287
G1 X150.637 Y118.923 E5.92625
G1 X150.003 Y119.639 E5.97078
G1 X149.002 Y120.508 E6.03251
G1 X147.569 Y121.711 E6.11963
G1 X146.995 Y122.178 E6.15408
G1 X146.24 Y122.709 E6.19706
G1 X145.092 Y123.31 E6.2574
G1 X143.403 Y124.16 E6.34545
G1 X142.745 Y124.478 E6.37948
G1 X141.853 Y124.834 E6.4242
G1 X140.69 Y125.13 E6.48008
G1 X138.731 Y125.596 E6.57384
G1 X138.07 Y125.742 E6.60536
G1 X137.202 Y125.875 E6.64625
G1 X135.807 Y125.903 E6.71122
G1 X133.914 Y125.902 E6.79937
G1 X133.129 Y125.888 E6.83593
G1 X132.519 Y125.844 E6.86441
G1 X131.867 Y125.76 E6.89502
G1 X129.263 Y125.465 E7.01705
G1 X126.594 Y125.237 E7.14178
G1 X123.96 Y125.09 E7.26462
G1 X121.287 Y125.014 E7.38914
G1 X118.679 Y125.014 E7.51057
G1 X116.011 Y125.09 E7.63486
G1 X113.36 Y125.239 E7.7585
G1 X110.724 Y125.464 E7.88168
G1 X107.431 Y125.849 E8.03606
G1 X106.852 Y125.886 E8.06308
G1 X105.807 Y125.903 E8.11175
G1 X103.927 Y125.902 E8.19929
G1 X103.251 Y125.892 E8.23077
G1 X102.274 Y125.809 E8.27643
G1 X100.985 Y125.528 E8.33786
G1 X99.146 Y125.091 E8.42587
G1 X98.457 Y124.916 E8.45897
G1 X97.695 Y124.673 E8.49622
G1 X96.401 Y124.06 E8.56289
G1 X94.757 Y123.234 E8.64856
G1 X94.022 Y122.849 E8.6872
G1 X93.248 Y122.37 E8.72958
G1 X92.232 Y121.545 E8.79052
G1 X90.785 Y120.328 E8.87856
G1 X90.219 Y119.835 E8.91351
G1 X89.622 Y119.243 E8.95266
G1 X88.792 Y118.171 E9.01579
G1 X87.657 Y116.645 E9.10435
G1 X87.228 Y116.049 E9.13854
G1 X86.728 Y115.237 E9.18295
G1 X86.202 Y114.07 E9.24255
G1 X85.455 Y112.328 E9.33081
G1 X85.179 Y111.66 E9.36446
G1 X84.918 Y110.902 E9.40179
G1 X84.631 Y109.477 E9.46948
G1 X84.302 Y107.603 E9.55808
G1 X84.19 Y106.903 E9.59109
G1 X84.106 Y105.948 E9.63573
G1 X84.157 Y104.737 E9.69217
G1 X84.269 Y102.835 E9.78088
G1 X84.351 Y101.769 E9.83067
G1 X84.625 Y99.36 E9.94356
G1 X84.856 Y96.688 E10.06845
G1 X85.006 Y94.097 E10.1893
G1 X85.087 Y91.388 E10.3155
G1 X85.091 Y88.752 E10.43824
G1 X85.019 Y86.109 E10.56135
G1 X84.875 Y83.485 E10.68372
G1 X84.65 Y80.808 E10.80882
G1 X84.283 Y77.612 E10.95861
G1 X84.17 Y76.768 E10.99826
G1 X84.118 Y75.661 E11.04987
G1 X84.157 Y74.738 E11.09288
G1 X84.267 Y72.833 E11.18174
G1 X84.322 Y72.078 E11.21699
G1 X84.447 Y71.18 E11.2592
G1 X84.804 Y69.89 E11.32153
G1 X85.354 Y68.052 E11.41086
G1 X85.583 Y67.33 E11.44613
G1 X85.921 Y66.48 E11.48873
G1 X86.557 Y65.331 E11.54988
G1 X87.465 Y63.758 E11.63445
G1 X87.868 Y63.084 E11.67102
G1 X88.417 Y62.298 E11.71566
M204 S3000
M205 X10 Y10
G0 F3000 X88.831 Y62.675
M204 S1800
M205 X8 Y8
G1 F2400 X89.711 Y61.71 E11.77647
G1 X90.969 Y60.375 E11.86189
G1 X91.484 Y59.844 E11.89633
G1 X92.049 Y59.328 E11.93196
G1 X93.167 Y58.557 E11.9952
G1 X94.786 Y57.491 E12.08546
G1 X95.355 Y57.13 E12.11684
G1 X96.096 Y56.727 E12.15612
G1 X97.288 Y56.27 E12.21556
G1 X99.094 Y55.611 E12.30508
G1 X99.706 Y55.398 E12.33525
G1 X100.55 Y55.166 E12.37601
G1 X101.743 Y55.005 E12.43206
G1 X103.706 Y54.776 E12.52409
G1 X104.412 Y54.704 E12.55713
G1 X105.173 Y54.672 E12.5926
G1 X106.544 Y54.804 E12.65674
G1 X109.281 Y55.125 E12.78506
G1 X111.96 Y55.392 E12.91042
G1 X114.655 Y55.585 E13.03623
G1 X117.297 Y55.698 E13.15937
G1 X119.957 Y55.737 E13.28324
G1 X122.608 Y55.7 E13.40669
G1 X125.265 Y55.589 E13.53052
G1 X127.962 Y55.399 E13.65642
G1 X130.599 Y55.139 E13.7798
G1 X133.706 Y54.776 E13.92546
G1 X134.411 Y54.704 E13.95846
G1 X135.172 Y54.672 E13.99393
G1 X136.542 Y54.804 E14.05802
G1 X138.372 Y55.018 E14.14381
G1 X139.118 Y55.117 E14.17885
G1 X139.865 Y55.263 E14.21429
G1 X141.196 Y55.716 E14.27976
G1 X142.924 Y56.348 E14.36544
G1 X143.574 Y56.596 E14.39783
G1 X144.365 Y56.959 E14.43836
G1 X145.449 Y57.647 E14.49814
G1 X147.06 Y58.709 E14.58799
G1 X147.62 Y59.091 E14.61955
G1 X148.289 Y59.616 E14.65915
G1 X149.204 Y60.557 E14.72027
G1 X150.374 Y61.8 E14.79975
G1 X150.937 Y62.416 E14.83861
G1 X151.486 Y63.102 E14.87953
G1 X152.102 Y64.129 E14.93529
G1 X153.069 Y65.807 E15.02547
G1 X153.416 Y66.429 E15.05864
G1 X153.79 Y67.218 E15.09929
G1 X154.173 Y68.423 E15.15817
G1 X154.721 Y70.259 E15.24739
G1 X154.905 Y70.905 E15.27866
G1 X155.077 Y71.688 E15.31599
G1 X155.183 Y73.036 E15.37896
G1 X155.293 Y74.935 E15.46753
G1 X155.325 Y75.682 E15.50234
G1 X155.284 Y76.624 E15.54625
G1 X155.109 Y78.003 E15.61098
G1 X154.831 Y80.409 E15.72376
G1 X154.597 Y83.086 E15.84888
G1 X154.441 Y85.722 E15.97184
G1 X154.359 Y88.424 E16.09772
G1 X154.352 Y91.081 E16.22144
G1 X154.421 Y93.736 E16.34511
G1 X154.564 Y96.371 E16.46798
G1 X154.784 Y99.029 E16.59217
G1 X155.083 Y101.734 E16.7189
G1 X155.183 Y103.036 E16.7797
G1 X155.293 Y104.934 E16.86823
G1 X155.324 Y105.646 E16.90142
G1 X155.311 Y106.406 E16.93681
G1 X155.101 Y107.765 E17.00084
G1 X154.779 Y109.587 E17.087
G1 X154.643 Y110.298 E17.1207
G1 X154.422 Y111.142 E17.16133
G1 X153.952 Y112.292 E17.21918
G1 X153.185 Y114.073 E17.30947
G1 X152.895 Y114.718 E17.3424
G1 X152.54 Y115.395 E17.378
G1 X151.753 Y116.501 E17.4412
G1 X150.628 Y118.013 E17.52896
G1 X150.192 Y118.582 E17.56234
G1 X149.636 Y119.216 E17.6016
G1 X148.642 Y120.079 E17.6629
G1 X147.215 Y121.277 E17.74966
G1 X146.67 Y121.722 E17.78242
G1 X145.98 Y122.213 E17.82185
G1 X144.84 Y122.81 E17.88178
G1 X143.159 Y123.656 E17.9694
G1 X142.501 Y123.974 E18.00343
G1 X141.715 Y124.291 E18.0429
G1 X140.56 Y124.585 E18.09839
G1 X138.609 Y125.049 E18.19177
G1 X137.985 Y125.188 E18.22154
G1 X137.117 Y125.321 E18.26243
G1 X135.807 Y125.343 E18.32344
G1 X133.924 Y125.342 E18.41112
G1 X133.169 Y125.329 E18.44628
G1 X132.559 Y125.285 E18.47476
G1 X131.939 Y125.205 E18.50387
G1 X129.311 Y124.907 E18.62702
G1 X126.64 Y124.679 E18.75185
G1 X123.976 Y124.53 E18.87609
G1 X121.303 Y124.454 E19.00061
G1 X118.663 Y124.454 E19.12354
G1 X115.995 Y124.53 E19.24782
G1 X113.318 Y124.681 E19.37267
G1 X110.674 Y124.906 E19.49623
G1 X107.395 Y125.29 E19.64996
G1 X106.843 Y125.326 E19.67572
G1 X105.807 Y125.343 E19.72396
G1 X103.935 Y125.342 E19.81113
G1 X103.259 Y125.332 E19.84261
G1 X102.393 Y125.262 E19.88307
G1 X101.114 Y124.983 E19.94402
G1 X99.283 Y124.548 E20.03166
G1 X98.627 Y124.382 E20.06316
G1 X97.865 Y124.139 E20.10041
G1 X96.652 Y123.56 E20.16299
G1 X95.016 Y122.738 E20.24825
G1 X94.314 Y122.371 E20.28513
G1 X93.601 Y121.935 E20.32405
G1 X92.592 Y121.116 E20.38456
G1 X91.152 Y119.905 E20.47217
G1 X90.611 Y119.435 E20.50554
G1 X90.065 Y118.9 E20.54114
G1 X89.241 Y117.837 E20.60377
G1 X88.112 Y116.318 E20.69189
G1 X87.683 Y115.722 E20.72609
G1 X87.239 Y115.007 E20.76528
G1 X86.717 Y113.849 E20.82443
G1 X85.973 Y112.114 E20.91233
G1 X85.697 Y111.446 E20.94598
G1 X85.448 Y110.72 E20.98172
G1 X85.183 Y109.38 E21.04533
G1 X84.855 Y107.514 E21.13355
G1 X84.748 Y106.851 E21.16482
G1 X84.666 Y105.971 E21.20597
G1 X84.716 Y104.77 E21.26195
G1 X84.827 Y102.878 E21.3502
G1 X84.907 Y101.832 E21.39904
G1 X85.183 Y99.408 E21.51265
G1 X85.414 Y96.736 E21.63753
G1 X85.566 Y94.114 E21.75983
G1 X85.647 Y91.405 E21.88602
G1 X85.651 Y88.753 E22.00951
G1 X85.579 Y86.094 E22.13337
G1 X85.434 Y83.454 E22.25649
G1 X85.208 Y80.761 E22.38233
G1 X84.839 Y77.548 E22.53292
G1 X84.725 Y76.694 E22.57304
G1 X84.678 Y75.684 E22.62012
G1 X84.716 Y74.77 E22.66272
G1 X84.826 Y72.874 E22.75115
G1 X84.881 Y72.119 E22.7864
G1 X84.987 Y71.329 E22.82351
G1 X85.34 Y70.051 E22.88525
G1 X85.888 Y68.221 E22.9742
G1 X86.105 Y67.534 E23.00775
G1 X86.411 Y66.751 E23.04689
G1 X87.042 Y65.611 E23.10757
G1 X87.946 Y64.045 E23.19176
G1 X88.329 Y63.402 E23.22661
G1 X88.831 Y62.675 E23.26775
M204 S3000
M205 X10 Y10
G0 F3000 X89.245 Y63.052
M204 S1800
M205 X8 Y8
G1 F2400 X90.118 Y62.094 E23.3281
G1 X91.371 Y60.765 E23.41316
G1 X91.862 Y60.258 E23.44602
G1 X92.427 Y59.742 E23.48165
G1 X93.475 Y59.025 E23.54078
G1 X95.087 Y57.963 E23.63066
G1 X95.626 Y57.62 E23.66041
G1 X96.296 Y57.25 E23.69605
G1 X97.48 Y56.796 E23.7551
G1 X99.278 Y56.14 E23.84422
G1 X99.89 Y55.927 E23.87439
G1 X100.625 Y55.721 E23.90994
G1 X101.808 Y55.561 E23.96552
G1 X103.763 Y55.333 E24.05717
G1 X104.436 Y55.264 E24.08867
G1 X105.197 Y55.232 E24.12414
G1 X106.479 Y55.36 E24.18413
G1 X109.225 Y55.682 E24.31288
G1 X111.92 Y55.951 E24.43899
G1 X114.615 Y56.143 E24.5648
G1 X117.289 Y56.258 E24.68943
G1 X119.957 Y56.297 E24.81367
G1 X122.631 Y56.26 E24.9382
G1 X125.292 Y56.149 E25.06221
G1 X128.001 Y55.958 E25.18867
G1 X130.663 Y55.695 E25.31322
G1 X133.763 Y55.333 E25.45855
G1 X134.435 Y55.264 E25.49001
G1 X135.196 Y55.232 E25.52548
G1 X136.477 Y55.36 E25.58542
G1 X138.299 Y55.573 E25.67084
G1 X139.011 Y55.667 E25.70428
G1 X139.758 Y55.813 E25.73972
G1 X141.004 Y56.242 E25.80108
G1 X142.724 Y56.871 E25.88636
G1 X143.374 Y57.119 E25.91876
G1 X144.065 Y57.432 E25.95408
G1 X145.141 Y58.114 E26.0134
G1 X146.745 Y59.172 E26.10287
G1 X147.277 Y59.534 E26.13284
G1 X147.887 Y60.006 E26.16875
G1 X148.796 Y60.941 E26.22947
G1 X149.961 Y62.178 E26.3086
G1 X150.524 Y62.794 E26.34745
G1 X151.006 Y63.39 E26.38315
G1 X151.617 Y64.409 E26.43847
G1 X152.58 Y66.08 E26.52828
G1 X152.927 Y66.702 E26.56144
G1 X153.256 Y67.388 E26.59687
G1 X153.636 Y68.583 E26.65526
G1 X154.182 Y70.412 E26.74414
G1 X154.366 Y71.058 E26.77541
G1 X154.53 Y71.808 E26.81116
G1 X154.624 Y73.069 E26.87004
G1 X154.734 Y74.96 E26.95824
G1 X154.765 Y75.659 E26.99083
G1 X154.728 Y76.554 E27.03254
G1 X154.554 Y77.933 E27.09726
G1 X154.273 Y80.36 E27.21102
G1 X154.039 Y83.037 E27.33615
G1 X153.881 Y85.705 E27.4606
G1 X153.799 Y88.407 E27.58648
G1 X153.792 Y91.08 E27.71094
G1 X153.861 Y93.75 E27.83531
G1 X154.006 Y96.417 E27.95968
G1 X154.227 Y99.091 E28.08462
G1 X154.526 Y101.796 E28.21134
G1 X154.624 Y103.069 E28.27079
G1 X154.734 Y104.959 E28.35895
G1 X154.764 Y105.636 E28.3905
G1 X154.751 Y106.396 E28.4259
G1 X154.55 Y107.667 E28.48582
G1 X154.229 Y109.482 E28.57164
G1 X154.093 Y110.193 E28.60535
G1 X153.904 Y110.93 E28.64078
G1 X153.438 Y112.07 E28.69812
G1 X152.674 Y113.844 E28.78806
G1 X152.399 Y114.458 E28.81939
G1 X152.044 Y115.135 E28.85499
G1 X151.304 Y116.167 E28.91412
G1 X150.183 Y117.673 E29.00154
G1 X149.768 Y118.216 E29.03336
G1 X149.269 Y118.793 E29.06888
G1 X148.282 Y119.65 E29.12975
G1 X146.86 Y120.844 E29.21621
G1 X146.342 Y121.268 E29.24738
G1 X145.72 Y121.717 E29.2831
G1 X144.588 Y122.31 E29.3426
G1 X142.915 Y123.152 E29.42982
G1 X142.288 Y123.456 E29.46226
G1 X141.577 Y123.748 E29.49805
G1 X140.431 Y124.04 E29.55312
G1 X138.487 Y124.502 E29.64616
G1 X137.863 Y124.641 E29.67593
G1 X137.108 Y124.761 E29.71153
G1 X135.807 Y124.783 E29.77212
G1 X133.933 Y124.782 E29.85938
G1 X133.209 Y124.77 E29.89309
G1 X132.63 Y124.729 E29.92012
G1 X132.01 Y124.65 E29.94923
G1 X129.359 Y124.349 E30.07346
G1 X126.686 Y124.121 E30.19838
G1 X123.992 Y123.97 E30.32402
G1 X121.319 Y123.894 E30.44854
G1 X118.647 Y123.894 E30.57296
G1 X115.979 Y123.97 E30.69724
G1 X113.276 Y124.123 E30.8233
G1 X110.624 Y124.348 E30.94724
G1 X107.358 Y124.731 E31.10036
G1 X106.834 Y124.766 E31.12481
G1 X105.807 Y124.783 E31.17264
G1 X103.943 Y124.782 E31.25943
G1 X103.267 Y124.772 E31.29091
G1 X102.512 Y124.715 E31.32617
G1 X101.243 Y124.438 E31.38665
G1 X99.42 Y124.005 E31.4739
G1 X98.764 Y123.839 E31.50541
G1 X98.036 Y123.606 E31.541
G1 X96.903 Y123.06 E31.59957
G1 X95.275 Y122.242 E31.6844
G1 X94.603 Y121.891 E31.71971
G1 X93.954 Y121.5 E31.75499
G1 X92.952 Y120.687 E31.81507
G1 X91.519 Y119.482 E31.90225
G1 X91.003 Y119.035 E31.93404
G1 X90.457 Y118.5 E31.96964
G1 X89.69 Y117.503 E32.02821
G1 X88.566 Y115.991 E32.11594
G1 X88.157 Y115.423 E32.14853
G1 X87.75 Y114.777 E32.18408
G1 X87.232 Y113.628 E32.24277
G1 X86.49 Y111.9 E32.33034
G1 X86.227 Y111.264 E32.36238
G1 X85.978 Y110.538 E32.39812
G1 X85.735 Y109.283 E32.45765
G1 X85.408 Y107.425 E32.54549
G1 X85.301 Y106.762 E32.57676
G1 X85.226 Y105.994 E32.61269
G1 X85.275 Y104.803 E32.6682
G1 X85.385 Y102.92 E32.75603
G1 X85.463 Y101.895 E32.80389
G1 X85.741 Y99.456 E32.9182
G1 X85.972 Y96.784 E33.04308
G1 X86.126 Y94.131 E33.16683
G1 X86.207 Y91.422 E33.29303
G1 X86.211 Y88.754 E33.41726
G1 X86.139 Y86.079 E33.54186
G1 X85.993 Y83.423 E33.66572
G1 X85.766 Y80.714 E33.79231
G1 X85.395 Y77.484 E33.9437
G1 X85.28 Y76.62 E33.98429
G1 X85.238 Y75.707 E34.02684
G1 X85.275 Y74.803 E34.06897
G1 X85.385 Y72.915 E34.15704
G1 X85.44 Y72.16 E34.19229
G1 X85.542 Y71.404 E34.22781
G1 X85.877 Y70.211 E34.28551
G1 X86.422 Y68.389 E34.37406
G1 X86.628 Y67.734 E34.40603
G1 X86.901 Y67.022 E34.44154
G1 X87.527 Y65.891 E34.50173
G1 X88.427 Y64.332 E34.58555
G1 X88.81 Y63.689 E34.6204
G1 X89.245 Y63.052 E34.65632
M204 S3000
M205 X10 Y10
G1 F2400 E28.65632
;MESH:Light Holder (single, new).stl(1)
G0 F3000 X92.902 Y65.871
G0 X93.691 Y66.612
G0 X97.306 Y64.7
M204 S1800
M205 X8 Y8
;TYPE:WALL-INNER
G1 F2400 E34.65632
G1 F958.9 X97.525 Y64.542 E34.67599
G1 F930.2 X98.183 Y64.153 E34.73339
M204 S3000
M205 X10 Y10
G0 F3000 X94.663 Y67.71
M204 S1800
M205 X8 Y8
G1 F1794.9 X94.815 Y67.484 E34.74398
G1 F1690.1 X96.909 Y65.357 E34.86733
G1 F1388.4 X97.326 Y64.683 E34.9072
G1 F1222.7 X96.569 Y64.962 E34.95329
