;FLAVOR:Marlin
;TIME:1537
;Filament used: 1.75956m
;Layer height: 0.2
;MINX:84.106
;MINY:84.112
;MINZ:0.2
;MAXX:125.884
;MAXY:125.903
;MAXZ:15
;TARGET_MACHINE.NAME:Anycubic i3 Mega
;Generated with Cura_SteamEngine 5.7.0-alpha.0
M140 S60
M105
M190 S60
M104 S200
M105
M109 S200
M82 ;absolute extrusion mode
G21 ;metric values
G90 ;absolute positioning
M82 ;set extruder to absolute mode
M107 ;start with the fan off
G28 X0 Y0 ;move X/Y to min endstops
G28 Z0 ;move Z to min endstops
G1 Z15.0 F100 ;move the platform down 15mm
G92 E0 ;zero the extruded length
G1 F200 E3 ;extrude 3mm of feed stock
G92 E0 ;zero the extruded length again
G1 F100
G0 Y20 F100
M117 Printing...
G5
G92 E0
G92 E0
G1 F2400 E-6
;LAYER_COUNT:75
;LAYER:0
M107
M204 S3000
M205 X10 Y10
G1 F600 Z0.275
G0 F3000 X91.106 Y89.43 Z0.275
M204 S1800
M205 X8 Y8
;TYPE:SKIRT
G1 F600 Z0.2
G1 F2400 E0
G1 X91.671 Y88.914 E0.03563
G1 X92.859 Y88.089 E0.10298
G1 X94.486 Y87.018 E0.19368
G1 X95.087 Y86.638 E0.22679
G1 X95.896 Y86.204 E0.26954
G1 X97.096 Y85.744 E0.32938
G1 X98.91 Y85.082 E0.4193
G1 X99.558 Y84.858 E0.45122
G1 X100.475 Y84.611 E0.49544
G1 X101.678 Y84.449 E0.55196
G1 X103.649 Y84.219 E0.64437
G1 X104.39 Y84.144 E0.67905
G1 X105.152 Y84.112 E0.71456
G1 X106.607 Y84.248 E0.78261
G1 X108.446 Y84.463 E0.86882
G1 X109.225 Y84.567 E0.90542
G1 X109.972 Y84.713 E0.94086
G1 X111.388 Y85.19 E1.01043
G1 X113.124 Y85.825 E1.09651
G1 X113.808 Y86.087 E1.13061
G1 X114.665 Y86.486 E1.17463
G1 X115.757 Y87.179 E1.23485
G1 X117.378 Y88.248 E1.32527
G1 X117.966 Y88.65 E1.35844
G1 X118.624 Y89.167 E1.3974
G1 X119.595 Y90.156 E1.46194
G1 X120.869 Y91.509 E1.54848
G1 X121.371 Y92.059 E1.58315
G1 X121.966 Y92.81 E1.62776
G1 X122.632 Y93.926 E1.68828
G1 X123.569 Y95.551 E1.77562
G1 X123.923 Y96.188 E1.80956
G1 X124.327 Y97.052 E1.85397
G1 X124.679 Y98.159 E1.90806
G1 X125.26 Y100.106 E2.00267
G1 X125.444 Y100.752 E2.03395
G1 X125.624 Y101.568 E2.07286
G1 X125.742 Y103.004 E2.13995
G1 X125.852 Y104.911 E2.2289
G1 X125.884 Y105.656 E2.26362
G1 X125.871 Y106.416 E2.29901
G1 X125.652 Y107.862 E2.36711
G1 X125.329 Y109.692 E2.45364
G1 X125.185 Y110.44 E2.48911
G1 X124.964 Y111.284 E2.52974
G1 X124.466 Y112.514 E2.59153
G1 X123.696 Y114.303 E2.68222
G1 X123.406 Y114.948 E2.71515
G1 X122.996 Y115.72 E2.75585
G1 X122.202 Y116.835 E2.81959
G1 X121.073 Y118.354 E2.90772
G1 X120.637 Y118.923 E2.9411
G1 X120.003 Y119.639 E2.98563
G1 X119.002 Y120.508 E3.04735
G1 X117.569 Y121.711 E3.13447
G1 X116.995 Y122.178 E3.16893
G1 X116.24 Y122.709 E3.21191
G1 X115.092 Y123.31 E3.27225
G1 X113.403 Y124.16 E3.36029
G1 X112.745 Y124.478 E3.39432
G1 X111.853 Y124.834 E3.43904
G1 X110.69 Y125.13 E3.49492
G1 X108.731 Y125.596 E3.58869
G1 X108.07 Y125.742 E3.62021
G1 X107.202 Y125.875 E3.6611
G1 X105.807 Y125.903 E3.72607
G1 X103.927 Y125.902 E3.81361
G1 X103.251 Y125.892 E3.84509
G1 X102.274 Y125.809 E3.89075
G1 X100.985 Y125.528 E3.95218
G1 X99.146 Y125.091 E4.04019
G1 X98.457 Y124.916 E4.0733
G1 X97.695 Y124.673 E4.11054
G1 X96.401 Y124.06 E4.17721
G1 X94.757 Y123.234 E4.26288
G1 X94.022 Y122.849 E4.30152
G1 X93.248 Y122.37 E4.3439
G1 X92.232 Y121.545 E4.40484
G1 X90.785 Y120.328 E4.49288
G1 X90.219 Y119.835 E4.52784
G1 X89.622 Y119.243 E4.56699
G1 X88.792 Y118.171 E4.63012
G1 X87.657 Y116.645 E4.71867
G1 X87.228 Y116.049 E4.75287
G1 X86.728 Y115.237 E4.79727
G1 X86.202 Y114.07 E4.85687
G1 X85.455 Y112.328 E4.94513
G1 X85.179 Y111.66 E4.97879
G1 X84.918 Y110.902 E5.01612
G1 X84.631 Y109.477 E5.0838
G1 X84.302 Y107.603 E5.1724
G1 X84.19 Y106.903 E5.20541
G1 X84.106 Y105.948 E5.25005
G1 X84.157 Y104.738 E5.30644
G1 X84.267 Y102.833 E5.39529
G1 X84.322 Y102.078 E5.43054
G1 X84.447 Y101.18 E5.47276
G1 X84.804 Y99.89 E5.53509
G1 X85.354 Y98.052 E5.62442
G1 X85.583 Y97.33 E5.65969
G1 X85.921 Y96.48 E5.70229
G1 X86.557 Y95.331 E5.76344
G1 X87.465 Y93.758 E5.84801
G1 X87.868 Y93.084 E5.88458
G1 X88.417 Y92.298 E5.92922
G1 X89.303 Y91.326 E5.99046
G1 X90.567 Y89.985 E6.07627
G1 X91.106 Y89.43 E6.1123
M204 S3000
M205 X10 Y10
G0 F3000 X91.484 Y89.844
M204 S1800
M205 X8 Y8
G1 F2400 X92.049 Y89.328 E6.14792
G1 X93.167 Y88.557 E6.21116
G1 X94.786 Y87.491 E6.30142
G1 X95.355 Y87.13 E6.3328
G1 X96.096 Y86.727 E6.37208
G1 X97.288 Y86.27 E6.43152
G1 X99.094 Y85.611 E6.52104
G1 X99.706 Y85.398 E6.55121
G1 X100.55 Y85.166 E6.59197
G1 X101.743 Y85.005 E6.64803
G1 X103.706 Y84.776 E6.74005
G1 X104.413 Y84.704 E6.77314
G1 X105.175 Y84.672 E6.80866
G1 X106.542 Y84.804 E6.87261
G1 X108.372 Y85.018 E6.9584
G1 X109.118 Y85.117 E6.99344
G1 X109.865 Y85.263 E7.02888
G1 X111.196 Y85.716 E7.09435
G1 X112.924 Y86.348 E7.18003
G1 X113.574 Y86.596 E7.21242
G1 X114.365 Y86.959 E7.25295
G1 X115.449 Y87.646 E7.31271
G1 X117.062 Y88.71 E7.40268
G1 X117.623 Y89.093 E7.43431
G1 X118.224 Y89.559 E7.46972
G1 X119.187 Y90.54 E7.53373
G1 X120.456 Y91.887 E7.61991
G1 X120.934 Y92.409 E7.65286
G1 X121.485 Y93.097 E7.69391
G1 X122.147 Y94.206 E7.75405
G1 X123.08 Y95.824 E7.84102
G1 X123.417 Y96.428 E7.87322
G1 X123.793 Y97.222 E7.91413
G1 X124.142 Y98.319 E7.96774
G1 X124.721 Y100.259 E8.06201
G1 X124.905 Y100.905 E8.09329
G1 X125.077 Y101.688 E8.13061
G1 X125.183 Y103.036 E8.19358
G1 X125.293 Y104.935 E8.28215
G1 X125.324 Y105.646 E8.31529
G1 X125.311 Y106.406 E8.35068
G1 X125.101 Y107.765 E8.41471
G1 X124.779 Y109.587 E8.50087
G1 X124.643 Y110.298 E8.53458
G1 X124.422 Y111.142 E8.5752
G1 X123.952 Y112.292 E8.63305
G1 X123.185 Y114.073 E8.72334
G1 X122.895 Y114.718 E8.75627
G1 X122.54 Y115.395 E8.79187
G1 X121.753 Y116.501 E8.85508
G1 X120.628 Y118.013 E8.94283
G1 X120.192 Y118.582 E8.97621
G1 X119.636 Y119.216 E9.01548
G1 X118.642 Y120.079 E9.07677
G1 X117.215 Y121.277 E9.16353
G1 X116.67 Y121.722 E9.19629
G1 X115.98 Y122.213 E9.23573
G1 X114.84 Y122.81 E9.29565
G1 X113.159 Y123.656 E9.38328
G1 X112.501 Y123.974 E9.41731
G1 X111.715 Y124.291 E9.45677
G1 X110.56 Y124.585 E9.51227
G1 X108.609 Y125.049 E9.60565
G1 X107.985 Y125.188 E9.63542
G1 X107.117 Y125.321 E9.67631
G1 X105.807 Y125.343 E9.73731
G1 X103.935 Y125.342 E9.82448
G1 X103.259 Y125.332 E9.85596
G1 X102.393 Y125.262 E9.89642
G1 X101.114 Y124.983 E9.95737
G1 X99.283 Y124.548 E10.04501
G1 X98.627 Y124.382 E10.07652
G1 X97.865 Y124.139 E10.11376
G1 X96.652 Y123.56 E10.17634
G1 X95.016 Y122.738 E10.2616
G1 X94.314 Y122.371 E10.29848
G1 X93.601 Y121.935 E10.3374
G1 X92.592 Y121.116 E10.39791
G1 X91.152 Y119.905 E10.48552
G1 X90.611 Y119.435 E10.51889
G1 X90.065 Y118.9 E10.55449
G1 X89.241 Y117.837 E10.61712
G1 X88.112 Y116.318 E10.70524
G1 X87.683 Y115.722 E10.73944
G1 X87.239 Y115.007 E10.77863
G1 X86.717 Y113.849 E10.83778
G1 X85.973 Y112.114 E10.92568
G1 X85.697 Y111.446 E10.95933
G1 X85.448 Y110.72 E10.99507
G1 X85.183 Y109.38 E11.05868
G1 X84.855 Y107.514 E11.1469
G1 X84.748 Y106.851 E11.17817
G1 X84.666 Y105.971 E11.21932
G1 X84.716 Y104.77 E11.2753
G1 X84.826 Y102.874 E11.36373
G1 X84.881 Y102.119 E11.39898
G1 X84.987 Y101.329 E11.43609
G1 X85.34 Y100.051 E11.49783
G1 X85.888 Y98.221 E11.58678
G1 X86.105 Y97.534 E11.62033
G1 X86.411 Y96.751 E11.65948
G1 X87.042 Y95.611 E11.72015
G1 X87.946 Y94.045 E11.80435
G1 X88.329 Y93.402 E11.83919
G1 X88.831 Y92.675 E11.88033
G1 X89.711 Y91.71 E11.94115
G1 X90.969 Y90.375 E12.02656
G1 X91.484 Y89.844 E12.061
M204 S3000
M205 X10 Y10
G0 F3000 X91.862 Y90.258
M204 S1800
M205 X8 Y8
G1 F2400 X92.427 Y89.742 E12.09663
G1 X93.475 Y89.025 E12.15576
G1 X95.087 Y87.963 E12.24565
G1 X95.626 Y87.62 E12.2754
G1 X96.296 Y87.25 E12.31104
G1 X97.48 Y86.796 E12.37008
G1 X99.278 Y86.14 E12.4592
G1 X99.89 Y85.927 E12.48938
G1 X100.625 Y85.721 E12.52492
G1 X101.808 Y85.561 E12.58051
G1 X103.763 Y85.333 E12.67216
G1 X104.436 Y85.264 E12.70366
G1 X105.198 Y85.232 E12.73917
G1 X106.477 Y85.36 E12.79903
G1 X108.299 Y85.573 E12.88444
G1 X109.011 Y85.667 E12.91789
G1 X109.758 Y85.813 E12.95333
G1 X111.004 Y86.242 E13.01469
G1 X112.724 Y86.871 E13.09997
G1 X113.374 Y87.119 E13.13236
G1 X114.065 Y87.432 E13.16768
G1 X115.141 Y88.114 E13.227
G1 X116.747 Y89.173 E13.31658
G1 X117.28 Y89.536 E13.34661
G1 X117.881 Y90.002 E13.38202
G1 X118.779 Y90.924 E13.44195
G1 X120.043 Y92.265 E13.52776
G1 X120.521 Y92.787 E13.56072
G1 X121.004 Y93.384 E13.59647
G1 X121.662 Y94.486 E13.65624
G1 X122.591 Y96.097 E13.74283
G1 X122.928 Y96.701 E13.77504
G1 X123.259 Y97.392 E13.81072
G1 X123.605 Y98.479 E13.86383
G1 X124.182 Y100.412 E13.95777
G1 X124.366 Y101.058 E13.98904
G1 X124.53 Y101.808 E14.02479
G1 X124.624 Y103.069 E14.08367
G1 X124.734 Y104.96 E14.17187
G1 X124.764 Y105.636 E14.20338
G1 X124.751 Y106.396 E14.23878
G1 X124.55 Y107.667 E14.2987
G1 X124.229 Y109.482 E14.38452
G1 X124.093 Y110.193 E14.41823
G1 X123.904 Y110.93 E14.45366
G1 X123.438 Y112.07 E14.511
G1 X122.674 Y113.844 E14.60094
G1 X122.399 Y114.458 E14.63227
G1 X122.044 Y115.135 E14.66787
G1 X121.304 Y116.167 E14.727
G1 X120.183 Y117.673 E14.81442
G1 X119.768 Y118.216 E14.84624
G1 X119.269 Y118.793 E14.88176
G1 X118.282 Y119.65 E14.94263
G1 X116.86 Y120.844 E15.02909
G1 X116.342 Y121.268 E15.06026
G1 X115.72 Y121.717 E15.09598
G1 X114.588 Y122.31 E15.15548
G1 X112.915 Y123.152 E15.2427
G1 X112.288 Y123.456 E15.27514
G1 X111.577 Y123.748 E15.31093
G1 X110.431 Y124.04 E15.366
G1 X108.487 Y124.502 E15.45904
G1 X107.863 Y124.641 E15.48881
G1 X107.108 Y124.761 E15.52441
G1 X105.807 Y124.783 E15.585
G1 X103.943 Y124.782 E15.67179
G1 X103.267 Y124.772 E15.70327
G1 X102.512 Y124.715 E15.73853
G1 X101.243 Y124.438 E15.79901
G1 X99.42 Y124.005 E15.88626
G1 X98.764 Y123.839 E15.91777
G1 X98.036 Y123.606 E15.95336
G1 X96.903 Y123.06 E16.01192
G1 X95.275 Y122.242 E16.09676
G1 X94.603 Y121.891 E16.13206
G1 X93.954 Y121.5 E16.16734
G1 X92.952 Y120.687 E16.22743
G1 X91.519 Y119.482 E16.31461
G1 X91.003 Y119.035 E16.3464
G1 X90.457 Y118.5 E16.38199
G1 X89.69 Y117.503 E16.44057
G1 X88.566 Y115.991 E16.52829
G1 X88.157 Y115.423 E16.56089
G1 X87.75 Y114.777 E16.59644
G1 X87.232 Y113.628 E16.65513
G1 X86.49 Y111.9 E16.74269
G1 X86.227 Y111.264 E16.77474
G1 X85.978 Y110.538 E16.81048
G1 X85.735 Y109.283 E16.87
G1 X85.408 Y107.425 E16.95785
G1 X85.301 Y106.762 E16.98912
G1 X85.226 Y105.994 E17.02505
G1 X85.275 Y104.803 E17.08056
G1 X85.385 Y102.915 E17.16862
G1 X85.44 Y102.16 E17.20387
G1 X85.542 Y101.404 E17.23939
G1 X85.877 Y100.211 E17.29709
G1 X86.422 Y98.389 E17.38564
G1 X86.628 Y97.734 E17.41762
G1 X86.901 Y97.022 E17.45312
G1 X87.527 Y95.891 E17.51332
G1 X88.427 Y94.332 E17.59714
G1 X88.81 Y93.689 E17.63199
G1 X89.245 Y93.052 E17.66791
G1 X90.118 Y92.094 E17.72826
G1 X91.371 Y90.765 E17.81331
G1 X91.862 Y90.258 E17.84617
M204 S3000
M205 X10 Y10
G1 F2400 E11.84617
;MESH:Light Holder v3.stl
G0 F3000 X95.144 Y93.489
G0 X95.934 Y94.231
G0 X94.952 Y97.838
M204 S1800
M205 X8 Y8
;TYPE:WALL-INNER
G1 F2400 E17.84617
G1 F1500 X95.606 Y97.759 E17.87685
G1 X96.116 Y97.922 E17.90178
G1 X104.817 Y102.686 E18.36369
G1 F1428.6 X105.52 Y103.039 E18.40215
G1 X104.983 Y102.464 E18.44062
G1 F1500 X104.725 Y102.107 E18.46113
G1 X104.372 Y101.411 E18.49746
G1 X104.238 Y100.999 E18.51764
G1 X104.115 Y100.225 E18.55413
G1 X104.114 Y99.781 E18.57481
G1 X104.273 Y98.791 E18.62149
G1 X104.826 Y97.7 E18.67845
G1 X105.699 Y96.828 E18.73591
G1 X106.592 Y96.375 E18.78253
G1 X107.004 Y96.241 E18.80271
G1 X107.822 Y96.111 E18.84127
G1 X108.222 Y96.117 E18.8599
G1 X109.209 Y96.275 E18.90644
G1 X110.206 Y96.78 E18.95848
G1 X110.432 Y96.957 E18.97185
G1 X111.179 Y97.706 E19.02111
G1 X111.628 Y98.597 E19.06757
G1 X111.747 Y98.931 E19.08408
G1 X111.923 Y100.003 E19.13466
G1 X111.726 Y101.214 E19.19179
G1 X111.175 Y102.303 E19.24862
G1 X110.461 Y103.02 E19.29574
G1 X110.103 Y103.279 E19.31631
G1 X109.406 Y103.631 E19.35267
G1 X108.997 Y103.764 E19.3727
G1 X108.224 Y103.89 E19.40917
G1 X107.776 Y103.89 E19.43003
G1 F1468.5 X106.788 Y103.742 E19.47755
G1 F1445.8 X106.974 Y103.857 E19.48811
G1 F1476.3 X107.656 Y104.241 E19.52514
G1 F1500 X116.054 Y108.839 E19.97096
G1 X116.394 Y109.1 E19.99092
G1 X116.669 Y109.513 E20.01403
G1 X116.783 Y110.087 E20.04127
G1 F1363.6 X116.719 Y110.644 E20.06999
G1 X116.999 Y110.132 E20.09988
G1 F1500 X117.564 Y108.821 E20.16636
G1 X118.093 Y105.819 E20.3083
G1 X117.914 Y102.769 E20.45056
G1 X117.041 Y99.846 E20.59261
G1 X115.523 Y97.209 E20.73429
G1 X113.429 Y94.99 E20.87636
G1 X110.878 Y93.308 E21.01864
G1 X108.029 Y92.269 E21.15985
G1 X105 Y91.914 E21.30186
G1 X101.971 Y92.269 E21.44387
G1 X99.122 Y93.307 E21.58506
G1 X96.572 Y94.989 E21.7273
G1 X94.478 Y97.209 E21.8694
G1 F1612.3 X93.845 Y98.23 E21.92145
G1 F1663.4 X92.945 Y99.84 E21.9989
G1 F1365.9 X92.879 Y100.361 E22.02575
G1 F1064.6 X92.813 Y100.883 E22.06027
G1 X93.118 Y100.474 E22.09374
G1 F1365.9 X93.424 Y100.064 E22.1199
G1 F1663.4 X94.263 Y98.47 E22.19554
G1 F1660.1 X94.533 Y98.107 E22.21458
G1 F1544.1 X94.952 Y97.838 E22.2371
M204 S3000
M205 X10 Y10
G0 F3000 X92.813 Y100.883
M204 S1800
M205 X8 Y8
G1 F972.2 X92.72 Y101.148 E22.25728
G1 F939.6 X92.548 Y101.873 E22.31267
M204 S3000
M205 X10 Y10
G0 F3000 X92.596 Y102.854
M204 S1800
M205 X8 Y8
G1 F1640.6 X92.703 Y102.301 E22.33665
G1 F1176.5 X92.548 Y101.873 E22.36367
G1 X92.224 Y102.193 E22.39071
G1 F1640.6 X92.071 Y102.766 E22.41596
G1 F1647.1 X92 Y103.634 E22.45289
G1 F1178.1 X92.201 Y104.045 E22.48001
G1 X92.485 Y103.686 E22.50715
G1 F1647.1 X92.596 Y102.854 E22.54275
M204 S3000
M205 X10 Y10
G0 F3000 X92.201 Y104.045
M204 S1800
M205 X8 Y8
G1 F939.6 X92.094 Y105.054 E22.61817
G1 F975.6 X92.09 Y105.323 E22.63743
M204 S3000
M205 X10 Y10
G0 F3000 X92.355 Y105.769
M204 S1800
M205 X8 Y8
G1 F1237.1 X92.09 Y105.323 E22.66672
G1 F1240.8 X91.867 Y105.804 E22.69657
G1 F1746.4 X92.042 Y106.825 E22.738
G1 F1171.5 X92.344 Y107.179 E22.76574
G1 X92.515 Y106.747 E22.79344
G1 F1739.1 X92.355 Y105.769 E22.83324
M204 S3000
M205 X10 Y10
G0 F3000 X92.344 Y107.179
M204 S1800
M205 X8 Y8
G1 F895.5 X92.611 Y108.769 E22.95899
G1 F957.8 X92.791 Y109.306 E23.00029
G1 F965.5 X93.308 Y110.41 E23.08848
G1 F887.9 X93.826 Y111.515 E23.18447
G1 F883.3 X94.617 Y112.79 E23.30312
G1 F897.4 X95.607 Y113.936 E23.42099
G1 F914 X96.211 Y114.489 E23.48356
G1 F988.2 X96.815 Y115.042 E23.54144
G1 F1076.9 X97.42 Y115.595 E23.5946
G1 F1064.6 X97.87 Y115.916 E23.63087
G1 F1016.9 X100.557 Y117.276 E23.83771
G1 F1112.6 X101.247 Y117.508 E23.88341
G1 F1147.5 X102.371 Y117.731 E23.95316
G1 F1029.4 X103.496 Y117.954 E24.03097
G1 F1021.9 X105.141 Y118.084 E24.14376
G1 F1050 X106.506 Y117.976 E24.23484
G1 F1074.2 X107.345 Y117.81 E24.29046
G1 F1168.3 X108.185 Y117.643 E24.34166
G1 F1282.4 X109.025 Y117.477 E24.38829
G1 F1274.7 X109.465 Y117.336 E24.41361
G1 F1198.3 X112.165 Y115.969 E24.59001
G1 F1250 X112.715 Y115.604 E24.62689
G1 F1261.3 X113.59 Y114.804 E24.69255
G1 F1157 X114.465 Y114.004 E24.76412
G1 F1163.4 X115.57 Y112.725 E24.86559
G1 F1179.8 X116.282 Y111.578 E24.94552
G1 F1193.2 X116.719 Y110.644 E25.00588
M204 S3000
M205 X10 Y10
G0 F3000 X116.484 Y109.727
G0 X116.154 Y109.735
M204 S1800
M205 X8 Y8
G1 F1500 X116.223 Y110.08 E25.02226
G1 X116.153 Y110.401 E25.03756
G1 X115.134 Y112.406 E25.14229
G1 X112.39 Y115.145 E25.32282
G1 X108.958 Y116.89 E25.5021
G1 X105.141 Y117.498 E25.68208
G1 X101.314 Y116.889 E25.86252
G1 X97.885 Y115.141 E26.04174
G1 X95.146 Y112.407 E26.22194
G1 X93.391 Y108.956 E26.40222
G1 X92.787 Y105.156 E26.58138
G1 X93.392 Y101.326 E26.76194
G1 X94.715 Y98.73 E26.89761
G1 X94.89 Y98.517 E26.91045
G1 X95.148 Y98.363 E26.92444
G1 X95.541 Y98.315 E26.94287
G1 X95.847 Y98.413 E26.95783
G1 X115.785 Y109.331 E28.01631
G1 X115.989 Y109.487 E28.02827
G1 X116.154 Y109.735 E28.04214
M204 S3000
M205 X10 Y10
G0 F3000 X116.269 Y109.528
G0 X108.142 Y103.394
G0 X108.134 Y103.337
M204 S1800
M205 X8 Y8
G1 F1500 X107.865 Y103.337 E28.05467
G1 X106.964 Y103.191 E28.09717
G1 X106.127 Y102.766 E28.14088
G1 X105.935 Y102.624 E28.152
G1 X105.379 Y102.068 E28.18861
G1 X105.224 Y101.854 E28.20092
G1 X104.871 Y101.158 E28.23726
G1 X104.791 Y100.91 E28.24939
G1 X104.667 Y100.136 E28.28589
G1 X104.667 Y99.87 E28.29828
G1 X104.812 Y98.966 E28.34091
G1 X105.286 Y98.032 E28.38968
G1 X106.034 Y97.285 E28.4389
G1 X106.846 Y96.874 E28.48128
G1 X107.093 Y96.794 E28.49337
