;FLAVOR:Marlin
;TIME:509
;Filament used: 0.390323m
;Layer height: 0.2
;MINX:90.404
;MINY:90.404
;MINZ:0.2
;MAXX:119.596
;MAXY:119.596
;MAXZ:5.2
;TARGET_MACHINE.NAME:Anycubic i3 Mega
;Generated with Cura_SteamEngine 5.7.0-alpha.0
M140 S60
M105
M190 S60
M104 S220
M105
M109 S220
M82 ;absolute extrusion mode
G21 ;metric values
G90 ;absolute positioning
M82 ;set extruder to absolute mode
M107 ;start with the fan off
G28 X0 Y0 ;move X/Y to min endstops
G28 Z0 ;move Z to min endstops
G1 Z15.0 F100 ;move the platform down 15mm
G92 E0 ;zero the extruded length
G1 F200 E3 ;extrude 3mm of feed stock
G92 E0 ;zero the extruded length again
G1 F100
G0 Y20 F100
M117 Printing...
G5
G92 E0
G92 E0
G1 F2400 E-6
;LAYER_COUNT:26
;LAYER:0
M107
M204 S3000
M205 X10 Y10
G1 F600 Z0.275
G0 F3000 X94.704 Y94.652 Z0.275
M204 S1800
M205 X8 Y8
;TYPE:SKIRT
G1 F600 Z0.2
G1 F2400 E0
G1 X95.154 Y94.25 E0.0281
G1 X95.932 Y93.631 E0.07439
G1 X97.088 Y92.76 E0.14179
G1 X97.687 Y92.368 E0.17512
G1 X98.332 Y92.041 E0.2088
G1 X99.194 Y91.667 E0.25255
G1 X100.485 Y91.144 E0.31741
G1 X101.198 Y90.908 E0.35238
G1 X101.905 Y90.759 E0.38602
G1 X102.953 Y90.603 E0.43536
G1 X104.19 Y90.45 E0.4934
G1 X105.04 Y90.404 E0.53304
G1 X105.634 Y90.438 E0.56074
G1 X106.74 Y90.562 E0.61257
G1 X107.977 Y90.734 E0.67072
G1 X108.811 Y90.909 E0.7104
G1 X109.442 Y91.119 E0.74137
G1 X110.419 Y91.506 E0.7903
G1 X111.576 Y91.996 E0.84881
G1 X112.337 Y92.382 E0.88854
G1 X112.865 Y92.729 E0.91796
G1 X113.728 Y93.37 E0.96802
G1 X114.71 Y94.134 E1.02595
G1 X115.344 Y94.701 E1.06556
G1 X115.771 Y95.179 E1.0954
G1 X116.451 Y96.038 E1.14642
G1 X117.241 Y97.089 E1.20764
G1 X117.665 Y97.746 E1.24405
G1 X117.96 Y98.338 E1.27485
G1 X118.597 Y99.831 E1.35043
G1 X118.872 Y100.526 E1.38523
G1 X119.119 Y101.297 E1.42293
G1 X119.231 Y101.843 E1.44889
G1 X119.397 Y102.952 E1.5011
G1 X119.55 Y104.187 E1.55905
G1 X119.596 Y105.035 E1.59859
G1 X119.563 Y105.629 E1.62629
G1 X119.438 Y106.741 E1.6784
G1 X119.266 Y107.977 E1.73651
G1 X119.091 Y108.81 E1.77614
G1 X118.882 Y109.438 E1.80696
G1 X118.499 Y110.407 E1.85548
G1 X118.004 Y111.576 E1.91459
G1 X117.618 Y112.335 E1.95424
G1 X117.271 Y112.864 E1.9837
G1 X116.63 Y113.728 E2.03379
G1 X115.843 Y114.738 E2.09342
G1 X115.345 Y115.299 E2.12835
G1 X114.793 Y115.793 E2.16284
G1 X113.965 Y116.448 E2.212
G1 X112.914 Y117.239 E2.27325
G1 X112.315 Y117.631 E2.30658
G1 X111.668 Y117.959 E2.34036
G1 X110.806 Y118.333 E2.38411
G1 X109.515 Y118.856 E2.44897
G1 X108.802 Y119.092 E2.48395
G1 X108.095 Y119.241 E2.51759
G1 X107.048 Y119.397 E2.56688
G1 X105.813 Y119.55 E2.62483
G1 X104.965 Y119.596 E2.66437
G1 X104.371 Y119.563 E2.69207
G1 X103.26 Y119.438 E2.74413
G1 X102.023 Y119.266 E2.80229
G1 X101.187 Y119.09 E2.84207
G1 X100.556 Y118.88 E2.87303
G1 X99.569 Y118.489 E2.92247
G1 X98.424 Y118.004 E2.98037
G1 X97.663 Y117.618 E3.0201
G1 X97.135 Y117.271 E3.04952
G1 X96.272 Y116.63 E3.09958
G1 X95.29 Y115.866 E3.15752
G1 X94.656 Y115.299 E3.19712
G1 X94.229 Y114.821 E3.22697
G1 X93.549 Y113.962 E3.27798
G1 X92.759 Y112.911 E3.3392
G1 X92.335 Y112.254 E3.37561
G1 X92.04 Y111.662 E3.40641
G1 X91.399 Y110.159 E3.4825
G1 X91.128 Y109.474 E3.5168
G1 X90.881 Y108.703 E3.5545
G1 X90.769 Y108.157 E3.58045
G1 X90.603 Y107.048 E3.63267
G1 X90.45 Y105.813 E3.69061
G1 X90.404 Y104.965 E3.73016
G1 X90.437 Y104.371 E3.75786
G1 X90.562 Y103.259 E3.80996
G1 X90.734 Y102.023 E3.86807
G1 X90.91 Y101.188 E3.90781
G1 X91.119 Y100.56 E3.93863
G1 X91.515 Y99.557 E3.98884
G1 X92.013 Y98.386 E4.04809
G1 X92.351 Y97.717 E4.08299
G1 X92.728 Y97.137 E4.1152
G1 X93.382 Y96.255 E4.16633
G1 X94.182 Y95.231 E4.22684
G1 X94.704 Y94.652 E4.26314
M204 S3000
M205 X10 Y10
G0 F3000 X95.077 Y95.07
M204 S1800
M205 X8 Y8
G1 F2400 X95.527 Y94.668 E4.29124
G1 X96.269 Y94.078 E4.33538
G1 X97.395 Y93.229 E4.40104
G1 X97.994 Y92.837 E4.43438
G1 X98.555 Y92.555 E4.46362
G1 X99.405 Y92.186 E4.50676
G1 X100.661 Y91.676 E4.56989
G1 X101.374 Y91.44 E4.60486
G1 X101.987 Y91.313 E4.63401
G1 X103.022 Y91.159 E4.68273
G1 X104.259 Y91.006 E4.74077
G1 X105.008 Y90.963 E4.7757
G1 X105.602 Y90.997 E4.80341
G1 X106.663 Y91.117 E4.85313
G1 X107.9 Y91.289 E4.91128
G1 X108.635 Y91.441 E4.94623
G1 X109.236 Y91.64 E4.97571
G1 X110.201 Y92.022 E5.02404
G1 X111.358 Y92.512 E5.08254
G1 X112.029 Y92.85 E5.11753
G1 X112.557 Y93.197 E5.14695
G1 X113.384 Y93.812 E5.19494
G1 X114.366 Y94.576 E5.25287
G1 X114.926 Y95.074 E5.28777
G1 X115.353 Y95.552 E5.31761
G1 X116.004 Y96.375 E5.36648
G1 X116.772 Y97.395 E5.42593
G1 X117.164 Y97.996 E5.45934
G1 X117.459 Y98.588 E5.49014
G1 X118.076 Y100.037 E5.56347
G1 X118.351 Y100.732 E5.59828
G1 X118.57 Y101.41 E5.63145
G1 X118.682 Y101.956 E5.65741
G1 X118.841 Y103.021 E5.70755
G1 X118.994 Y104.256 E5.76549
G1 X119.037 Y105.004 E5.80038
G1 X119.004 Y105.598 E5.82808
G1 X118.883 Y106.664 E5.87804
G1 X118.711 Y107.9 E5.93615
G1 X118.559 Y108.634 E5.97105
G1 X118.361 Y109.232 E6.00038
G1 X117.983 Y110.189 E6.0483
G1 X117.488 Y111.358 E6.10741
G1 X117.15 Y112.028 E6.14235
G1 X116.803 Y112.557 E6.17181
G1 X116.188 Y113.384 E6.2198
G1 X115.424 Y114.366 E6.27773
G1 X114.926 Y114.927 E6.31266
G1 X114.446 Y115.354 E6.34258
G1 X113.628 Y116.001 E6.39114
G1 X112.607 Y116.77 E6.45066
G1 X112.008 Y117.162 E6.484
G1 X111.445 Y117.445 E6.51334
G1 X110.595 Y117.814 E6.55648
G1 X109.339 Y118.324 E6.61961
G1 X108.626 Y118.56 E6.65458
G1 X108.013 Y118.687 E6.68373
G1 X106.979 Y118.841 E6.73241
G1 X105.744 Y118.994 E6.79035
G1 X104.996 Y119.037 E6.82524
G1 X104.402 Y119.004 E6.85294
G1 X103.337 Y118.883 E6.90285
G1 X102.1 Y118.711 E6.96101
G1 X101.364 Y118.559 E6.996
G1 X100.762 Y118.359 E7.02554
G1 X99.787 Y117.973 E7.07437
G1 X98.642 Y117.488 E7.13227
G1 X97.971 Y117.15 E7.16725
G1 X97.443 Y116.803 E7.19667
G1 X96.616 Y116.188 E7.24466
G1 X95.634 Y115.424 E7.3026
G1 X95.074 Y114.926 E7.33749
G1 X94.647 Y114.448 E7.36734
G1 X93.996 Y113.625 E7.4162
G1 X93.228 Y112.605 E7.47565
G1 X92.836 Y112.004 E7.50907
G1 X92.555 Y111.442 E7.53832
G1 X91.92 Y109.953 E7.6137
G1 X91.649 Y109.268 E7.648
G1 X91.43 Y108.59 E7.68118
G1 X91.318 Y108.044 E7.70713
G1 X91.159 Y106.979 E7.75727
G1 X91.006 Y105.744 E7.81522
G1 X90.963 Y104.996 E7.85011
G1 X90.996 Y104.402 E7.87781
G1 X91.117 Y103.336 E7.92776
G1 X91.289 Y102.1 E7.98587
G1 X91.441 Y101.365 E8.02082
G1 X91.64 Y100.766 E8.05021
G1 X92.031 Y99.776 E8.09978
G1 X92.513 Y98.639 E8.15728
G1 X92.851 Y97.97 E8.19218
G1 X93.196 Y97.444 E8.22147
G1 X93.824 Y96.599 E8.2705
G1 X94.6 Y95.604 E8.32925
G1 X95.077 Y95.07 E8.36259
M204 S3000
M205 X10 Y10
G0 F3000 X95.45 Y95.488
M204 S1800
M205 X8 Y8
G1 F2400 X95.9 Y95.086 E8.39069
G1 X96.606 Y94.525 E8.43268
G1 X97.704 Y93.696 E8.49674
G1 X98.246 Y93.337 E8.52701
G1 X98.778 Y93.069 E8.55475
G1 X99.616 Y92.705 E8.59729
G1 X100.872 Y92.195 E8.66042
G1 X101.488 Y91.988 E8.69068
G1 X102.069 Y91.867 E8.71831
G1 X103.091 Y91.715 E8.76642
G1 X104.328 Y91.562 E8.82446
G1 X104.976 Y91.522 E8.85469
G1 X105.57 Y91.556 E8.8824
G1 X106.586 Y91.672 E8.93001
G1 X107.823 Y91.844 E8.98817
G1 X108.46 Y91.973 E9.01843
G1 X109.03 Y92.161 E9.04638
G1 X109.983 Y92.538 E9.0941
G1 X111.14 Y93.028 E9.15261
G1 X111.722 Y93.318 E9.18289
G1 X112.223 Y93.647 E9.2108
G1 X113.04 Y94.254 E9.25819
G1 X114.022 Y95.018 E9.31612
G1 X114.509 Y95.447 E9.34634
G1 X114.914 Y95.9 E9.37464
G1 X115.557 Y96.712 E9.42287
G1 X116.305 Y97.704 E9.48072
G1 X116.663 Y98.246 E9.51097
G1 X116.944 Y98.808 E9.54022
G1 X117.556 Y100.244 E9.61291
G1 X117.819 Y100.906 E9.64608
G1 X118.021 Y101.523 E9.67631
G1 X118.133 Y102.069 E9.70226
G1 X118.285 Y103.09 E9.75033
G1 X118.438 Y104.325 E9.80828
G1 X118.478 Y104.973 E9.83851
G1 X118.445 Y105.567 E9.86621
G1 X118.328 Y106.587 E9.91401
G1 X118.156 Y107.823 E9.97212
G1 X118.027 Y108.459 E10.00234
G1 X117.84 Y109.026 E10.03014
G1 X117.467 Y109.971 E10.07745
G1 X116.972 Y111.14 E10.13656
G1 X116.682 Y111.721 E10.1668
G1 X116.353 Y112.223 E10.19475
G1 X115.746 Y113.04 E10.24214
G1 X114.982 Y114.022 E10.30007
G1 X114.553 Y114.509 E10.33029
G1 X114.098 Y114.915 E10.35869
G1 X113.291 Y115.554 E10.40662
G1 X112.298 Y116.303 E10.46454
G1 X111.756 Y116.662 E10.49481
G1 X111.222 Y116.931 E10.52265
G1 X110.384 Y117.295 E10.56519
G1 X109.128 Y117.805 E10.62832
G1 X108.512 Y118.012 E10.65858
G1 X107.931 Y118.133 E10.68621
G1 X106.91 Y118.285 E10.73428
G1 X105.675 Y118.438 E10.79222
G1 X105.027 Y118.478 E10.82245
G1 X104.433 Y118.445 E10.85016
G1 X103.414 Y118.328 E10.89792
G1 X102.177 Y118.156 E10.95607
G1 X101.54 Y118.027 E10.98633
G1 X100.968 Y117.838 E11.01438
G1 X100.005 Y117.457 E11.06261
G1 X98.86 Y116.972 E11.12051
G1 X98.278 Y116.682 E11.15079
G1 X97.777 Y116.353 E11.1787
G1 X96.96 Y115.746 E11.22609
G1 X95.978 Y114.982 E11.28403
G1 X95.491 Y114.553 E11.31425
G1 X95.086 Y114.1 E11.34254
G1 X94.443 Y113.288 E11.39077
G1 X93.695 Y112.296 E11.44862
G1 X93.337 Y111.754 E11.47887
G1 X93.056 Y111.192 E11.50813
G1 X92.44 Y109.746 E11.58131
G1 X92.181 Y109.094 E11.61398
G1 X91.979 Y108.477 E11.64421
G1 X91.867 Y107.931 E11.67016
G1 X91.715 Y106.91 E11.71823
G1 X91.562 Y105.675 E11.77618
G1 X91.522 Y105.027 E11.80641
G1 X91.555 Y104.433 E11.83411
G1 X91.672 Y103.413 E11.88192
G1 X91.844 Y102.177 E11.94002
G1 X91.973 Y101.541 E11.97024
G1 X92.161 Y100.972 E11.99815
G1 X92.547 Y99.995 E12.04706
G1 X93.029 Y98.858 E12.10456
G1 X93.319 Y98.277 E12.1348
G1 X93.646 Y97.778 E12.16258
G1 X94.266 Y96.943 E12.21101
G1 X95.02 Y95.975 E12.26814
G1 X95.45 Y95.488 E12.29839
M204 S3000
M205 X10 Y10
G1 F2400 E6.29839
;MESH:Tube Socket.stl
G0 F3000 X98.633 Y98.834
G0 X99.493 Y99.493
G0 X100.455 Y99.446
M204 S1800
M205 X8 Y8
;TYPE:WALL-INNER
G1 F2400 E12.29839
G1 F1020.7 X100.764 Y99.217 E12.32471
M204 S3000
M205 X10 Y10
G0 F3000 X102.983 Y98.63
M204 S1800
M205 X8 Y8
G1 F981.3 X102.877 Y98.63 E12.33226
G1 X102.823 Y98.722 E12.33985
G1 X102.877 Y98.814 E12.34744
G1 X102.983 Y98.814 E12.35499
G1 X103.037 Y98.722 E12.36258
M204 S3000
M205 X10 Y10
G0 F3000 X102.141 Y99.144
M204 S1800
M205 X8 Y8
G1 F1500 X102.516 Y99.295 E12.38141
G1 X102.917 Y99.64 E12.40604
G1 F1147.5 X103.336 Y99.987 E12.43915
G1 F1010.8 X103.395 Y99.822 E12.45126
G1 F1274.7 X103.543 Y99.089 E12.49224
G1 F1500 X103.871 Y98.539 E12.52205
G1 X104.228 Y98.23 E12.54404
G1 F1155.4 X104.686 Y97.846 E12.58017
G1 X104.093 Y97.756 E12.61643
G1 F1500 X103.095 Y97.888 E12.6633
G1 X101.318 Y98.624 E12.75286
G1 X101.04 Y98.837 E12.76917
G1 F1212.1 X100.764 Y99.217 E12.79623
G1 X101.472 Y99.081 E12.83778
G1 F1500 X102.141 Y99.144 E12.86907
M204 S3000
M205 X10 Y10
G0 F3000 X102.15 Y99.087
G0 X103.336 Y99.987
M204 S1800
M205 X8 Y8
G1 F925.1 X103.425 Y100.275 E12.89183
M204 S3000
M205 X10 Y10
G0 F3000 X103.36 Y101.151
M204 S1800
M205 X8 Y8
G1 F1152.3 X103.222 Y101.392 E12.90866
G1 F1411.8 X103.016 Y101.626 E12.92408
G1 F1144.4 X102.91 Y102.029 E12.94952
G1 X103.329 Y102.021 E12.97509
G1 F1274.7 X103.867 Y101.639 E13.01125
G1 F1059.3 X104.124 Y101.578 E13.02867
G1 F977.9 X104.788 Y101.392 E13.07792
G1 X104.077 Y101.017 E13.13533
G1 F1059.3 X103.887 Y100.863 E13.15146
G1 F985.9 X103.425 Y100.275 E13.20444
G1 X103.445 Y100.798 E13.24152
G1 F1059.3 X103.36 Y101.151 E13.26546
M204 S3000
M205 X10 Y10
G0 F3000 X102.91 Y102.029
M204 S1800
M205 X8 Y8
G1 F899.4 X102.493 Y102.342 E13.30595
M204 S3000
M205 X10 Y10
G0 F3000 X101.581 Y102.459
M204 S1800
M205 X8 Y8
G1 F1039.6 X101.366 Y102.429 E13.32053
G1 F991.7 X100.648 Y102.175 E13.37417
G1 F961.1 X101.088 Y102.67 E13.4223
G1 F1004.8 X101.372 Y103.539 E13.48586
G1 F953.5 X101.384 Y103.859 E13.50931
G1 F971.1 X101.716 Y103.382 E13.55111
G1 F1059.3 X101.896 Y103.079 E13.57435
G1 F1052.6 X102.287 Y102.629 E13.61391
G1 F1001.2 X102.477 Y102.364 E13.63666
G1 F990.6 X101.581 Y102.459 E13.70019
M204 S3000
M205 X10 Y10
G0 F3000 X101.384 Y103.859
M204 S1800
M205 X8 Y8
G1 F899.4 X101.194 Y104.459 E13.74907
M204 S3000
M205 X10 Y10
G0 F3000 X100.507 Y105.709
M204 S1800
M205 X8 Y8
G1 F1019.4 X101.057 Y106.175 E13.79846
G1 F939.6 X101.193 Y106.336 E13.81413
G1 F974.5 X101.148 Y105.446 E13.878
G1 F1060.6 X101.192 Y104.918 E13.91289
G1 F975.6 X101.194 Y104.459 E13.94575
G1 F941.7 X101.057 Y104.62 E13.96143
G1 F1020.7 X100.507 Y105.087 E14.01081
G1 F1029.4 X100.277 Y105.228 E14.02911
G1 F971.1 X99.559 Y105.398 E14.08218
G1 X100.277 Y105.568 E14.13525
G1 F1029.4 X100.507 Y105.709 E14.15356
M204 S3000
M205 X10 Y10
G0 F3000 X101.193 Y106.336
M204 S1800
M205 X8 Y8
G1 F894.6 X101.398 Y106.989 E14.20699
M204 S3000
M205 X10 Y10
G0 F3000 X101.322 Y108.372
M204 S1800
M205 X8 Y8
G1 F1010.8 X101.582 Y108.337 E14.22512
G1 F990.6 X102.477 Y108.432 E14.28858
G1 F1002.4 X102.287 Y108.168 E14.31125
G1 F1052.6 X101.896 Y107.717 E14.35085
G1 F1059.3 X101.716 Y107.413 E14.37415
G1 F966.6 X101.398 Y106.989 E14.41245
G1 F919 X101.388 Y107.148 E14.42455
G1 F976.7 X101.144 Y108.003 E14.48814
G1 F1030.7 X101.01 Y108.214 E14.50507
G1 F1000 X100.575 Y108.677 E14.54945
G1 F972.2 X101.322 Y108.372 E14.60741
M204 S3000
M205 X10 Y10
G0 F3000 X102.493 Y108.454
M204 S1800
M205 X8 Y8
G1 F914 X102.622 Y108.54 E14.61926
G1 F897.4 X103.047 Y108.875 E14.66138
M204 S3000
M205 X10 Y10
G0 F3000 X101.548 Y108.447
G0 X99.602 Y108.92
M204 S1800
M205 X8 Y8
G1 F1083.9 X99.077 Y108.843 E14.69557
G1 X98.778 Y108.706 E14.71677
G1 X99.865 Y110.123 E14.83185
G1 X99.978 Y110.213 E14.84116
G1 X99.978 Y109.866 E14.86352
G1 X100.068 Y109.46 E14.89032
G1 F1007.2 X100.476 Y108.757 E14.94669
G1 F981.3 X100.249 Y108.83 E14.96366
G1 F1054 X99.602 Y108.92 E15.00695
M204 S3000
M205 X10 Y10
G0 F3000 X100.993 Y108.095
G0 X101.26 Y107.19
G0 X100.993 Y106.286
G0 X100.281 Y105.669
G0 X98.354 Y105.398
M204 S1800
M205 X8 Y8
G1 F1381.6 X98.316 Y105.463 E15.01076
G1 X98.241 Y105.463 E15.01455
G1 X98.202 Y105.398 E15.01838
G1 X98.24 Y105.333 E15.02219
G1 X98.315 Y105.333 E15.02598
M204 S3000
M205 X10 Y10
G0 F3000 X97.885 Y103.83
M204 S1800
M205 X8 Y8
G1 F1146 X97.933 Y103.157 E15.0671
G1 F1179.8 X98.051 Y102.887 E15.08455
M204 S3000
M205 X10 Y10
G0 F3000 X97.98 Y103.898
G0 X98.305 Y106.099
G0 X98.355 Y106.132
M204 S1800
M205 X8 Y8
G1 F1500 X98.599 Y105.885 E15.10071
G1 F1471.1 X99.117 Y105.625 E15.12823
G1 F1141.3 X99.385 Y105.398 E15.14973
G1 X99.117 Y105.171 E15.17122
G1 F1471.1 X98.599 Y104.911 E15.19874
G1 F1500 X98.405 Y104.733 E15.211
G1 X98.111 Y104.286 E15.23591
G1 F1386.1 X97.882 Y103.817 E15.26221
G1 X97.72 Y104.373 E15.29139
G1 F1500 X97.638 Y105 E15.32084
G1 X97.889 Y106.904 E15.41026
G1 X97.978 Y107.122 E15.42123
G1 X97.98 Y106.895 E15.4318
G1 X98.112 Y106.511 E15.4507
G1 X98.355 Y106.132 E15.47167
M204 S3000
M205 X10 Y10
G0 F3000 X98.305 Y106.099
G0 X97.98 Y104.077
G0 X97.98 Y103.134
G0 X99.564 Y101.31
M204 S1800
M205 X8 Y8
G1 F1088.1 X99.516 Y101.393 E15.47782
G1 X99.421 Y101.393 E15.48392
G1 X99.372 Y101.31 E15.49011
G1 X99.42 Y101.227 E15.49626
G1 X99.515 Y101.227 E15.50236
M204 S3000
M205 X10 Y10
G0 F3000 X99.201 Y102.019
M204 S1800
M205 X8 Y8
G1 F1500 X99.469 Y101.975 E15.51501
G1 X100.033 Y102.045 E15.54147
G1 F1160.2 X100.575 Y102.119 E15.5744
G1 F1147.5 X100.456 Y101.768 E15.59696
G1 F1478.9 X100.149 Y101.254 E15.62524
G1 F1500 X100.085 Y100.93 E15.64061
G1 X100.085 Y100.481 E15.66152
G1 F1547 X100.195 Y100.1 E15.67943
G1 F1374.8 X100.406 Y99.611 E15.70648
G1 F1109.6 X100.455 Y99.446 E15.71732
G1 X100.286 Y99.5 E15.72849
G1 F1377 X99.781 Y99.781 E15.7578
G1 F1547 X99.435 Y100.26 E15.78448
G1 F1500 X98.624 Y101.318 E15.84655
G1 X98.157 Y102.443 E15.90327
G1 F1329.1 X98.051 Y102.887 E15.92726
G1 X98.355 Y102.547 E15.95123
G1 F1500 X98.712 Y102.238 E15.97321
G1 X99.201 Y102.019 E15.99816
M204 S3000
M205 X10 Y10
G0 F3000 X99.175 Y101.961
G0 X100.597 Y101.97
G0 X101.455 Y102.363
G0 X104.788 Y101.392
M204 S1800
M205 X8 Y8
G1 F900.3 X105.28 Y101.387 E16.03633
M204 S3000
M205 X10 Y10
G0 F3000 X106.313 Y101.632
M204 S1800
M205 X8 Y8
G1 F1059.3 X106.655 Y101.777 E16.06083
G1 F1015.7 X107.22 Y101.976 E16.10202
G1 F979 X106.81 Y101.193 E16.16508
G1 F953.5 X106.74 Y100.34 E16.22777
G1 F947 X106.669 Y100.462 E16.23818
G1 F1013.3 X106.171 Y100.954 E16.28644
G1 F1290.3 X105.621 Y101.119 E16.31752
G1 F1160.2 X105.28 Y101.387 E16.34363
