;FLAVOR:Marlin
;TIME:1802
;Filament used: 2.10824m
;Layer height: 0.2
;MINX:82.607
;MINY:67.512
;MINZ:0.2
;MAXX:127.385
;MAXY:142.603
;MAXZ:15
;TARGET_MACHINE.NAME:Anycubic i3 Mega
;Generated with Cura_SteamEngine 5.7.0-alpha.0
M140 S60
M105
M190 S60
M104 S200
M105
M109 S200
M82 ;absolute extrusion mode
G21 ;metric values
G90 ;absolute positioning
M82 ;set extruder to absolute mode
M107 ;start with the fan off
G28 X0 Y0 ;move X/Y to min endstops
G28 Z0 ;move Z to min endstops
G1 Z15.0 F100 ;move the platform down 15mm
G92 E0 ;zero the extruded length
G1 F200 E3 ;extrude 3mm of feed stock
G92 E0 ;zero the extruded length again
G1 F100
G0 Y20 F100
M117 Printing...
G5
G92 E0
G92 E0
G1 F2400 E-6
;LAYER_COUNT:75
;LAYER:0
M107
M204 S3000
M205 X10 Y10
G1 F600 Z0.275
G0 F3000 X89.718 Y75.698 Z0.275
M204 S1800
M205 X8 Y8
;TYPE:SKIRT
G1 F600 Z0.2
G1 F2400 E0
G1 X90.604 Y74.726 E0.06124
G1 X91.868 Y73.385 E0.14705
G1 X92.407 Y72.83 E0.18308
G1 X92.972 Y72.314 E0.21871
G1 X94.16 Y71.489 E0.28605
G1 X95.787 Y70.418 E0.37675
G1 X96.388 Y70.038 E0.40986
G1 X97.197 Y69.604 E0.45261
G1 X98.397 Y69.144 E0.51245
G1 X100.211 Y68.482 E0.60237
G1 X100.859 Y68.258 E0.6343
G1 X101.776 Y68.011 E0.67852
G1 X102.979 Y67.849 E0.73504
G1 X104.95 Y67.619 E0.82744
G1 X105.691 Y67.544 E0.86212
G1 X106.453 Y67.512 E0.89763
G1 X107.908 Y67.648 E0.96568
G1 X109.747 Y67.863 E1.0519
G1 X110.526 Y67.967 E1.08849
G1 X111.273 Y68.113 E1.12393
G1 X112.689 Y68.59 E1.19351
G1 X114.425 Y69.225 E1.27958
G1 X115.109 Y69.487 E1.31369
G1 X115.966 Y69.886 E1.35771
G1 X117.058 Y70.579 E1.41793
G1 X118.679 Y71.648 E1.50835
G1 X119.267 Y72.05 E1.54151
G1 X119.925 Y72.567 E1.58048
G1 X120.896 Y73.556 E1.64502
G1 X122.17 Y74.909 E1.73155
G1 X122.672 Y75.459 E1.76622
G1 X123.267 Y76.21 E1.81084
G1 X123.933 Y77.326 E1.87136
G1 X124.87 Y78.951 E1.9587
G1 X125.224 Y79.588 E1.99263
G1 X125.628 Y80.452 E2.03705
G1 X125.98 Y81.559 E2.09114
G1 X126.561 Y83.506 E2.18575
G1 X126.745 Y84.152 E2.21702
G1 X126.925 Y84.968 E2.25593
G1 X127.043 Y86.404 E2.32303
G1 X127.154 Y88.312 E2.41202
G1 X127.185 Y89.06 E2.44688
G1 X127.136 Y90.125 E2.49652
G1 X126.974 Y91.357 E2.55438
G1 X126.67 Y93.999 E2.67822
G1 X126.437 Y96.678 E2.80343
G1 X126.285 Y99.27 E2.92434
G1 X126.203 Y101.981 E3.05063
G1 X126.197 Y104.617 E3.17337
G1 X126.268 Y107.258 E3.29639
G1 X126.409 Y109.856 E3.41755
G1 X126.628 Y112.504 E3.54127
G1 X127.143 Y116.887 E3.74676
G1 X127.22 Y117.887 E3.79347
G1 X127.352 Y120.188 E3.90079
G1 X127.385 Y120.947 E3.93616
G1 X127.372 Y121.711 E3.97174
G1 X127.155 Y123.153 E4.03964
G1 X126.757 Y125.41 E4.14636
G1 X126.635 Y126.043 E4.17638
G1 X126.382 Y126.987 E4.22189
G1 X125.897 Y128.175 E4.28164
G1 X125.007 Y130.238 E4.38626
G1 X124.695 Y130.932 E4.42169
G1 X124.295 Y131.684 E4.46135
G1 X123.494 Y132.806 E4.52554
G1 X122.197 Y134.551 E4.62678
G1 X121.702 Y135.195 E4.6646
G1 X121.144 Y135.83 E4.70397
G1 X120.089 Y136.752 E4.76921
G1 X118.434 Y138.141 E4.86982
G1 X117.816 Y138.644 E4.90692
G1 X117.058 Y139.177 E4.95007
G1 X115.956 Y139.754 E5.00799
G1 X113.968 Y140.754 E5.11161
G1 X113.23 Y141.11 E5.14976
G1 X112.381 Y141.449 E5.19233
G1 X111.128 Y141.768 E5.25254
G1 X108.897 Y142.298 E5.35931
G1 X108.247 Y142.442 E5.39032
G1 X107.372 Y142.576 E5.43153
G1 X106.008 Y142.603 E5.49506
G1 X103.753 Y142.602 E5.60006
G1 X103.074 Y142.592 E5.63168
G1 X102.089 Y142.508 E5.67772
G1 X100.839 Y142.235 E5.73729
G1 X98.64 Y141.712 E5.84254
G1 X97.969 Y141.542 E5.87477
G1 X97.101 Y141.259 E5.91729
G1 X95.902 Y140.687 E5.97914
G1 X93.856 Y139.657 E6.08581
G1 X93.199 Y139.312 E6.12036
G1 X92.426 Y138.834 E6.16268
G1 X91.393 Y137.995 E6.22465
G1 X89.756 Y136.62 E6.3242
G1 X89.122 Y136.067 E6.36337
G1 X88.477 Y135.419 E6.40594
G1 X87.668 Y134.369 E6.46766
G1 X86.384 Y132.638 E6.56802
G1 X85.931 Y132.008 E6.60415
G1 X85.427 Y131.193 E6.64877
G1 X84.931 Y130.088 E6.70517
G1 X84.016 Y127.963 E6.8129
G1 X83.728 Y127.265 E6.84806
G1 X83.442 Y126.399 E6.89053
G1 X83.193 Y125.121 E6.95116
G1 X82.803 Y122.894 E7.05643
G1 X82.69 Y122.18 E7.09009
G1 X82.607 Y121.237 E7.13417
G1 X82.656 Y120.066 E7.18875
G1 X82.79 Y117.747 E7.29691
G1 X82.844 Y117.004 E7.3316
G1 X82.973 Y116.118 E7.37329
G1 X83.165 Y115.225 E7.41582
G1 X83.414 Y114.152 E7.46711
G1 X83.941 Y111.538 E7.59128
G1 X84.391 Y108.929 E7.71456
G1 X84.766 Y106.329 E7.83688
G1 X85.068 Y103.688 E7.96066
G1 X85.295 Y101.056 E8.08367
G1 X85.446 Y98.447 E8.20536
G1 X85.525 Y95.747 E8.33114
G1 X85.529 Y93.141 E8.45248
G1 X85.411 Y89.275 E8.63258
G1 X85.458 Y88.14 E8.68548
G1 X85.568 Y86.233 E8.77443
G1 X85.623 Y85.478 E8.80967
G1 X85.748 Y84.58 E8.85189
G1 X86.105 Y83.29 E8.91422
G1 X86.655 Y81.452 E9.00355
G1 X86.884 Y80.73 E9.03882
G1 X87.222 Y79.88 E9.08142
G1 X87.858 Y78.731 E9.14257
G1 X88.766 Y77.158 E9.22714
G1 X89.169 Y76.484 E9.26371
G1 X89.718 Y75.698 E9.30835
M204 S3000
M205 X10 Y10
G0 F3000 X90.132 Y76.075
M204 S1800
M205 X8 Y8
G1 F2400 X91.012 Y75.11 E9.36916
G1 X92.27 Y73.775 E9.45458
G1 X92.785 Y73.244 E9.48902
G1 X93.35 Y72.728 E9.52465
G1 X94.468 Y71.957 E9.58789
G1 X96.087 Y70.891 E9.67815
G1 X96.656 Y70.53 E9.70953
G1 X97.397 Y70.127 E9.7488
G1 X98.589 Y69.67 E9.80825
G1 X100.395 Y69.011 E9.89777
G1 X101.007 Y68.798 E9.92794
G1 X101.851 Y68.566 E9.9687
G1 X103.044 Y68.405 E10.02475
G1 X105.007 Y68.176 E10.11678
G1 X105.714 Y68.104 E10.14987
G1 X106.476 Y68.072 E10.18538
G1 X107.843 Y68.204 E10.24933
G1 X109.673 Y68.418 E10.33513
G1 X110.419 Y68.517 E10.37017
G1 X111.166 Y68.663 E10.40561
G1 X112.497 Y69.116 E10.47108
G1 X114.225 Y69.748 E10.55675
G1 X114.875 Y69.996 E10.58915
G1 X115.666 Y70.359 E10.62967
G1 X116.75 Y71.046 E10.68943
G1 X118.363 Y72.11 E10.77941
G1 X118.924 Y72.493 E10.81104
G1 X119.525 Y72.959 E10.84645
G1 X120.488 Y73.94 E10.91046
G1 X121.757 Y75.287 E10.99663
G1 X122.235 Y75.809 E11.02959
G1 X122.786 Y76.497 E11.07064
G1 X123.448 Y77.606 E11.13078
G1 X124.381 Y79.224 E11.21775
G1 X124.718 Y79.828 E11.24995
G1 X125.094 Y80.622 E11.29086
G1 X125.443 Y81.719 E11.34446
G1 X126.022 Y83.659 E11.43873
G1 X126.206 Y84.305 E11.47001
G1 X126.378 Y85.088 E11.50734
G1 X126.484 Y86.436 E11.5703
G1 X126.594 Y88.335 E11.65888
G1 X126.625 Y89.083 E11.69374
G1 X126.581 Y90.052 E11.7389
G1 X126.419 Y91.284 E11.79676
G1 X126.112 Y93.95 E11.92173
G1 X125.879 Y96.629 E12.04694
G1 X125.725 Y99.253 E12.16934
G1 X125.643 Y101.964 E12.29563
G1 X125.637 Y104.616 E12.41912
G1 X125.708 Y107.273 E12.54288
G1 X125.851 Y109.902 E12.66548
G1 X126.072 Y112.569 E12.79009
G1 X126.585 Y116.93 E12.99456
G1 X126.661 Y117.919 E13.04075
G1 X126.793 Y120.213 E13.14774
G1 X126.825 Y120.937 E13.18149
G1 X126.812 Y121.701 E13.21707
G1 X126.603 Y123.056 E13.28091
G1 X126.207 Y125.304 E13.3872
G1 X126.085 Y125.937 E13.41721
G1 X125.864 Y126.775 E13.45757
G1 X125.383 Y127.953 E13.51682
G1 X124.496 Y130.009 E13.62108
G1 X124.199 Y130.672 E13.65491
G1 X123.839 Y131.359 E13.69103
G1 X123.044 Y132.472 E13.75472
G1 X121.753 Y134.21 E13.85553
G1 X121.281 Y134.825 E13.89163
G1 X120.723 Y135.46 E13.93099
G1 X119.729 Y136.323 E13.99229
G1 X118.08 Y137.707 E14.09253
G1 X117.491 Y138.188 E14.12794
G1 X116.798 Y138.681 E14.16754
G1 X115.704 Y139.254 E14.22505
G1 X113.724 Y140.25 E14.32825
G1 X113.02 Y140.591 E14.36468
G1 X112.243 Y140.906 E14.40372
G1 X110.999 Y141.223 E14.46349
G1 X108.775 Y141.751 E14.56993
G1 X108.162 Y141.888 E14.59918
G1 X107.287 Y142.022 E14.6404
G1 X106.008 Y142.043 E14.69996
G1 X103.761 Y142.042 E14.80459
G1 X103.082 Y142.032 E14.83621
G1 X102.209 Y141.961 E14.877
G1 X100.969 Y141.69 E14.9361
G1 X98.778 Y141.169 E15.04097
G1 X98.107 Y140.999 E15.0732
G1 X97.342 Y140.754 E15.1106
G1 X96.154 Y140.187 E15.1719
G1 X94.116 Y139.161 E15.27814
G1 X93.491 Y138.834 E15.31099
G1 X92.779 Y138.399 E15.34984
G1 X91.753 Y137.566 E15.41138
G1 X90.123 Y136.197 E15.51049
G1 X89.517 Y135.67 E15.54789
G1 X88.921 Y135.077 E15.58704
G1 X88.118 Y134.035 E15.6483
G1 X86.839 Y132.311 E15.74825
G1 X86.386 Y131.681 E15.78438
G1 X85.938 Y130.963 E15.82379
G1 X85.445 Y129.867 E15.87975
G1 X84.533 Y127.749 E15.98713
G1 X84.259 Y127.087 E16.02049
G1 X83.992 Y126.292 E16.05954
G1 X83.745 Y125.024 E16.11969
G1 X83.356 Y122.806 E16.22455
G1 X83.248 Y122.128 E16.25652
G1 X83.167 Y121.26 E16.29711
G1 X83.215 Y120.098 E16.35126
G1 X83.349 Y117.788 E16.45901
G1 X83.403 Y117.045 E16.4937
G1 X83.52 Y116.236 E16.53176
G1 X83.711 Y115.352 E16.57387
G1 X83.96 Y114.279 E16.62516
G1 X84.49 Y111.649 E16.75009
G1 X84.943 Y109.024 E16.87413
G1 X85.32 Y106.409 E16.99715
G1 X85.626 Y103.736 E17.12243
G1 X85.853 Y101.104 E17.24544
G1 X86.006 Y98.463 E17.36862
G1 X86.085 Y95.763 E17.4944
G1 X86.089 Y93.124 E17.61728
G1 X85.971 Y89.298 E17.79552
G1 X86.017 Y88.172 E17.848
G1 X86.127 Y86.274 E17.93653
G1 X86.182 Y85.519 E17.97177
G1 X86.288 Y84.729 E18.00889
G1 X86.641 Y83.451 E18.07063
G1 X87.189 Y81.621 E18.15958
G1 X87.406 Y80.934 E18.19313
G1 X87.712 Y80.151 E18.23227
G1 X88.343 Y79.011 E18.29294
G1 X89.247 Y77.445 E18.37714
G1 X89.63 Y76.802 E18.41199
G1 X90.132 Y76.075 E18.45313
M204 S3000
M205 X10 Y10
G0 F3000 X90.546 Y76.452
M204 S1800
M205 X8 Y8
G1 F2400 X91.419 Y75.494 E18.51348
G1 X92.672 Y74.165 E18.59853
G1 X93.163 Y73.658 E18.6314
G1 X93.728 Y73.142 E18.66703
G1 X94.776 Y72.425 E18.72615
G1 X96.388 Y71.363 E18.81604
G1 X96.927 Y71.02 E18.84579
G1 X97.597 Y70.65 E18.88143
G1 X98.781 Y70.196 E18.94047
G1 X100.579 Y69.54 E19.02959
G1 X101.191 Y69.327 E19.05977
G1 X101.926 Y69.121 E19.09531
G1 X103.109 Y68.961 E19.1509
G1 X105.064 Y68.733 E19.24255
G1 X105.737 Y68.664 E19.27405
G1 X106.499 Y68.632 E19.30956
G1 X107.778 Y68.76 E19.36942
G1 X109.6 Y68.973 E19.45483
G1 X110.312 Y69.067 E19.48828
G1 X111.059 Y69.213 E19.52372
G1 X112.305 Y69.642 E19.58508
G1 X114.025 Y70.271 E19.67036
G1 X114.675 Y70.519 E19.70275
G1 X115.366 Y70.832 E19.73807
G1 X116.442 Y71.514 E19.79739
G1 X118.048 Y72.573 E19.88697
G1 X118.581 Y72.936 E19.917
G1 X119.182 Y73.402 E19.95241
G1 X120.08 Y74.324 E20.01234
G1 X121.344 Y75.665 E20.09815
G1 X121.822 Y76.187 E20.13111
G1 X122.305 Y76.784 E20.16687
G1 X122.963 Y77.886 E20.22663
G1 X123.892 Y79.497 E20.31322
G1 X124.229 Y80.101 E20.34543
G1 X124.56 Y80.792 E20.38111
G1 X124.906 Y81.879 E20.43423
G1 X125.483 Y83.812 E20.52816
G1 X125.667 Y84.458 E20.55944
G1 X125.831 Y85.208 E20.59518
G1 X125.925 Y86.469 E20.65406
G1 X126.035 Y88.36 E20.74227
G1 X126.066 Y89.059 E20.77485
G1 X126.026 Y89.979 E20.81773
G1 X125.864 Y91.211 E20.87559
G1 X125.554 Y93.901 E21.00167
G1 X125.321 Y96.58 E21.12689
G1 X125.165 Y99.236 E21.25078
G1 X125.083 Y101.947 E21.37707
G1 X125.077 Y104.615 E21.5013
G1 X125.148 Y107.288 E21.62581
G1 X125.293 Y109.948 E21.74986
G1 X125.516 Y112.635 E21.87541
G1 X126.027 Y116.973 E22.0788
G1 X126.102 Y117.951 E22.12447
G1 X126.234 Y120.238 E22.23114
G1 X126.265 Y120.927 E22.26326
G1 X126.252 Y121.691 E22.29884
G1 X126.051 Y122.959 E22.35862
G1 X125.657 Y125.198 E22.46448
G1 X125.535 Y125.831 E22.49449
G1 X125.346 Y126.563 E22.5297
G1 X124.869 Y127.731 E22.58844
G1 X123.985 Y129.781 E22.6924
G1 X123.703 Y130.412 E22.72458
G1 X123.343 Y131.099 E22.7607
G1 X122.595 Y132.138 E22.82031
G1 X121.308 Y133.87 E22.92079
G1 X120.858 Y134.458 E22.95527
G1 X120.356 Y135.037 E22.99095
G1 X119.369 Y135.894 E23.05181
G1 X117.725 Y137.274 E23.15176
G1 X117.163 Y137.734 E23.18558
G1 X116.538 Y138.185 E23.22147
G1 X115.452 Y138.754 E23.27856
G1 X113.48 Y139.746 E23.38134
G1 X112.806 Y140.073 E23.41623
G1 X112.104 Y140.363 E23.45159
G1 X110.87 Y140.678 E23.5109
G1 X108.653 Y141.204 E23.617
G1 X108.04 Y141.341 E23.64624
G1 X107.278 Y141.462 E23.68217
G1 X106.008 Y141.483 E23.74131
G1 X103.769 Y141.482 E23.84557
G1 X103.09 Y141.472 E23.87719
G1 X102.329 Y141.414 E23.91273
G1 X101.099 Y141.145 E23.97136
G1 X98.916 Y140.626 E24.07584
G1 X98.245 Y140.456 E24.10807
G1 X97.513 Y140.221 E24.14387
G1 X96.406 Y139.687 E24.2011
G1 X94.375 Y138.665 E24.30697
G1 X93.78 Y138.354 E24.33823
G1 X93.132 Y137.964 E24.37345
G1 X92.113 Y137.137 E24.43456
G1 X90.49 Y135.774 E24.53325
G1 X89.91 Y135.271 E24.569
G1 X89.365 Y134.735 E24.60459
G1 X88.568 Y133.701 E24.66538
G1 X87.293 Y131.984 E24.76496
G1 X86.859 Y131.382 E24.79952
G1 X86.449 Y130.733 E24.83527
G1 X85.959 Y129.646 E24.89079
G1 X85.05 Y127.535 E24.99781
G1 X84.789 Y126.905 E25.02956
G1 X84.542 Y126.185 E25.06501
G1 X84.297 Y124.927 E25.12469
G1 X83.909 Y122.718 E25.22912
G1 X83.801 Y122.04 E25.26109
G1 X83.727 Y121.283 E25.29651
G1 X83.774 Y120.131 E25.35019
G1 X83.908 Y117.829 E25.45757
G1 X83.962 Y117.086 E25.49225
G1 X84.067 Y116.355 E25.52664
G1 X84.257 Y115.479 E25.56838
G1 X84.506 Y114.406 E25.61967
G1 X85.039 Y111.76 E25.74535
G1 X85.495 Y109.119 E25.87015
G1 X85.874 Y106.489 E25.99388
G1 X86.184 Y103.784 E26.12066
G1 X86.411 Y101.152 E26.24367
G1 X86.566 Y98.479 E26.36835
G1 X86.645 Y95.779 E26.49412
G1 X86.649 Y93.107 E26.61854
G1 X86.531 Y89.321 E26.79492
G1 X86.576 Y88.205 E26.84693
G1 X86.686 Y86.315 E26.93508
G1 X86.741 Y85.56 E26.97033
G1 X86.843 Y84.804 E27.00586
G1 X87.178 Y83.611 E27.06355
G1 X87.723 Y81.789 E27.15211
G1 X87.929 Y81.134 E27.18408
G1 X88.202 Y80.422 E27.21959
G1 X88.828 Y79.291 E27.27978
G1 X89.728 Y77.732 E27.3636
G1 X90.111 Y77.089 E27.39845
G1 X90.546 Y76.452 E27.43437
M204 S3000
M205 X10 Y10
G1 F2400 E21.43437
;MESH:Light Holder.stl
G0 F3000 X94.203 Y79.271
G0 X94.992 Y80.012
G0 X98.607 Y78.1
M204 S1800
M205 X8 Y8
;TYPE:WALL-INNER
G1 F2400 E27.43437
G1 F958.9 X98.826 Y77.942 E27.45404
G1 F930.2 X99.484 Y77.553 E27.51143
M204 S3000
M205 X10 Y10
G0 F3000 X95.964 Y81.11
M204 S1800
M205 X8 Y8
G1 F1794.9 X96.116 Y80.884 E27.52203
G1 F1690.1 X98.21 Y78.757 E27.64538
G1 F1388.4 X98.627 Y78.083 E27.68525
G1 F1222.7 X97.87 Y78.362 E27.73134
G1 F1288.3 X97.15 Y79.115 E27.78782
G1 F1418.9 X96.429 Y79.869 E27.83917
G1 F1578.9 X95.709 Y80.623 E27.88529
G1 F1631.1 X94.246 Y83.24 E28.01368
G1 F1365.9 X94.18 Y83.761 E28.04054
G1 F1064.6 X94.114 Y84.283 E28.07506
G1 X94.419 Y83.874 E28.10853
G1 F1365.9 X94.725 Y83.464 E28.13469
G1 F1700.4 X95.964 Y81.11 E28.24396
M204 S3000
M205 X10 Y10
G0 F3000 X94.114 Y84.283
M204 S1800
M205 X8 Y8
G1 F972.2 X94.021 Y84.548 E28.26414
G1 F939.6 X93.849 Y85.273 E28.31953
M204 S3000
M205 X10 Y10
G0 F3000 X93.897 Y86.254
M204 S1800
M205 X8 Y8
G1 F1640.6 X94.004 Y85.701 E28.34351
G1 F1176.5 X93.849 Y85.273 E28.37053
G1 X93.525 Y85.593 E28.39757
G1 F1640.6 X93.372 Y86.166 E28.42282
G1 F1647.1 X93.301 Y87.034 E28.45975
G1 F1178.1 X93.502 Y87.445 E28.48687
G1 X93.786 Y87.086 E28.51401
G1 F1647.1 X93.897 Y86.254 E28.54961
M204 S3000
M205 X10 Y10
G0 F3000 X93.502 Y87.445
M204 S1800
M205 X8 Y8
G1 F939.6 X93.395 Y88.454 E28.62503
G1 F975.6 X93.391 Y88.723 E28.64429
M204 S3000
M205 X10 Y10
G0 F3000 X93.656 Y89.169
M204 S1800
M205 X8 Y8
G1 F1237.1 X93.391 Y88.723 E28.67358
G1 F1240.8 X93.168 Y89.204 E28.70343
G1 F1746.4 X93.343 Y90.225 E28.74486
G1 F1171.5 X93.645 Y90.579 E28.7726
G1 X93.816 Y90.147 E28.8003
G1 F1739.1 X93.656 Y89.169 E28.8401
M204 S3000
M205 X10 Y10
G0 F3000 X93.645 Y90.579
M204 S1800
M205 X8 Y8
G1 F895.5 X93.912 Y92.169 E28.96585
G1 F957.8 X94.092 Y92.706 E29.00715
G1 F965.5 X94.609 Y93.81 E29.09534
G1 F887.9 X95.127 Y94.915 E29.19133
G1 F883.3 X95.918 Y96.19 E29.30998
G1 F897.4 X96.908 Y97.336 E29.42785
G1 F914 X97.512 Y97.889 E29.49042
G1 F988.2 X98.116 Y98.442 E29.5483
G1 F1076.9 X98.721 Y98.995 E29.60146
G1 F1064.6 X99.171 Y99.316 E29.63773
G1 F1016.9 X101.858 Y100.676 E29.84457
G1 F1112.6 X102.548 Y100.908 E29.89027
G1 F1147.5 X103.672 Y101.131 E29.96001
G1 F1029.4 X104.797 Y101.354 E30.03783
G1 F1021.9 X106.442 Y101.484 E30.15062
G1 F1050 X107.807 Y101.376 E30.2417
G1 F1074.2 X108.646 Y101.21 E30.29731
G1 F1168.3 X109.486 Y101.043 E30.34852
G1 F1282.4 X110.326 Y100.877 E30.39515
G1 F1274.7 X110.766 Y100.736 E30.42047
G1 F1198.3 X113.466 Y99.369 E30.59687
G1 F1250 X114.016 Y99.004 E30.63375
G1 F1261.3 X114.891 Y98.204 E30.69941
G1 F1157 X115.766 Y97.404 E30.77098
G1 F1163.4 X116.875 Y96.12 E30.87284
G1 F1179.8 X117.583 Y94.978 E30.95238
G1 F1184.8 X117.945 Y94.204 E31.00276
G1 F1282.4 X118.308 Y93.43 E31.04932
G1 F1397.7 X118.671 Y92.655 E31.09209
