;FLAVOR:Marlin
;TIME:1724
;Filament used: 1.97255m
;Layer height: 0.2
;MINX:88.61
;MINY:83.445
;MINZ:0.2
;MAXX:151.376
;MAXY:126.232
;MAXZ:15
;TARGET_MACHINE.NAME:Anycubic i3 Mega
;Generated with Cura_SteamEngine 5.7.0-alpha.0
M140 S60
M105
M190 S60
M104 S200
M105
M109 S200
M82 ;absolute extrusion mode
G21 ;metric values
G90 ;absolute positioning
M82 ;set extruder to absolute mode
M107 ;start with the fan off
G28 X0 Y0 ;move X/Y to min endstops
G28 Z0 ;move Z to min endstops
G1 Z15.0 F100 ;move the platform down 15mm
G92 E0 ;zero the extruded length
G1 F200 E3 ;extrude 3mm of feed stock
G92 E0 ;zero the extruded length again
G1 F100
G0 Y20 F100
M117 Printing...
G5
G92 E0
G92 E0
G1 F2400 E-6
;LAYER_COUNT:75
;LAYER:0
M107
M204 S3000
M205 X10 Y10
G1 F600 Z0.275
G0 F3000 X93.097 Y85.745 Z0.275
M204 S1800
M205 X8 Y8
;TYPE:SKIRT
G1 F600 Z0.2
G1 F2400 E0
G1 X93.587 Y85.222 E0.03337
G1 X94.135 Y84.756 E0.06687
G1 X94.915 Y84.249 E0.11019
G1 X95.623 Y83.914 E0.14666
G1 X96.237 Y83.703 E0.17689
G1 X97.139 Y83.514 E0.2198
G1 X97.882 Y83.449 E0.25453
G1 X110.309 Y83.445 E0.83318
G1 X111.427 Y83.47 E0.88526
G1 X112.801 Y83.565 E0.94939
G1 X115.132 Y83.708 E1.05813
G1 X117.805 Y83.796 E1.18267
G1 X120.418 Y83.808 E1.30434
G1 X123.119 Y83.743 E1.43015
G1 X125.76 Y83.606 E1.55329
G1 X127.565 Y83.469 E1.63758
G1 X128.322 Y83.445 E1.67285
G1 X140.377 Y83.446 E2.23418
G1 X141.075 Y83.456 E2.26668
G1 X141.861 Y83.518 E2.30339
G1 X142.699 Y83.691 E2.34324
G1 X143.315 Y83.897 E2.37348
G1 X144.151 Y84.296 E2.41662
G1 X144.807 Y84.724 E2.45309
G1 X145.357 Y85.184 E2.48648
G1 X145.853 Y85.705 E2.51997
G1 X146.362 Y86.391 E2.55975
G1 X146.747 Y87.078 E2.59642
G1 X147.045 Y87.808 E2.63313
G1 X147.299 Y88.734 E2.67784
G1 X147.557 Y91.11 E2.78913
G1 X147.896 Y93.716 E2.9115
G1 X148.308 Y96.312 E3.03389
G1 X148.797 Y98.911 E3.15704
G1 X149.363 Y101.519 E3.2813
G1 X150.003 Y104.091 E3.40472
G1 X150.712 Y106.648 E3.52828
G1 X151.137 Y108.092 E3.59837
G1 X151.293 Y108.792 E3.63176
G1 X151.376 Y109.642 E3.67153
G1 X151.357 Y110.357 E3.70483
G1 X151.258 Y111.068 E3.73826
G1 X151.059 Y111.829 E3.77489
G1 X150.768 Y112.561 E3.81157
G1 X150.351 Y113.312 E3.85157
G1 X149.776 Y114.082 E3.89631
G1 X148.888 Y115.001 E3.95582
G1 X139.995 Y123.894 E4.54144
G1 X139.416 Y124.454 E4.57895
G1 X138.79 Y124.981 E4.61705
G1 X138.249 Y125.34 E4.64728
G1 X137.483 Y125.725 E4.6872
G1 X136.672 Y126.007 E4.72718
G1 X135.969 Y126.157 E4.76066
G1 X135.17 Y126.228 E4.79801
G1 X134.109 Y126.174 E4.84748
G1 X132.412 Y125.939 E4.92725
G1 X129.804 Y125.625 E5.04957
G1 X127.157 Y125.385 E5.17333
G1 X124.516 Y125.219 E5.29655
G1 X121.843 Y125.127 E5.42109
G1 X119.231 Y125.11 E5.54271
G1 X116.533 Y125.171 E5.66838
G1 X113.95 Y125.302 E5.78881
G1 X111.293 Y125.512 E5.91291
G1 X108.655 Y125.794 E6.03645
G1 X105.823 Y126.18 E6.16954
G1 X105.071 Y126.232 E6.20464
G1 X104.214 Y126.185 E6.2446
G1 X103.442 Y126.041 E6.28117
G1 X102.757 Y125.828 E6.31457
G1 X101.975 Y125.475 E6.35452
G1 X101.296 Y125.054 E6.39173
G1 X100.573 Y124.47 E6.435
G1 X90.935 Y114.84 E7.06942
G1 X90.393 Y114.281 E7.10567
G1 X89.86 Y113.65 E7.14414
G1 X89.434 Y112.994 E7.18056
G1 X89.117 Y112.352 E7.2139
G1 X88.853 Y111.608 E7.25066
G1 X88.671 Y110.77 E7.29059
G1 X88.61 Y110.124 E7.3208
G1 X88.631 Y109.262 E7.36095
G1 X88.777 Y108.356 E7.40368
G1 X89.491 Y105.365 E7.54687
G1 X90.026 Y102.786 E7.66952
G1 X90.484 Y100.216 E7.79107
G1 X90.876 Y97.584 E7.91498
G1 X91.188 Y94.993 E8.0365
G1 X91.433 Y92.327 E8.16116
G1 X91.557 Y90.241 E8.25847
G1 X91.621 Y89.362 E8.29951
G1 X91.737 Y88.551 E8.33765
G1 X91.902 Y87.922 E8.36793
G1 X92.244 Y87.063 E8.41099
G1 X92.557 Y86.493 E8.44127
G1 X93.097 Y85.745 E8.48422
M204 S3000
M205 X10 Y10
G0 F3000 X93.508 Y86.126
M204 S1800
M205 X8 Y8
G1 F2400 X93.95 Y85.649 E8.5145
G1 X94.498 Y85.183 E8.548
G1 X95.157 Y84.754 E8.58461
G1 X95.805 Y84.444 E8.61806
G1 X96.419 Y84.233 E8.6483
G1 X97.188 Y84.072 E8.68488
G1 X97.931 Y84.007 E8.71961
G1 X110.297 Y84.005 E9.29542
G1 X111.388 Y84.029 E9.34624
G1 X112.762 Y84.124 E9.41037
G1 X115.114 Y84.268 E9.52009
G1 X117.787 Y84.356 E9.64462
G1 X120.428 Y84.368 E9.7676
G1 X123.132 Y84.303 E9.89355
G1 X125.789 Y84.165 E10.01744
G1 X127.583 Y84.029 E10.10121
G1 X128.322 Y84.005 E10.13564
G1 X140.369 Y84.006 E10.6966
G1 X141.067 Y84.016 E10.7291
G1 X141.816 Y84.076 E10.76409
G1 X142.521 Y84.222 E10.79762
G1 X143.137 Y84.428 E10.82786
G1 X143.847 Y84.767 E10.8645
G1 X144.45 Y85.156 E10.89791
G1 X144.951 Y85.57 E10.92817
G1 X145.447 Y86.091 E10.96167
G1 X145.875 Y86.667 E10.99509
G1 X146.23 Y87.293 E11.0286
G1 X146.505 Y87.956 E11.06202
G1 X146.747 Y88.837 E11.10456
G1 X147 Y91.17 E11.21383
G1 X147.343 Y93.804 E11.33752
G1 X147.758 Y96.416 E11.46067
G1 X148.25 Y99.03 E11.58452
G1 X148.816 Y101.638 E11.70879
G1 X149.463 Y104.241 E11.83369
G1 X150.173 Y106.798 E11.95725
G1 X150.59 Y108.214 E12.02599
G1 X150.746 Y108.914 E12.05938
G1 X150.816 Y109.63 E12.09288
G1 X150.802 Y110.28 E12.12316
G1 X150.703 Y110.991 E12.15658
G1 X150.518 Y111.685 E12.19003
G1 X150.249 Y112.351 E12.22347
G1 X149.9 Y112.979 E12.25693
G1 X149.373 Y113.693 E12.29825
G1 X148.485 Y114.612 E12.35776
G1 X139.605 Y123.492 E12.94252
G1 X139.053 Y124.027 E12.97831
G1 X138.48 Y124.514 E13.01333
G1 X137.939 Y124.873 E13.04356
G1 X137.297 Y125.197 E13.07705
G1 X136.555 Y125.459 E13.11369
G1 X135.852 Y125.609 E13.14716
G1 X135.123 Y125.67 E13.18122
G1 X134.186 Y125.619 E13.22492
G1 X132.489 Y125.384 E13.30469
G1 X129.855 Y125.067 E13.42823
G1 X127.208 Y124.827 E13.55199
G1 X124.535 Y124.659 E13.6767
G1 X121.862 Y124.567 E13.80124
G1 X119.222 Y124.55 E13.92417
G1 X116.52 Y124.611 E14.05002
G1 X113.913 Y124.743 E14.17157
G1 X111.233 Y124.955 E14.29675
G1 X108.589 Y125.238 E14.42057
G1 X105.784 Y125.621 E14.5524
G1 X105.032 Y125.673 E14.58749
G1 X104.314 Y125.634 E14.62098
G1 X103.608 Y125.506 E14.65439
G1 X102.923 Y125.293 E14.68779
G1 X102.267 Y124.997 E14.7213
G1 X101.648 Y124.618 E14.7551
G1 X100.925 Y124.034 E14.79838
G1 X91.337 Y114.45 E15.42963
G1 X90.795 Y113.891 E15.46589
G1 X90.328 Y113.343 E15.49941
G1 X89.935 Y112.743 E15.53281
G1 X89.644 Y112.162 E15.56307
G1 X89.4 Y111.486 E15.59653
G1 X89.229 Y110.717 E15.63322
G1 X89.168 Y110.071 E15.66343
G1 X89.191 Y109.278 E15.70037
G1 X89.322 Y108.486 E15.73775
G1 X90.036 Y105.495 E15.88094
G1 X90.574 Y102.9 E16.00434
G1 X91.038 Y100.298 E16.12741
G1 X91.43 Y97.666 E16.25132
G1 X91.746 Y95.044 E16.3743
G1 X91.991 Y92.378 E16.49896
G1 X92.116 Y90.281 E16.59678
G1 X92.176 Y89.439 E16.63608
G1 X92.279 Y88.693 E16.67115
G1 X92.444 Y88.064 E16.70143
G1 X92.735 Y87.333 E16.73807
G1 X93.048 Y86.763 E16.76835
G1 X93.508 Y86.126 E16.80493
M204 S3000
M205 X10 Y10
G0 F3000 X93.919 Y86.507
M204 S1800
M205 X8 Y8
G1 F2400 X94.361 Y86.03 E16.83521
G1 X94.858 Y85.612 E16.86545
G1 X95.402 Y85.258 E16.89568
G1 X95.987 Y84.974 E16.92596
G1 X96.601 Y84.763 E16.95619
G1 X97.237 Y84.63 E16.98644
G1 X97.98 Y84.565 E17.02117
G1 X110.285 Y84.565 E17.59414
G1 X111.349 Y84.588 E17.6437
G1 X112.723 Y84.683 E17.70783
G1 X115.096 Y84.828 E17.81853
G1 X117.769 Y84.916 E17.94307
G1 X120.438 Y84.928 E18.06735
G1 X123.145 Y84.863 E18.19343
G1 X125.818 Y84.724 E18.31807
G1 X127.602 Y84.589 E18.40138
G1 X128.322 Y84.565 E18.43492
G1 X140.361 Y84.566 E18.99551
G1 X141.059 Y84.576 E19.02801
G1 X141.706 Y84.625 E19.05823
G1 X142.343 Y84.753 E19.08848
G1 X142.959 Y84.959 E19.11873
G1 X143.546 Y85.239 E19.14901
G1 X144.093 Y85.588 E19.17922
G1 X144.594 Y86.002 E19.20949
G1 X145.039 Y86.475 E19.23973
G1 X145.424 Y86.999 E19.27
G1 X145.741 Y87.566 E19.30025
G1 X145.986 Y88.167 E19.33047
G1 X146.195 Y88.943 E19.36789
G1 X146.443 Y91.23 E19.47501
G1 X146.79 Y93.892 E19.60001
G1 X147.208 Y96.52 E19.72392
G1 X147.703 Y99.149 E19.84849
G1 X148.269 Y101.757 E19.97276
G1 X148.923 Y104.391 E20.09913
G1 X149.633 Y106.948 E20.2227
G1 X150.044 Y108.339 E20.29024
G1 X150.189 Y108.972 E20.32048
G1 X150.256 Y109.618 E20.35072
G1 X150.242 Y110.268 E20.38099
G1 X150.149 Y110.911 E20.41125
G1 X149.978 Y111.537 E20.44146
G1 X149.731 Y112.138 E20.47172
G1 X149.412 Y112.704 E20.50197
G1 X148.97 Y113.304 E20.53667
G1 X148.082 Y114.223 E20.59618
G1 X139.215 Y123.09 E21.18009
G1 X138.663 Y123.625 E21.21588
G1 X138.17 Y124.047 E21.2461
G1 X137.629 Y124.406 E21.27633
G1 X137.047 Y124.696 E21.30661
G1 X136.435 Y124.912 E21.33683
G1 X135.8 Y125.051 E21.3671
G1 X135.153 Y125.111 E21.39735
G1 X134.263 Y125.064 E21.43885
G1 X132.566 Y124.829 E21.51863
G1 X129.906 Y124.509 E21.64338
G1 X127.259 Y124.269 E21.76714
G1 X124.554 Y124.099 E21.89335
G1 X121.881 Y124.007 E22.01789
G1 X119.213 Y123.99 E22.14212
G1 X116.507 Y124.051 E22.26816
G1 X113.876 Y124.184 E22.39082
G1 X111.173 Y124.398 E22.51708
G1 X108.523 Y124.682 E22.64118
G1 X105.708 Y125.066 E22.77348
G1 X105.06 Y125.114 E22.80373
G1 X104.411 Y125.082 E22.83399
G1 X103.771 Y124.97 E22.86424
G1 X103.15 Y124.781 E22.89447
G1 X102.556 Y124.517 E22.92474
G1 X102 Y124.182 E22.95496
G1 X101.277 Y123.598 E22.99824
G1 X91.739 Y114.06 E23.62633
G1 X91.219 Y113.525 E23.66107
G1 X90.795 Y113.033 E23.69132
G1 X90.436 Y112.492 E23.72155
G1 X90.145 Y111.911 E23.75181
G1 X89.928 Y111.299 E23.78204
G1 X89.787 Y110.664 E23.81233
G1 X89.726 Y110.018 E23.84254
G1 X89.744 Y109.368 E23.87282
G1 X89.867 Y108.616 E23.9083
G1 X90.581 Y105.625 E24.05149
G1 X91.122 Y103.014 E24.17565
G1 X91.592 Y100.38 E24.30024
G1 X91.984 Y97.748 E24.42415
G1 X92.304 Y95.095 E24.54858
G1 X92.549 Y92.429 E24.67324
G1 X92.675 Y90.321 E24.77157
G1 X92.735 Y89.479 E24.81088
G1 X92.821 Y88.835 E24.84113
G1 X92.986 Y88.206 E24.87141
G1 X93.226 Y87.603 E24.90163
G1 X93.539 Y87.033 E24.93191
G1 X93.919 Y86.507 E24.96213
M204 S3000
M205 X10 Y10
G1 F2400 E18.96213
;MESH:Arrow.stl
G0 F3000 X97.327 Y90.259
G0 X98.406 Y90.259
G0 X99.377 Y90.942
G0 X99.377 Y91.23
M204 S1800
M205 X8 Y8
;TYPE:WALL-INNER
G1 F2400 E24.96213
G1 F1117 X99.816 Y90.85 E24.99844
G1 X99.162 Y90.71 E25.04026
G1 F1377 X98.857 Y90.71 E25.05573
G1 X98.857 Y91.015 E25.0712
G1 F1130.6 X98.991 Y91.842 E25.12296
G1 X99.377 Y91.23 E25.16766
M204 S3000
M205 X10 Y10
G0 F3000 X99.816 Y90.85
M204 S1800
M205 X8 Y8
G1 F949.2 X108.994 Y90.844 E25.84305
M204 S3000
M205 X10 Y10
G0 F3000 X109.607 Y91.23
M204 S1800
M205 X8 Y8
G1 F1129 X109.993 Y91.842 E25.88781
G1 X110.127 Y91.015 E25.93964
G1 F1377 X110.127 Y90.71 E25.95511
G1 X109.822 Y90.71 E25.97058
G1 F1130.6 X108.994 Y90.844 E26.0224
G1 X109.607 Y91.23 E26.06715
M204 S3000
M205 X10 Y10
G0 F3000 X109.993 Y91.842
M204 S1800
M205 X8 Y8
G1 F958.9 X109.995 Y109.845 E27.37849
M204 S3000
M205 X10 Y10
G0 F3000 X110.815 Y110.409
G0 X111.505 Y110.943
G0 X104.806 Y117.933
G0 X104.992 Y117.748
M204 S1800
M205 X8 Y8
G1 F1416.5 X104.502 Y117.503 E27.4055
G1 F1670 X98.472 Y111.471 E27.76223
G1 F1486.7 X98.176 Y110.998 E27.78844
G1 F1335.5 X98.201 Y110.689 E27.80466
G1 X97.992 Y110.719 E27.8157
G1 X97.104 Y110.719 E27.86214
G1 X97.641 Y111.256 E27.90186
G1 F1486.7 X98.118 Y111.824 E27.93671
G1 F1663.4 X104.198 Y117.901 E28.29767
G1 F1411.8 X104.751 Y118.328 E28.33224
G1 F1231.7 X104.992 Y118.57 E28.35161
G1 X105.232 Y118.329 E28.3709
G1 F1414.1 X105.785 Y117.9 E28.40547
G1 F1653.5 X111.993 Y111.693 E28.77628
G1 F1476.3 X112.342 Y111.257 E28.80271
G1 F1335.5 X112.88 Y110.719 E28.8425
G1 X111.769 Y110.719 E28.90061
G1 X111.807 Y110.998 E28.91533
G1 F1481.5 X111.595 Y111.387 E28.93622
G1 F1663.4 X105.48 Y117.505 E29.29944
G1 F1416.5 X104.992 Y117.748 E29.32632
M204 S3000
M205 X10 Y10
G0 F3000 X104.806 Y117.933
G0 X98.478 Y110.943
G0 X98.99 Y109.847
M204 S1800
M205 X8 Y8
G1 F957.8 X98.991 Y91.842 E30.6393
M204 S3000
M205 X10 Y10
G0 F3000 X98.42 Y110.273
G0 X98.24 Y110.117
M204 S1800
M205 X8 Y8
;TYPE:WALL-OUTER
G1 F1188.1 X97.383 Y110.119 E30.68968
G1 F1296.3 X96.526 Y110.122 E30.73586
G1 F1426.1 X95.669 Y110.125 E30.77783
G1 F1500 X104.992 Y119.448 E31.39176
G1 X114.315 Y110.125 E32.0057
G1 X111.583 Y110.125 E32.13291
G1 F1581.9 X110.953 Y110.093 E32.16076
G1 X110.712 Y109.844 E32.17606
G1 F1500 X110.712 Y90.125 E33.09426
G1 X98.272 Y90.125 E33.67352
G1 X98.272 Y109.846 E34.59182
G1 F1272.7 X98.33 Y110.021 E34.60193
G1 F1123 X98.24 Y110.117 E34.61012
M204 S3000
M205 X10 Y10
G0 F3000 X98.04 Y110.117
G0 X98.04 Y110.745
G0 X104.992 Y118.019
G0 X111.697 Y111.411
G0 X111.217 Y110.931
M204 S1800
M205 X8 Y8
G1 F1500 X111.168 Y111.059 E34.6165
G1 X105.154 Y117.077 E35.01266
G1 X104.992 Y117.127 E35.02056
G1 X104.831 Y117.077 E35.02841
G1 X98.847 Y111.096 E35.42237
G1 X98.766 Y110.931 E35.43092
G1 F1296.3 X98.777 Y110.615 E35.44796
G1 F1123 X98.867 Y110.519 E35.45615
G1 F1272.7 X99.046 Y110.563 E35.46626
G1 F1500 X99.709 Y110.562 E35.49713
G1 X99.709 Y91.842 E36.36882
G1 X99.791 Y91.644 E36.37879
G1 X99.94 Y91.566 E36.38663
G1 X108.994 Y91.562 E36.80822
G1 X109.193 Y91.644 E36.81824
G1 X109.274 Y91.842 E36.8282
G1 X109.276 Y110.562 E37.69988
G1 X109.995 Y110.562 E37.73336
G1 F1584.9 X110.958 Y110.594 E37.77583
G1 X111.174 Y110.735 E37.78719
G1 F1500 X111.217 Y110.931 E37.79654
M204 S3000
M205 X10 Y10
G0 F3000 X111.168 Y111.059
G0 X111.124 Y111.103
G1 F2400 E31.79654
;MESH:Arrow.stl(1)
G0 F3000 X111.564 Y111.544
G0 X114.008 Y110.252
G0 X114.767 Y111.01
G0 X125.218 Y111.011
G0 X125.976 Y110.252
G0 X128.42 Y110.273
G0 X128.99 Y109.847
M204 S1800
M205 X8 Y8
;TYPE:WALL-INNER
G1 F2400 E37.79654
G1 F957.8 X128.991 Y91.842 E39.10951
M204 S3000
M205 X10 Y10
G0 F3000 X129.377 Y91.23
M204 S1800
M205 X8 Y8
G1 F1117 X129.816 Y90.85 E39.14582
G1 X129.162 Y90.71 E39.18764
G1 F1377 X128.857 Y90.71 E39.20311
G1 X128.857 Y91.015 E39.21858
G1 F1130.6 X128.991 Y91.842 E39.27034
G1 X129.377 Y91.23 E39.31504
M204 S3000
M205 X10 Y10
G0 F3000 X129.816 Y90.85
M204 S1800
M205 X8 Y8
G1 F949.2 X138.994 Y90.844 E39.99043
M204 S3000
M205 X10 Y10
G0 F3000 X139.607 Y91.23
M204 S1800
M205 X8 Y8
G1 F1129 X139.993 Y91.842 E40.03519
G1 X140.127 Y91.015 E40.08702
G1 F1377 X140.127 Y90.71 E40.10249
G1 X139.822 Y90.71 E40.11796
G1 F1130.6 X138.994 Y90.844 E40.16978
G1 X139.607 Y91.23 E40.21454
M204 S3000
M205 X10 Y10
G0 F3000 X139.993 Y91.842
M204 S1800
M205 X8 Y8
G1 F958.9 X139.995 Y109.845 E41.52587
M204 S3000
M205 X10 Y10
G0 F3000 X140.815 Y110.409
G0 X141.505 Y110.943
G0 X134.806 Y117.933
G0 X134.992 Y117.748
M204 S1800
M205 X8 Y8
G1 F1416.5 X134.502 Y117.503 E41.55288
G1 F1670 X128.472 Y111.471 E41.90961
G1 F1486.7 X128.176 Y110.998 E41.93582
G1 F1335.5 X128.201 Y110.689 E41.95204
G1 X127.992 Y110.719 E41.96308
G1 X127.104 Y110.719 E42.00952
G1 X127.641 Y111.256 E42.04924
G1 F1486.7 X128.118 Y111.824 E42.08409
G1 F1663.4 X134.198 Y117.901 E42.44506
G1 F1411.8 X134.751 Y118.328 E42.47962
G1 F1231.7 X134.992 Y118.57 E42.49899
G1 X135.232 Y118.329 E42.51828
G1 F1414.1 X135.785 Y117.9 E42.55285
G1 F1653.5 X141.993 Y111.693 E42.92366
G1 F1476.3 X142.342 Y111.257 E42.95009
G1 F1335.5 X142.88 Y110.719 E42.98988
G1 X141.769 Y110.719 E43.04799
G1 X141.807 Y110.998 E43.06271
G1 F1481.5 X141.595 Y111.387 E43.0836
G1 F1663.4 X135.48 Y117.505 E43.44682
G1 F1416.5 X134.992 Y117.748 E43.4737
M204 S3000
M205 X10 Y10
G0 F3000 X134.806 Y117.933
G0 X141.977 Y111.037
G0 X141.174 Y110.735
M204 S1800
M205 X8 Y8
;TYPE:WALL-OUTER
G1 F1500 X141.217 Y110.931 E43.48305
G1 X141.168 Y111.059 E43.48943
G1 X135.154 Y117.077 E43.88559
G1 X134.992 Y117.127 E43.89349
G1 X134.831 Y117.077 E43.90134
G1 X128.847 Y111.096 E44.2953
G1 X128.766 Y110.931 E44.30386
G1 F1296.3 X128.777 Y110.615 E44.32089
G1 F1123 X128.867 Y110.519 E44.32908
G1 F1272.7 X129.046 Y110.563 E44.33919
G1 F1500 X129.709 Y110.562 E44.37006
G1 X129.709 Y91.842 E45.24175
G1 X129.791 Y91.644 E45.25173
G1 X129.94 Y91.566 E45.25956
G1 X138.994 Y91.562 E45.68115
G1 X139.193 Y91.644 E45.69117
G1 X139.274 Y91.842 E45.70113
G1 X139.276 Y110.562 E46.57281
G1 X139.995 Y110.562 E46.60629
G1 F1584.9 X140.958 Y110.594 E46.64876
G1 X141.174 Y110.735 E46.66012
M204 S3000
M205 X10 Y10
G0 F3000 X141.216 Y110.93
G0 X141.697 Y111.411
G0 X134.992 Y118.019
G0 X128.006 Y111.037
G0 X128.24 Y110.117
M204 S1800
M205 X8 Y8
G1 F1188.1 X127.383 Y110.119 E46.7105
G1 F1296.3 X126.526 Y110.122 E46.75668
G1 F1426.1 X125.669 Y110.125 E46.79865
