;FLAVOR:Marlin
;TIME:1335
;Filament used: 1.17951m
;Layer height: 0.2
;MINX:80.1
;MINY:81.019
;MINZ:0.2
;MAXX:130
;MAXY:128.981
;MAXZ:7.2
;TARGET_MACHINE.NAME:Anycubic i3 Mega
;Generated with Cura_SteamEngine 5.7.0-alpha.0
M140 S60
M105
M190 S60
M104 S220
M105
M109 S220
M82 ;absolute extrusion mode
G21 ;metric values
G90 ;absolute positioning
M82 ;set extruder to absolute mode
M107 ;start with the fan off
G28 X0 Y0 ;move X/Y to min endstops
G28 Z0 ;move Z to min endstops
G1 Z15.0 F100 ;move the platform down 15mm
G92 E0 ;zero the extruded length
G1 F200 E3 ;extrude 3mm of feed stock
G92 E0 ;zero the extruded length again
G1 F100
G0 Y20 F100
M117 Printing...
G5
G92 E0
G92 E0
G1 F2400 E-6
;LAYER_COUNT:36
;LAYER:0
M107
M204 S3000
M205 X10 Y10
G1 F600 Z0.275
G0 F3000 X82.491 Y92.329 Z0.275
M204 S1800
M205 X8 Y8
;TYPE:SKIRT
G1 F600 Z0.2
G1 F2400 E0
G1 X83.218 Y91.82 E0.04132
G1 X85.361 Y90.572 E0.1568
G1 X87.615 Y89.182 E0.28011
G1 X89.836 Y87.726 E0.40377
G1 X91.981 Y86.229 E0.52557
G1 X95.282 Y83.775 E0.7171
G1 X95.958 Y83.354 E0.75418
G1 X96.678 Y82.953 E0.79256
G1 X97.823 Y82.385 E0.85207
G1 X98.583 Y82.078 E0.89024
G1 X99.491 Y81.764 E0.93497
G1 X100.602 Y81.465 E0.98855
G1 X101.221 Y81.331 E1.01804
G1 X102.232 Y81.164 E1.06575
G1 X102.824 Y81.096 E1.0935
G1 X103.846 Y81.029 E1.14119
G1 X104.416 Y81.019 E1.16774
G1 X105.396 Y81.049 E1.21339
G1 X106.019 Y81.1 E1.2425
G1 X107.037 Y81.232 E1.2903
G1 X107.588 Y81.333 E1.31638
G1 X108.927 Y81.65 E1.38045
G1 X110.051 Y82.025 E1.43563
G1 X110.806 Y82.314 E1.47327
G1 X111.326 Y82.548 E1.49982
G1 X111.935 Y82.847 E1.53142
G1 X113.104 Y83.519 E1.5942
G1 X113.628 Y83.854 E1.62316
G1 X114.594 Y84.529 E1.67804
G1 X116.81 Y86.031 E1.80269
G1 X119 Y87.429 E1.92367
G1 X121.331 Y88.823 E2.05014
G1 X123.6 Y90.095 E2.17127
G1 X126.581 Y91.65 E2.32782
G1 X127.28 Y92.079 E2.36601
G1 X127.791 Y92.48 E2.39626
G1 X128.443 Y93.136 E2.43933
G1 X128.841 Y93.65 E2.4696
G1 X129.314 Y94.447 E2.51275
G1 X129.622 Y95.169 E2.5493
G1 X129.823 Y95.855 E2.58259
G1 X129.946 Y96.563 E2.61605
G1 X130 Y97.63 E2.6658
G1 X130 Y111.852 E3.32803
G1 X129.99 Y112.582 E3.36203
G1 X129.928 Y113.369 E3.39879
G1 X129.754 Y114.21 E3.43878
G1 X129.499 Y114.947 E3.47509
G1 X129.22 Y115.534 E3.50536
G1 X128.721 Y116.317 E3.54859
G1 X128.26 Y116.868 E3.58204
G1 X127.633 Y117.453 E3.62197
G1 X126.856 Y118.008 E3.66643
G1 X125.761 Y118.581 E3.72398
G1 X123.375 Y119.872 E3.8503
G1 X121.121 Y121.176 E3.97156
G1 X118.828 Y122.589 E4.09697
G1 X116.676 Y124 E4.2168
G1 X113.426 Y126.28 E4.40166
G1 X112.85 Y126.642 E4.43334
G1 X112.17 Y127.023 E4.46963
G1 X111.276 Y127.467 E4.51611
G1 X110.517 Y127.805 E4.5548
G1 X109.968 Y128.011 E4.5821
G1 X109.13 Y128.284 E4.62314
G1 X108.2 Y128.535 E4.668
G1 X107.579 Y128.669 E4.69758
G1 X106.568 Y128.836 E4.74529
G1 X105.976 Y128.904 E4.77304
G1 X104.954 Y128.971 E4.82073
G1 X104.384 Y128.981 E4.84728
G1 X103.404 Y128.951 E4.89293
G1 X102.781 Y128.9 E4.92204
G1 X101.763 Y128.768 E4.96984
G1 X101.212 Y128.667 E4.99592
G1 X99.873 Y128.35 E5.06
G1 X98.744 Y127.973 E5.11542
G1 X97.775 Y127.597 E5.16382
G1 X96.806 Y127.121 E5.21409
G1 X95.861 Y126.579 E5.26482
G1 X94.971 Y126.014 E5.3139
G1 X93.139 Y124.615 E5.42124
G1 X90.962 Y123 E5.54746
G1 X88.819 Y121.503 E5.66918
G1 X86.591 Y120.036 E5.79339
G1 X84.339 Y118.645 E5.91665
G1 X83.253 Y118.003 E5.97539
G1 X82.549 Y117.518 E6.0152
G1 X82.06 Y117.091 E6.04543
G1 X81.441 Y116.398 E6.0887
G1 X81.001 Y115.749 E6.12521
G1 X80.672 Y115.113 E6.15855
G1 X80.393 Y114.373 E6.19537
G1 X80.208 Y113.602 E6.23229
G1 X80.1 Y112.532 E6.28237
G1 X80.101 Y97.879 E6.96468
G1 X80.111 Y97.21 E6.99583
G1 X80.183 Y96.352 E7.03592
G1 X80.347 Y95.586 E7.0724
G1 X80.553 Y94.97 E7.10264
G1 X80.953 Y94.132 E7.14588
G1 X81.344 Y93.529 E7.17935
G1 X81.847 Y92.924 E7.21598
G1 X82.491 Y92.329 E7.25681
M204 S3000
M205 X10 Y10
G0 F3000 X82.812 Y92.788
M204 S1800
M205 X8 Y8
G1 F2400 X83.539 Y92.279 E7.29813
G1 X85.655 Y91.049 E7.4121
G1 X87.909 Y89.659 E7.53541
G1 X90.143 Y88.194 E7.65981
G1 X92.31 Y86.682 E7.78285
G1 X95.578 Y84.25 E7.97253
G1 X96.231 Y83.843 E8.00836
G1 X96.928 Y83.454 E8.04553
G1 X98.033 Y82.904 E8.103
G1 X98.767 Y82.607 E8.13987
G1 X99.637 Y82.305 E8.18275
G1 X100.748 Y82.006 E8.23633
G1 X101.312 Y81.884 E8.2632
G1 X102.323 Y81.717 E8.31091
G1 X102.861 Y81.655 E8.33613
G1 X103.856 Y81.589 E8.38256
G1 X104.399 Y81.579 E8.40785
G1 X105.379 Y81.609 E8.45351
G1 X105.947 Y81.655 E8.48004
G1 X106.937 Y81.783 E8.52652
G1 X107.46 Y81.878 E8.55127
G1 X108.75 Y82.181 E8.61298
G1 X109.851 Y82.548 E8.66702
G1 X110.576 Y82.825 E8.70316
G1 X111.079 Y83.051 E8.72883
G1 X111.688 Y83.35 E8.76042
G1 X112.803 Y83.991 E8.82031
G1 X113.307 Y84.313 E8.84816
G1 X114.28 Y84.993 E8.90344
G1 X116.496 Y86.495 E9.02809
G1 X118.713 Y87.91 E9.15056
G1 X121.044 Y89.304 E9.27703
G1 X123.341 Y90.592 E9.39965
G1 X126.29 Y92.129 E9.5545
G1 X126.934 Y92.52 E9.58958
G1 X127.445 Y92.921 E9.61983
G1 X128 Y93.479 E9.65648
G1 X128.398 Y93.993 E9.68675
G1 X128.8 Y94.669 E9.72337
G1 X129.085 Y95.329 E9.75685
G1 X129.271 Y95.951 E9.78708
G1 X129.394 Y96.659 E9.82054
G1 X129.44 Y97.63 E9.8658
G1 X129.44 Y111.844 E10.52766
G1 X129.43 Y112.574 E10.56166
G1 X129.37 Y113.324 E10.59669
G1 X129.224 Y114.029 E10.63022
G1 X128.993 Y114.707 E10.66357
G1 X128.714 Y115.294 E10.69383
G1 X128.291 Y115.958 E10.73049
G1 X127.83 Y116.509 E10.76395
G1 X127.305 Y116.999 E10.79739
G1 X126.596 Y117.512 E10.83814
G1 X125.501 Y118.085 E10.89568
G1 X123.109 Y119.379 E11.02232
G1 X120.827 Y120.699 E11.14507
G1 X118.534 Y122.112 E11.27049
G1 X116.354 Y123.542 E11.39189
G1 X113.104 Y125.822 E11.57675
G1 X112.576 Y126.153 E11.60577
G1 X111.896 Y126.534 E11.64206
G1 X111.048 Y126.956 E11.68617
G1 X110.32 Y127.281 E11.72329
G1 X109.794 Y127.479 E11.74946
G1 X108.984 Y127.743 E11.78913
G1 X108.054 Y127.994 E11.83399
G1 X107.488 Y128.116 E11.86095
G1 X106.477 Y128.283 E11.90866
G1 X105.939 Y128.345 E11.93388
G1 X104.944 Y128.411 E11.98031
G1 X104.401 Y128.421 E12.0056
G1 X103.421 Y128.391 E12.05125
G1 X102.853 Y128.345 E12.07779
G1 X101.863 Y128.217 E12.12427
G1 X101.34 Y128.122 E12.14902
G1 X100.05 Y127.819 E12.21073
G1 X98.946 Y127.451 E12.26491
G1 X98.021 Y127.094 E12.31108
G1 X97.084 Y126.635 E12.35967
G1 X96.16 Y126.106 E12.40924
G1 X95.311 Y125.569 E12.45602
G1 X93.473 Y124.165 E12.56372
G1 X91.296 Y122.55 E12.68994
G1 X89.127 Y121.035 E12.81313
G1 X86.899 Y119.568 E12.93735
G1 X84.624 Y118.163 E13.06185
G1 X83.538 Y117.521 E13.1206
G1 X82.917 Y117.096 E13.15564
G1 X82.428 Y116.669 E13.18587
G1 X81.903 Y116.082 E13.22254
G1 X81.497 Y115.489 E13.256
G1 X81.195 Y114.913 E13.28629
G1 X80.938 Y114.242 E13.31974
G1 X80.753 Y113.471 E13.35666
G1 X80.66 Y112.532 E13.4006
G1 X80.661 Y97.887 E14.08253
G1 X80.671 Y97.218 E14.11369
G1 X80.731 Y96.467 E14.14877
G1 X80.878 Y95.764 E14.18221
G1 X81.084 Y95.148 E14.21246
G1 X81.423 Y94.437 E14.24914
G1 X81.814 Y93.834 E14.2826
G1 X82.276 Y93.284 E14.31605
G1 X82.812 Y92.788 E14.35005
M204 S3000
M205 X10 Y10
G0 F3000 X83.133 Y93.247
M204 S1800
M205 X8 Y8
G1 F2400 X83.86 Y92.738 E14.39138
G1 X85.949 Y91.526 E14.50383
G1 X88.203 Y90.136 E14.62714
G1 X90.45 Y88.662 E14.75228
G1 X92.639 Y87.135 E14.87655
G1 X95.875 Y84.725 E15.06443
G1 X96.504 Y84.332 E15.09897
G1 X97.178 Y83.955 E15.13493
G1 X98.244 Y83.423 E15.1904
G1 X98.951 Y83.136 E15.22593
G1 X99.783 Y82.846 E15.26696
G1 X100.894 Y82.547 E15.32054
G1 X101.404 Y82.436 E15.34484
G1 X102.387 Y82.273 E15.39124
G1 X102.898 Y82.214 E15.41519
G1 X103.867 Y82.149 E15.46041
G1 X104.382 Y82.139 E15.4844
G1 X105.362 Y82.169 E15.53005
G1 X105.875 Y82.21 E15.55401
G1 X106.837 Y82.334 E15.59918
G1 X107.36 Y82.429 E15.62393
G1 X108.573 Y82.712 E15.68193
G1 X109.651 Y83.071 E15.73484
G1 X110.376 Y83.348 E15.77098
G1 X110.832 Y83.554 E15.79428
G1 X111.441 Y83.853 E15.82587
G1 X112.502 Y84.463 E15.88285
G1 X112.986 Y84.772 E15.90959
G1 X113.966 Y85.457 E15.96527
G1 X116.182 Y86.959 E16.08992
G1 X118.426 Y88.391 E16.21388
G1 X120.757 Y89.785 E16.34035
G1 X123.082 Y91.089 E16.46447
G1 X126.031 Y92.626 E16.61932
G1 X126.588 Y92.961 E16.64959
G1 X127.099 Y93.362 E16.67983
G1 X127.557 Y93.822 E16.71006
G1 X127.955 Y94.336 E16.74033
G1 X128.287 Y94.894 E16.77056
G1 X128.548 Y95.489 E16.80082
G1 X128.734 Y96.111 E16.83105
G1 X128.842 Y96.752 E16.86132
G1 X128.88 Y97.63 E16.90224
G1 X128.88 Y111.836 E17.56373
G1 X128.87 Y112.566 E17.59772
G1 X128.821 Y113.214 E17.62798
G1 X128.693 Y113.851 E17.65824
G1 X128.487 Y114.467 E17.68848
G1 X128.208 Y115.054 E17.71875
G1 X127.859 Y115.601 E17.74896
G1 X127.445 Y116.102 E17.77922
G1 X126.973 Y116.548 E17.80946
G1 X126.336 Y117.016 E17.84627
G1 X125.241 Y117.589 E17.90381
G1 X122.843 Y118.886 E18.03076
G1 X120.533 Y120.222 E18.15502
G1 X118.24 Y121.635 E18.28043
G1 X116.032 Y123.084 E18.40341
G1 X112.782 Y125.363 E18.58824
G1 X112.302 Y125.664 E18.61463
G1 X111.622 Y126.045 E18.65092
G1 X110.819 Y126.445 E18.69269
G1 X110.122 Y126.757 E18.72825
G1 X109.62 Y126.947 E18.75325
G1 X108.838 Y127.202 E18.79155
G1 X107.908 Y127.453 E18.8364
G1 X107.396 Y127.564 E18.86079
G1 X106.413 Y127.727 E18.90719
G1 X105.902 Y127.786 E18.93114
G1 X104.933 Y127.851 E18.97637
G1 X104.418 Y127.861 E19.00035
G1 X103.438 Y127.831 E19.04601
G1 X102.925 Y127.79 E19.06997
G1 X101.963 Y127.666 E19.11514
G1 X101.44 Y127.571 E19.13989
G1 X100.227 Y127.288 E19.19789
G1 X99.146 Y126.928 E19.25094
G1 X98.267 Y126.591 E19.29477
G1 X97.362 Y126.149 E19.34167
G1 X96.458 Y125.632 E19.39016
G1 X95.651 Y125.124 E19.43457
G1 X93.807 Y123.715 E19.54263
G1 X91.63 Y122.1 E19.66885
G1 X89.435 Y120.567 E19.79351
G1 X87.207 Y119.1 E19.91773
G1 X84.909 Y117.681 E20.04349
G1 X83.823 Y117.039 E20.10223
G1 X83.285 Y116.674 E20.13251
G1 X82.796 Y116.247 E20.16274
G1 X82.363 Y115.763 E20.19298
G1 X81.993 Y115.229 E20.22323
G1 X81.691 Y114.653 E20.25351
G1 X81.462 Y114.045 E20.28376
G1 X81.31 Y113.414 E20.31399
G1 X81.22 Y112.532 E20.35527
G1 X81.221 Y97.895 E21.03683
G1 X81.231 Y97.226 E21.06798
G1 X81.28 Y96.578 E21.09824
G1 X81.409 Y95.942 E21.12846
G1 X81.615 Y95.326 E21.15871
G1 X81.895 Y94.739 E21.18899
G1 X82.245 Y94.192 E21.21923
G1 X82.66 Y93.692 E21.24948
G1 X83.133 Y93.247 E21.27972
M204 S3000
M205 X10 Y10
G1 F2400 E15.27972
;MESH:SG90 Holder Back (1).stl
G0 F3000 X86.914 Y96.635
G0 X86.914 Y97.714
G0 X95.103 Y98.722
M204 S1800
M205 X8 Y8
;TYPE:WALL-INNER
G1 F2400 E21.27972
G1 F910.1 X95.545 Y98.4 E21.32169
M204 S3000
M205 X10 Y10
G0 F3000 X89.847 Y103.751
G0 X89.497 Y104.825
G0 X89.847 Y105.899
G0 X91.329 Y107.203
M204 S1800
M205 X8 Y8
G1 F1500 X90.662 Y107.12 E21.35299
G1 X90.119 Y106.867 E21.38089
G1 X89.76 Y106.608 E21.4015
G1 X89.542 Y106.39 E21.41585
G1 X89.282 Y106.029 E21.43657
G1 X89.016 Y105.369 E21.46971
G1 X88.946 Y104.825 E21.49524
G1 X89.014 Y104.294 E21.52017
G1 X89.145 Y103.893 E21.53982
G1 X89.282 Y103.621 E21.554
G1 X89.542 Y103.26 E21.57471
G1 X89.76 Y103.042 E21.58907
G1 X90.121 Y102.782 E21.60978
G1 X90.557 Y102.575 E21.63226
G1 X91.093 Y102.465 E21.65774
G1 X91.434 Y102.443 E21.67365
G1 X92.036 Y102.556 E21.70217
G1 X92.563 Y102.806 E21.72933
G1 X92.646 Y102.397 E21.74876
G1 X93.355 Y100.892 E21.82623
G1 X93.543 Y100.596 E21.84256
G1 X94.502 Y99.437 E21.9126
G1 X94.756 Y99.198 E21.92884
G1 F1133.6 X95.103 Y98.722 E21.96514
G1 X94.56 Y98.692 E21.99865
G1 F1500 X94.405 Y98.7 E22.00587
G1 X87.901 Y98.701 E22.30873
G1 X87.9 Y111.1 E22.88608
G1 X96.025 Y111.099 E23.26441
G1 X95.492 Y110.807 E23.29271
G1 X95.206 Y110.6 E23.30915
G1 X94.104 Y109.564 E23.37958
G1 X93.881 Y109.293 E23.39592
G1 X92.985 Y107.877 E23.47395
G1 X92.63 Y106.794 E23.52701
G1 X92.257 Y107.005 E23.54697
G1 X91.918 Y107.124 E23.5637
G1 X91.329 Y107.203 E23.59137
M204 S3000
M205 X10 Y10
G0 F3000 X95.668 Y110.261
G0 X97.024 Y111.008
G0 X98.714 Y111.574
M204 S1800
M205 X8 Y8
G1 F1173.2 X98.944 Y111.589 E23.60509
G1 F1196.6 X100.456 Y111.589 E23.69335
G1 F1173.2 X100.686 Y111.574 E23.70707
M204 S3000
M205 X10 Y10
G0 F3000 X102.225 Y111.091
G0 X108.545 Y108.03
G0 X109.553 Y107.174
G0 X110.221 Y106.061
G0 X110.456 Y104.8
G0 X110.244 Y103.665
G0 X106.39 Y94.97
G0 X106.364 Y94.918
M204 S1800
M205 X8 Y8
G1 F1500 X105.43 Y95.389 E23.75578
G1 X104.408 Y95.555 E23.80399
G1 X103.371 Y95.388 E23.8529
G1 X102.418 Y94.902 E23.90272
G1 X101.695 Y94.177 E23.95039
G1 X101.213 Y93.234 E23.99971
G1 X101.044 Y92.2 E24.04849
G1 X101.211 Y91.165 E24.09731
G1 X101.684 Y90.232 E24.14602
G1 X102.336 Y89.58 E24.18895
G1 X102.549 Y89.424 E24.20125
G1 X102.897 Y89.249 E24.21938
G1 F1431 X103.371 Y88.974 E24.24613
G1 F1372.5 X104.398 Y88.834 E24.29888
G1 F1365.9 X105.424 Y88.969 E24.3518
G1 F1423.7 X106.464 Y89.58 E24.41097
G1 F1500 X107.115 Y90.23 E24.45381
G1 X107.587 Y91.159 E24.50233
G1 X107.754 Y92.2 E24.55142
G1 X107.588 Y93.233 E24.60014
G1 X107.161 Y94.077 E24.64418
G1 X107.031 Y94.254 E24.65441
G1 X106.364 Y94.918 E24.69823
M204 S3000
M205 X10 Y10
G0 F3000 X106.39 Y94.97
G0 X113.715 Y98.524
M204 S1800
M205 X8 Y8
G1 F1500 X113.359 Y98.243 E24.71935
G1 X113.149 Y97.94 E24.73652
G1 X113.002 Y97.487 E24.7587
G1 X112.957 Y96.563 E24.80177
G1 X112.831 Y95.72 E24.84146
G1 X112.617 Y94.868 E24.88237
G1 X112.346 Y94.115 E24.91963
G1 X111.979 Y93.343 E24.95943
G1 X111.546 Y92.619 E24.99872
G1 X111.044 Y91.943 E25.03792
G1 X110.478 Y91.317 E25.07722
G1 X109.858 Y90.756 E25.11615
G1 X109.181 Y90.254 E25.1554
G1 X108.449 Y89.817 E25.1951
G1 X107.685 Y89.455 E25.23446
G1 X106.819 Y89.143 E25.27732
G1 X107.457 Y89.781 E25.31934
G1 X107.675 Y90.096 E25.33718
G1 X108.127 Y90.987 E25.3837
G1 X108.322 Y92.201 E25.44095
G1 X108.148 Y93.269 E25.49134
G1 X108.068 Y93.521 E25.50365
G1 X107.571 Y94.506 E25.55502
G1 X106.691 Y95.381 E25.61281
G1 X105.741 Y95.859 E25.66233
G1 X105.397 Y95.962 E25.67905
G1 X104.624 Y96.086 E25.7155
G1 X104.262 Y96.098 E25.73237
G1 X103.209 Y95.929 E25.78203
G1 X102.099 Y95.376 E25.83977
G1 X101.22 Y94.491 E25.89785
G1 X100.733 Y93.523 E25.94831
G1 X100.652 Y93.268 E25.96077
G1 X100.477 Y92.199 E26.01121
G1 X100.672 Y90.991 E26.06819
G1 X101.124 Y90.097 E26.11483
G1 X101.343 Y89.781 E26.13274
G1 X101.965 Y89.159 E26.1737
G1 X101.867 Y89.183 E26.17839
G1 X101.106 Y89.458 E26.21607
G1 X100.352 Y89.817 E26.25496
G1 X99.619 Y90.254 E26.29469
G1 X98.943 Y90.757 E26.33393
G1 X98.317 Y91.322 E26.3732
G1 X97.757 Y91.942 E26.4121
G1 X97.254 Y92.619 E26.45137
G1 X96.817 Y93.351 E26.49107
G1 X96.454 Y94.115 E26.53045
G1 X96.183 Y94.868 E26.56772
G1 X95.967 Y95.727 E26.60896
G1 X95.844 Y96.563 E26.64831
G1 X95.792 Y97.582 E26.69582
G1 X95.622 Y97.992 E26.71649
G1 F1132.1 X95.545 Y98.4 E26.7421
G1 X95.977 Y98.309 E26.76934
G1 F1500 X96.177 Y98.182 E26.78037
G1 X97.855 Y97.518 E26.8644
G1 X99.7 Y97.286 E26.95099
G1 X101.539 Y97.516 E27.03729
G1 X103.27 Y98.201 E27.12397
G1 X104.783 Y99.298 E27.211
G1 X105.635 Y100.328 E27.27324
G1 X106.134 Y100.311 E27.29649
G1 X107.452 Y100.485 E27.35839
G1 X108.846 Y101.088 E27.42912
G1 X109.99 Y102.06 E27.49902
G1 X110.674 Y103.209 E27.56128
G1 X110.783 Y103.5 E27.57575
G1 X110.987 Y104.585 E27.62716
G1 X110.984 Y105.032 E27.64797
G1 X110.781 Y106.108 E27.69896
G1 X110.684 Y106.382 E27.71249
G1 X110.107 Y107.344 E27.76473
G1 X109.813 Y107.69 E27.78587
G1 X109.005 Y108.377 E27.83526
G1 X108.654 Y108.596 E27.85452
G1 X107.632 Y109.037 E27.90635
G1 X107.318 Y109.131 E27.92161
G1 X105.998 Y109.308 E27.98363
G1 X105.54 Y109.261 E28.00507
G1 X105.386 Y109.479 E28.01749
G1 X104.194 Y110.6 E28.09369
G1 X103.908 Y110.807 E28.11013
G1 X103.375 Y111.099 E28.13843
G1 X122.2 Y111.1 E29.015
G1 X122.2 Y98.7 E29.59239
G1 X114.3 Y98.697 E29.96025
G1 X114.022 Y98.65 E29.97338
G1 X113.715 Y98.524 E29.98883
M204 S3000
M205 X10 Y10
G0 F3000 X99.7 Y97.852
G0 X94.776 Y98.2
G0 X94.776 Y98.056
M204 S1800
M205 X8 Y8
G1 F1500 X94.498 Y98.136 E30.0023
G1 X87.341 Y98.141 E30.33556
G1 X87.34 Y111.66 E30.96506
G1 X97.209 Y111.66 E31.4246
G1 F1395.3 X97.961 Y111.617 E31.46231
G1 F1222.7 X98.714 Y111.574 E31.50539
G1 X97.145 Y111.076 E31.59943
G1 F1348.3 X95.667 Y110.264 E31.68679
G1 F1445.8 X94.412 Y109.085 E31.76997
G1 F1500 X93.495 Y107.637 E31.84978
