;FLAVOR:Marlin
;TIME:679
;Filament used: 0.538982m
;Layer height: 0.2
;MINX:78.618
;MINY:72.629
;MINZ:0.2
;MAXX:131.382
;MAXY:113.123
;MAXZ:5
;TARGET_MACHINE.NAME:Anycubic i3 Mega
;Generated with Cura_SteamEngine 5.7.0-alpha.0
M140 S60
M105
M190 S60
M104 S200
M105
M109 S200
M82 ;absolute extrusion mode
G21 ;metric values
G90 ;absolute positioning
M82 ;set extruder to absolute mode
M107 ;start with the fan off
G28 X0 Y0 ;move X/Y to min endstops
G28 Z0 ;move Z to min endstops
G1 Z15.0 F100 ;move the platform down 15mm
G92 E0 ;zero the extruded length
G1 F200 E3 ;extrude 3mm of feed stock
G92 E0 ;zero the extruded length again
G1 F100
G0 Y20 F100
M117 Printing...
G5
G92 E0
G92 E0
G1 F2400 E-6
;LAYER_COUNT:25
;LAYER:0
M107
M204 S3000
M205 X10 Y10
G1 F600 Z0.275
G0 F3000 X81.89 Y76.044 Z0.275
M204 S1800
M205 X8 Y8
;TYPE:SKIRT
G1 F600 Z0.2
G1 F2400 E0
G1 X81.443 Y76.523 E0.03051
G1 X81.024 Y77.03 E0.06113
G1 X80.588 Y77.63 E0.09567
G1 X80.178 Y78.278 E0.13138
G1 X79.857 Y78.864 E0.16249
G1 X79.587 Y79.431 E0.19173
G1 X79.336 Y80.05 E0.22283
G1 X79.094 Y80.774 E0.25838
G1 X78.902 Y81.502 E0.29344
G1 X78.762 Y82.21 E0.32704
G1 X78.684 Y82.783 E0.35397
G1 X78.626 Y83.566 E0.39053
G1 X78.618 Y84.194 E0.41978
G1 X78.656 Y84.974 E0.45614
G1 X78.724 Y85.592 E0.48509
G1 X78.851 Y86.334 E0.52014
G1 X79.002 Y86.972 E0.55067
G1 X79.224 Y87.699 E0.58607
G1 X79.454 Y88.316 E0.61673
G1 X79.74 Y88.964 E0.64971
G1 X80.068 Y89.597 E0.68291
G1 X80.398 Y90.149 E0.71285
G1 X80.84 Y90.794 E0.74926
G1 X81.302 Y91.382 E0.78408
G1 X81.853 Y92 E0.82264
G1 X83.256 Y93.507 E0.91851
G1 X84.999 Y95.478 E1.04103
G1 X86.71 Y97.525 E1.16526
G1 X88.375 Y99.638 E1.29052
G1 X89.918 Y101.713 E1.41093
G1 X91.477 Y103.939 E1.53747
G1 X93.208 Y106.574 E1.68428
G1 X93.547 Y107.074 E1.71241
G1 X94.126 Y107.875 E1.75843
G1 X94.638 Y108.485 E1.79551
G1 X95.189 Y109.053 E1.83236
G1 X95.747 Y109.594 E1.86855
G1 X96.392 Y110.138 E1.90784
G1 X96.939 Y110.536 E1.93934
G1 X97.689 Y111.047 E1.9816
G1 X98.42 Y111.471 E2.02095
G1 X99.126 Y111.814 E2.0575
G1 X99.932 Y112.173 E2.09858
G1 X100.658 Y112.436 E2.13454
G1 X101.279 Y112.613 E2.1646
G1 X102.158 Y112.835 E2.20682
G1 X102.99 Y112.984 E2.24618
G1 X103.794 Y113.066 E2.28381
G1 X104.57 Y113.123 E2.32004
G1 X105.457 Y113.123 E2.36134
G1 X106.077 Y113.078 E2.39029
G1 X107.018 Y112.982 E2.43433
G1 X107.82 Y112.841 E2.47225
G1 X108.579 Y112.649 E2.5087
G1 X109.385 Y112.418 E2.54775
G1 X110.134 Y112.147 E2.58484
G1 X110.694 Y111.899 E2.61335
G1 X111.576 Y111.471 E2.659
G1 X112.322 Y111.042 E2.69908
G1 X112.817 Y110.709 E2.72685
G1 X113.593 Y110.149 E2.77141
G1 X114.235 Y109.612 E2.81039
G1 X114.686 Y109.178 E2.83953
G1 X115.347 Y108.498 E2.88369
G1 X115.881 Y107.866 E2.92222
G1 X116.282 Y107.317 E2.95387
G1 X116.952 Y106.329 E3.00946
G1 X117.688 Y105.189 E3.07265
G1 X119.189 Y102.972 E3.19731
G1 X120.739 Y100.818 E3.32088
G1 X122.358 Y98.696 E3.44517
G1 X123.999 Y96.667 E3.56668
G1 X125.727 Y94.65 E3.69035
G1 X127.518 Y92.675 E3.8145
G1 X128.318 Y91.814 E3.86922
G1 X129 Y91.005 E3.91849
G1 X129.435 Y90.408 E3.95289
G1 X129.798 Y89.834 E3.98451
G1 X130.113 Y89.261 E4.01496
G1 X130.454 Y88.538 E4.05218
G1 X130.718 Y87.875 E4.08541
G1 X130.906 Y87.303 E4.11345
G1 X131.086 Y86.62 E4.14634
G1 X131.23 Y85.896 E4.18071
G1 X131.319 Y85.247 E4.21121
G1 X131.374 Y84.501 E4.24605
G1 X131.382 Y83.861 E4.27585
G1 X131.347 Y83.112 E4.31076
G1 X131.272 Y82.443 E4.34211
G1 X131.138 Y81.685 E4.37795
G1 X130.991 Y81.069 E4.40744
G1 X130.776 Y80.361 E4.4419
G1 X130.549 Y79.752 E4.47216
G1 X130.245 Y79.068 E4.50701
G1 X129.942 Y78.486 E4.53757
G1 X129.564 Y77.858 E4.5717
G1 X129.137 Y77.24 E4.60668
G1 X128.773 Y76.776 E4.63414
G1 X128.277 Y76.217 E4.66893
G1 X127.778 Y75.72 E4.70173
G1 X127.235 Y75.243 E4.73538
G1 X126.701 Y74.829 E4.76685
G1 X126.112 Y74.427 E4.80005
G1 X125.554 Y74.094 E4.83031
G1 X124.847 Y73.73 E4.86734
G1 X124.283 Y73.483 E4.89601
G1 X123.591 Y73.229 E4.93033
G1 X122.863 Y73.014 E4.96568
G1 X122.245 Y72.872 E4.9952
G1 X121.523 Y72.75 E5.0293
G1 X120.929 Y72.684 E5.05713
G1 X120.224 Y72.646 E5.09001
G1 X119.385 Y72.629 E5.12908
G1 X90.822 Y72.629 E6.45909
G1 X89.6 Y72.649 E6.516
G1 X88.779 Y72.714 E6.55435
G1 X88.071 Y72.814 E6.58765
G1 X87.325 Y72.967 E6.62311
G1 X86.713 Y73.132 E6.65262
G1 X86.081 Y73.343 E6.68365
G1 X85.328 Y73.651 E6.72153
G1 X84.767 Y73.923 E6.75056
G1 X84.099 Y74.298 E6.78623
G1 X83.562 Y74.644 E6.81598
G1 X82.995 Y75.06 E6.84872
G1 X82.424 Y75.537 E6.88337
G1 X81.89 Y76.044 E6.91765
M204 S3000
M205 X10 Y10
G0 F3000 X82.299 Y76.426
M204 S1800
M205 X8 Y8
G1 F2400 X82.784 Y75.966 E6.94878
G1 X83.326 Y75.512 E6.9817
G1 X83.893 Y75.096 E7.01445
G1 X84.402 Y74.769 E7.04262
G1 X85.011 Y74.427 E7.07514
G1 X85.572 Y74.155 E7.10417
G1 X86.259 Y73.874 E7.13874
G1 X86.859 Y73.673 E7.1682
G1 X87.471 Y73.508 E7.19771
G1 X88.15 Y73.368 E7.23
G1 X88.824 Y73.272 E7.2617
G1 X89.609 Y73.209 E7.29837
G1 X90.831 Y73.189 E7.35528
G1 X119.374 Y73.189 E8.68436
G1 X120.194 Y73.205 E8.72255
G1 X120.867 Y73.241 E8.75393
G1 X121.461 Y73.307 E8.78176
G1 X122.12 Y73.418 E8.81288
G1 X122.738 Y73.56 E8.84241
G1 X123.399 Y73.755 E8.8745
G1 X124.058 Y73.996 E8.90717
G1 X124.622 Y74.243 E8.93584
G1 X125.267 Y74.575 E8.96962
G1 X125.796 Y74.89 E8.99829
G1 X126.385 Y75.292 E9.03149
G1 X126.865 Y75.664 E9.05977
G1 X127.408 Y76.141 E9.09342
G1 X127.881 Y76.613 E9.12454
G1 X128.332 Y77.122 E9.15621
G1 X128.696 Y77.586 E9.18367
G1 X129.103 Y78.176 E9.21704
G1 X129.445 Y78.745 E9.24795
G1 X129.748 Y79.327 E9.27851
G1 X130.024 Y79.948 E9.31015
G1 X130.251 Y80.557 E9.34042
G1 X130.446 Y81.199 E9.37166
G1 X130.593 Y81.815 E9.40115
G1 X130.715 Y82.505 E9.43377
G1 X130.79 Y83.174 E9.46512
G1 X130.822 Y83.854 E9.49682
G1 X130.814 Y84.494 E9.52662
G1 X130.764 Y85.171 E9.55823
G1 X130.675 Y85.82 E9.58874
G1 X130.544 Y86.477 E9.61993
G1 X130.364 Y87.16 E9.65282
G1 X130.186 Y87.699 E9.67925
G1 X129.934 Y88.33 E9.71089
G1 X129.622 Y88.991 E9.74493
G1 X129.307 Y89.564 E9.77537
G1 X128.982 Y90.078 E9.80369
G1 X128.547 Y90.675 E9.83809
G1 X127.908 Y91.433 E9.88425
G1 X127.108 Y92.294 E9.93898
G1 X125.312 Y94.274 E10.06345
G1 X123.574 Y96.303 E10.18785
G1 X121.913 Y98.356 E10.31082
G1 X120.284 Y100.491 E10.43587
G1 X118.734 Y102.645 E10.55943
G1 X117.224 Y104.875 E10.68484
G1 X116.489 Y106.015 E10.748
G1 X115.829 Y106.988 E10.80274
G1 X115.453 Y107.505 E10.83251
G1 X114.945 Y108.108 E10.86923
G1 X114.297 Y108.775 E10.91253
G1 X113.875 Y109.183 E10.93986
G1 X113.265 Y109.695 E10.97694
G1 X112.504 Y110.244 E11.02064
G1 X112.009 Y110.577 E11.04842
G1 X111.332 Y110.967 E11.0848
G1 X110.466 Y111.387 E11.12961
G1 X109.943 Y111.62 E11.15628
G1 X109.194 Y111.891 E11.19336
G1 X108.441 Y112.106 E11.22983
G1 X107.723 Y112.289 E11.26433
G1 X106.921 Y112.43 E11.30225
G1 X106.036 Y112.519 E11.34366
G1 X105.416 Y112.564 E11.37261
G1 X104.61 Y112.564 E11.41014
G1 X103.85 Y112.509 E11.44562
G1 X103.088 Y112.433 E11.48128
G1 X102.295 Y112.292 E11.51879
G1 X101.432 Y112.074 E11.56023
G1 X100.849 Y111.909 E11.58845
G1 X100.123 Y111.646 E11.6244
G1 X99.37 Y111.31 E11.6628
G1 X98.7 Y110.986 E11.69745
G1 X98.004 Y110.584 E11.73488
G1 X97.268 Y110.083 E11.77633
G1 X96.752 Y109.709 E11.80601
G1 X96.137 Y109.192 E11.84342
G1 X95.59 Y108.662 E11.87889
G1 X95.067 Y108.125 E11.91379
G1 X94.555 Y107.515 E11.95087
G1 X94.01 Y106.759 E11.99427
G1 X93.676 Y106.267 E12.02196
G1 X91.936 Y103.618 E12.16954
G1 X90.377 Y101.392 E12.29608
G1 X88.815 Y99.291 E12.41799
G1 X87.15 Y97.178 E12.54325
G1 X85.429 Y95.119 E12.66821
G1 X83.675 Y93.136 E12.79149
G1 X82.271 Y91.627 E12.88746
G1 X81.72 Y91.009 E12.92601
G1 X81.281 Y90.449 E12.95915
G1 X80.879 Y89.862 E12.99228
G1 X80.549 Y89.31 E13.02222
G1 X80.252 Y88.737 E13.05227
G1 X79.979 Y88.12 E13.08369
G1 X79.749 Y87.503 E13.11435
G1 X79.547 Y86.843 E13.14649
G1 X79.396 Y86.205 E13.17702
G1 X79.281 Y85.531 E13.20886
G1 X79.213 Y84.913 E13.23781
G1 X79.178 Y84.201 E13.271
G1 X79.186 Y83.573 E13.30025
G1 X79.239 Y82.859 E13.33359
G1 X79.317 Y82.286 E13.36051
G1 X79.451 Y81.611 E13.39256
G1 X79.625 Y80.951 E13.42434
G1 X79.855 Y80.26 E13.45825
G1 X80.093 Y79.672 E13.48779
G1 X80.363 Y79.105 E13.51703
G1 X80.669 Y78.547 E13.54666
G1 X81.041 Y77.959 E13.57906
G1 X81.456 Y77.387 E13.61197
G1 X81.875 Y76.88 E13.6426
G1 X82.299 Y76.426 E13.67152
M204 S3000
M205 X10 Y10
G0 F3000 X82.708 Y76.809
M204 S1800
M205 X8 Y8
G1 F2400 X83.169 Y76.373 E13.70107
G1 X83.658 Y75.963 E13.73078
G1 X84.196 Y75.567 E13.76189
G1 X84.705 Y75.24 E13.79006
G1 X85.255 Y74.931 E13.81944
G1 X85.816 Y74.659 E13.84847
G1 X86.437 Y74.405 E13.87971
G1 X87.005 Y74.214 E13.90761
G1 X87.617 Y74.049 E13.93713
G1 X88.23 Y73.922 E13.96628
G1 X88.87 Y73.83 E13.99638
G1 X89.618 Y73.769 E14.03133
G1 X90.84 Y73.749 E14.08824
G1 X119.364 Y73.749 E15.41644
G1 X120.164 Y73.764 E15.45369
G1 X120.805 Y73.798 E15.48358
G1 X121.399 Y73.864 E15.51141
G1 X121.995 Y73.964 E15.53955
G1 X122.613 Y74.106 E15.56908
G1 X123.207 Y74.281 E15.59791
G1 X123.833 Y74.509 E15.62894
G1 X124.397 Y74.756 E15.65761
G1 X124.98 Y75.056 E15.68814
G1 X125.509 Y75.371 E15.71681
G1 X126.042 Y75.735 E15.74686
G1 X126.522 Y76.107 E15.77514
G1 X127.013 Y76.538 E15.80556
G1 X127.462 Y76.985 E15.83506
G1 X127.891 Y77.468 E15.86514
G1 X128.255 Y77.932 E15.8926
G1 X128.623 Y78.465 E15.92276
G1 X128.948 Y79.004 E15.95207
G1 X129.251 Y79.586 E15.98262
G1 X129.499 Y80.144 E16.01106
G1 X129.726 Y80.753 E16.04132
G1 X129.901 Y81.329 E16.06935
G1 X130.048 Y81.945 E16.09884
G1 X130.158 Y82.567 E16.12825
G1 X130.233 Y83.236 E16.1596
G1 X130.262 Y83.847 E16.18808
G1 X130.254 Y84.487 E16.21788
G1 X130.209 Y85.095 E16.24627
G1 X130.12 Y85.744 E16.27678
G1 X129.995 Y86.367 E16.30636
G1 X129.832 Y86.984 E16.33608
G1 X129.654 Y87.523 E16.36251
G1 X129.414 Y88.122 E16.39256
G1 X129.131 Y88.721 E16.42341
G1 X128.816 Y89.294 E16.45385
G1 X128.509 Y89.778 E16.48054
G1 X128.119 Y90.314 E16.51141
G1 X127.498 Y91.052 E16.55632
G1 X126.698 Y91.913 E16.61105
G1 X124.897 Y93.898 E16.73585
G1 X123.149 Y95.939 E16.86098
G1 X121.468 Y98.016 E16.9854
G1 X119.829 Y100.164 E17.11121
G1 X118.279 Y102.318 E17.23478
G1 X116.76 Y104.561 E17.36092
G1 X116.025 Y105.701 E17.42408
G1 X115.375 Y106.66 E17.47803
G1 X115.024 Y107.145 E17.5059
G1 X114.543 Y107.718 E17.54074
G1 X113.907 Y108.373 E17.58325
G1 X113.514 Y108.755 E17.60877
G1 X112.937 Y109.241 E17.6439
G1 X112.19 Y109.78 E17.68679
G1 X111.729 Y110.092 E17.71271
G1 X111.087 Y110.463 E17.74724
G1 X110.237 Y110.876 E17.79124
G1 X109.751 Y111.094 E17.81605
G1 X109.04 Y111.353 E17.85128
G1 X108.301 Y111.564 E17.88707
G1 X107.625 Y111.738 E17.91957
G1 X106.865 Y111.873 E17.95551
G1 X105.995 Y111.961 E17.99623
G1 X105.415 Y112.004 E18.02331
G1 X104.65 Y112.005 E18.05893
G1 X103.905 Y111.952 E18.09371
G1 X103.185 Y111.881 E18.1274
G1 X102.432 Y111.749 E18.163
G1 X101.584 Y111.535 E18.20372
G1 X101.04 Y111.382 E18.23004
G1 X100.314 Y111.119 E18.26599
G1 X99.612 Y110.805 E18.3018
G1 X98.979 Y110.501 E18.3345
G1 X98.319 Y110.121 E18.36996
G1 X97.596 Y109.629 E18.41068
G1 X97.112 Y109.28 E18.43847
G1 X96.527 Y108.79 E18.474
G1 X95.99 Y108.27 E18.50881
G1 X95.495 Y107.764 E18.54177
G1 X95.009 Y107.187 E18.5769
G1 X94.473 Y106.445 E18.61952
G1 X94.144 Y105.96 E18.64681
G1 X92.395 Y103.297 E18.79516
G1 X90.836 Y101.071 E18.92171
G1 X89.255 Y98.944 E19.04511
G1 X87.59 Y96.831 E19.17038
G1 X85.859 Y94.76 E19.29606
G1 X84.094 Y92.765 E19.42009
G1 X82.689 Y91.254 E19.51617
G1 X82.138 Y90.636 E19.55472
G1 X81.722 Y90.104 E19.58617
G1 X81.36 Y89.575 E19.61602
G1 X81.03 Y89.023 E19.64596
G1 X80.764 Y88.51 E19.67287
G1 X80.504 Y87.924 E19.70272
G1 X80.274 Y87.307 E19.73338
G1 X80.083 Y86.68 E19.7639
G1 X79.948 Y86.11 E19.79118
G1 X79.838 Y85.47 E19.82142
G1 X79.77 Y84.852 E19.85037
G1 X79.738 Y84.208 E19.88039
G1 X79.746 Y83.58 E19.90964
G1 X79.794 Y82.935 E19.93975
G1 X79.872 Y82.362 E19.96668
G1 X80 Y81.721 E19.99712
G1 X80.166 Y81.095 E20.02728
G1 X80.374 Y80.47 E20.05795
G1 X80.599 Y79.913 E20.08592
G1 X80.869 Y79.346 E20.11516
G1 X81.16 Y78.817 E20.14328
G1 X81.514 Y78.259 E20.17405
G1 X81.888 Y77.744 E20.20368
G1 X82.307 Y77.237 E20.23431
G1 X82.708 Y76.809 E20.26162
M204 S3000
M205 X10 Y10
G1 F2400 E14.26162
;MESH:Label (Sign).stl
G0 F3000 X89.239 Y78.419
G0 X89.438 Y79.485
G0 X120.215 Y87.629
M204 S1800
M205 X8 Y8
;TYPE:WALL-INNER
G1 F2400 E20.26162
G1 F1500 X120.661 Y87.573 E20.28255
G1 X121.096 Y87.464 E20.30343
G1 X121.501 Y87.307 E20.32366
G1 X121.893 Y87.097 E20.34437
G1 X122.26 Y86.837 E20.36531
G1 X122.582 Y86.543 E20.38561
G1 X122.868 Y86.209 E20.40609
G1 X123.119 Y85.828 E20.42733
G1 X123.317 Y85.433 E20.44791
G1 X123.46 Y85.026 E20.46799
G1 X123.556 Y84.582 E20.48915
G1 X123.597 Y84.142 E20.50972
G1 X123.584 Y83.695 E20.53055
G1 X123.516 Y83.259 E20.55109
G1 X123.398 Y82.843 E20.57123
G1 X123.222 Y82.431 E20.59209
G1 X123 Y82.046 E20.61278
G1 X122.729 Y81.685 E20.6338
G1 X122.429 Y81.374 E20.65392
G1 X122.083 Y81.096 E20.67459
G1 X121.707 Y80.864 E20.69516
G1 X121.3 Y80.676 E20.71604
G1 X120.872 Y80.54 E20.73695
G1 X120.447 Y80.461 E20.75708
G1 X119.953 Y80.429 E20.78013
G1 X90.047 Y80.429 E22.17268
G1 X89.553 Y80.46 E22.19573
G1 X89.128 Y80.54 E22.21586
G1 X88.7 Y80.675 E22.23676
G1 X88.293 Y80.864 E22.25766
G1 X87.917 Y81.097 E22.27825
G1 X87.572 Y81.374 E22.29886
G1 X87.271 Y81.685 E22.31901
G1 X86.997 Y82.048 E22.34019
G1 X86.776 Y82.432 E22.36082
G1 X86.603 Y82.841 E22.3815
G1 X86.482 Y83.267 E22.40212
G1 X86.417 Y83.695 E22.42227
G1 X86.402 Y84.149 E22.44343
G1 X86.443 Y84.579 E22.46354
G1 X86.54 Y85.026 E22.48484
G1 X86.682 Y85.433 E22.50491
G1 X86.881 Y85.828 E22.52551
G1 X87.132 Y86.209 E22.54675
G1 X87.418 Y86.543 E22.56723
G1 X87.74 Y86.836 E22.5875
G1 X88.107 Y87.097 E22.60847
G1 X88.499 Y87.307 E22.62917
G1 X88.904 Y87.464 E22.6494
G1 X89.339 Y87.573 E22.67028
G1 X89.785 Y87.629 E22.69121
G1 X120.215 Y87.629 E24.10816
M204 S3000
M205 X10 Y10
G0 F3000 X120.249 Y88.189
M204 S1800
M205 X8 Y8
G1 F1500 X120.765 Y88.124 E24.13238
G1 X121.266 Y87.998 E24.15643
G1 X121.735 Y87.817 E24.17984
G1 X122.188 Y87.574 E24.20378
G1 X122.612 Y87.273 E24.22799
G1 X122.985 Y86.933 E24.25149
G1 X123.316 Y86.547 E24.27517
G1 X123.605 Y86.109 E24.2996
G1 X123.834 Y85.651 E24.32345
G1 X124 Y85.178 E24.34679
G1 X124.111 Y84.667 E24.37114
G1 X124.158 Y84.158 E24.39494
G1 X124.143 Y83.644 E24.41888
G1 X124.064 Y83.139 E24.44269
G1 X123.927 Y82.656 E24.46606
G1 X123.725 Y82.181 E24.4901
G1 X123.468 Y81.736 E24.51403
G1 X123.155 Y81.32 E24.53827
G1 X122.807 Y80.96 E24.56158
G1 X122.407 Y80.638 E24.58549
G1 X121.973 Y80.37 E24.60925
G1 X121.503 Y80.152 E24.63337
G1 X121.009 Y79.996 E24.65749
G1 X120.516 Y79.904 E24.68084
G1 X119.97 Y79.869 E24.70632
G1 X90.03 Y79.869 E26.10045
G1 X89.484 Y79.904 E26.12593
G1 X88.991 Y79.996 E26.14928
G1 X88.497 Y80.152 E26.1734
G1 X88.027 Y80.37 E26.19753
G1 X87.593 Y80.639 E26.2213
G1 X87.193 Y80.96 E26.24519
G1 X86.845 Y81.321 E26.26853
G1 X86.529 Y81.738 E26.2929
G1 X86.273 Y82.182 E26.31676
G1 X86.074 Y82.655 E26.34066
G1 X85.934 Y83.148 E26.36452
G1 X85.858 Y83.643 E26.38784
G1 X85.842 Y84.166 E26.4122
G1 X85.888 Y84.665 E26.43554
G1 X86 Y85.178 E26.45999
G1 X86.166 Y85.651 E26.48333
G1 X86.395 Y86.109 E26.50717
G1 X86.684 Y86.547 E26.53161
G1 X87.015 Y86.933 E26.55529
G1 X87.388 Y87.273 E26.57879
G1 X87.812 Y87.574 E26.603
G1 X88.265 Y87.817 E26.62694
G1 X88.734 Y87.998 E26.65035
G1 X89.235 Y88.124 E26.6744
G1 X89.751 Y88.189 E26.69862
G1 X120.249 Y88.189 E28.11873
M204 S3000
M205 X10 Y10
G0 F3000 X120.284 Y88.749
M204 S1800
M205 X8 Y8
;TYPE:WALL-OUTER
G1 F1500 X120.868 Y88.676 E28.14614
G1 X121.436 Y88.533 E28.17341
G1 X121.969 Y88.327 E28.20002
G1 X122.484 Y88.051 E28.22723
G1 X122.964 Y87.71 E28.25464
G1 X123.388 Y87.323 E28.28137
G1 X123.764 Y86.885 E28.30825
G1 X124.091 Y86.39 E28.33588
G1 X124.351 Y85.87 E28.36295
G1 X124.54 Y85.331 E28.38954
G1 X124.666 Y84.752 E28.41714
G1 X124.719 Y84.174 E28.44416
G1 X124.701 Y83.592 E28.47128
G1 X124.612 Y83.019 E28.49828
G1 X124.456 Y82.47 E28.52485
G1 X124.227 Y81.93 E28.55217
G1 X123.936 Y81.425 E28.57931
