;FLAVOR:Marlin
;TIME:1433
;Filament used: 0.693179m
;Layer height: 0.2
;MINX:91.722
;MINY:69.781
;MINZ:0.2
;MAXX:118.276
;MAXY:140.076
;MAXZ:31.2
;TARGET_MACHINE.NAME:Anycubic i3 Mega
;Generated with Cura_SteamEngine 5.7.0-alpha.0
M140 S60
M105
M190 S60
M104 S200
M105
M109 S200
M82 ;absolute extrusion mode
G21 ;metric values
G90 ;absolute positioning
M82 ;set extruder to absolute mode
M107 ;start with the fan off
G28 X0 Y0 ;move X/Y to min endstops
G28 Z0 ;move Z to min endstops
G1 Z15.0 F100 ;move the platform down 15mm
G92 E0 ;zero the extruded length
G1 F200 E3 ;extrude 3mm of feed stock
G92 E0 ;zero the extruded length again
G1 F100
G0 Y20 F100
M117 Printing...
G5
G92 E0
G92 E0
G1 F2400 E-6
;LAYER_COUNT:156
;LAYER:0
M107
M204 S3000
M205 X10 Y10
G1 F600 Z0.275
G0 F3000 X94.58 Y74.515 Z0.275
M204 S1800
M205 X8 Y8
;TYPE:SKIRT
G1 F600 Z0.2
G1 F2400 E0
G1 X95.183 Y73.878 E0.04084
G1 X95.923 Y73.149 E0.08921
G1 X96.627 Y72.558 E0.13201
G1 X97.209 Y72.139 E0.16541
G1 X97.687 Y71.833 E0.19183
G1 X98.477 Y71.385 E0.23412
G1 X99.133 Y71.034 E0.26877
G1 X99.844 Y70.715 E0.30505
G1 X100.459 Y70.518 E0.33512
G1 X102.103 Y70.091 E0.41422
G1 X102.768 Y69.938 E0.44599
G1 X103.627 Y69.804 E0.48647
G1 X104.431 Y69.781 E0.52393
G1 X105.188 Y69.813 E0.55921
G1 X106.753 Y69.92 E0.63225
G1 X107.612 Y70.04 E0.67264
G1 X108.366 Y70.244 E0.70901
G1 X108.935 Y70.444 E0.73709
G1 X110.199 Y70.936 E0.80025
G1 X111.16 Y71.418 E0.85031
G1 X112.238 Y72.087 E0.90939
G1 X112.911 Y72.537 E0.94709
G1 X113.699 Y73.167 E0.99406
G1 X114.439 Y73.868 E1.04153
G1 X115.026 Y74.454 E1.08015
G1 X115.638 Y75.16 E1.12366
G1 X116.443 Y76.386 E1.19195
G1 X116.784 Y76.942 E1.22232
G1 X117.114 Y77.57 E1.25535
G1 X117.344 Y78.143 E1.28411
G1 X117.655 Y79.071 E1.32968
G1 X117.849 Y79.706 E1.3606
G1 X118.081 Y80.818 E1.41349
G1 X118.218 Y81.984 E1.46816
G1 X118.265 Y82.561 E1.49511
G1 X118.276 Y83.451 E1.53656
G1 X118.152 Y84.602 E1.59047
G1 X118.021 Y85.536 E1.63438
G1 X117.548 Y88.198 E1.76028
G1 X117.156 Y90.845 E1.88488
G1 X116.843 Y93.469 E2.00793
G1 X116.602 Y96.106 E2.13123
G1 X116.436 Y98.763 E2.25519
G1 X116.347 Y101.406 E2.37833
G1 X116.331 Y104.043 E2.50112
G1 X116.392 Y106.718 E2.62571
G1 X116.521 Y109.289 E2.74558
G1 X116.738 Y112.037 E2.87394
G1 X116.902 Y113.737 E2.95346
G1 X116.925 Y114.386 E2.9837
G1 X116.843 Y115.312 E3.02699
G1 X116.635 Y116.228 E3.07073
G1 X116.15 Y117.524 E3.13516
G1 X115.842 Y118.315 E3.17469
G1 X114.955 Y120.796 E3.29738
G1 X114.144 Y123.285 E3.41927
G1 X113.382 Y125.863 E3.54445
G1 X112.708 Y128.414 E3.66731
G1 X112.109 Y130.974 E3.78973
G1 X111.632 Y133.382 E3.90404
G1 X111.369 Y134.648 E3.96425
G1 X111.177 Y135.34 E3.99769
G1 X110.848 Y136.13 E4.03754
G1 X110.456 Y136.812 E4.07416
G1 X109.994 Y137.429 E4.11006
G1 X109.652 Y137.8 E4.13355
G1 X109.16 Y138.283 E4.16566
G1 X108.565 Y138.792 E4.20212
G1 X108.027 Y139.156 E4.23236
G1 X107.198 Y139.578 E4.27568
G1 X106.461 Y139.836 E4.31204
G1 X105.828 Y139.982 E4.34229
G1 X104.903 Y140.076 E4.38558
G1 X104.11 Y140.05 E4.42253
G1 X103.391 Y139.94 E4.4564
G1 X102.715 Y139.788 E4.48866
G1 X101.964 Y139.562 E4.52518
G1 X101.367 Y139.306 E4.55542
G1 X100.629 Y138.88 E4.5951
G1 X100.003 Y138.403 E4.63175
G1 X99.44 Y137.854 E4.66837
G1 X98.946 Y137.234 E4.70528
G1 X98.498 Y136.492 E4.74564
G1 X98.092 Y135.56 E4.79298
G1 X97.822 Y134.69 E4.83539
G1 X97.646 Y133.976 E4.86964
G1 X97.153 Y131.193 E5.00124
G1 X96.633 Y128.67 E5.12119
G1 X96.016 Y126.048 E5.24662
G1 X95.333 Y123.487 E5.37004
G1 X94.586 Y120.968 E5.49238
G1 X93.769 Y118.474 E5.61458
G1 X93.289 Y117.146 E5.68034
G1 X92.89 Y115.998 E5.73693
G1 X92.676 Y115.208 E5.77504
G1 X92.572 Y114.499 E5.80841
G1 X92.545 Y113.66 E5.8475
G1 X92.721 Y112.053 E5.92277
G1 X93 Y109.325 E6.05046
G1 X93.195 Y106.69 E6.17349
G1 X93.315 Y104.043 E6.29688
G1 X93.36 Y101.41 E6.4195
G1 X93.33 Y98.77 E6.54243
G1 X93.225 Y96.103 E6.66672
G1 X93.047 Y93.462 E6.78997
G1 X92.795 Y90.84 E6.91263
G1 X92.47 Y88.238 E7.03473
G1 X92.014 Y85.393 E7.16889
G1 X91.994 Y85.203 E7.17779
G1 X91.786 Y83.851 E7.24149
G1 X91.722 Y82.804 E7.29033
G1 X91.751 Y81.772 E7.3384
G1 X91.789 Y81.121 E7.36877
G1 X91.912 Y80.166 E7.4136
G1 X92.219 Y79.022 E7.46876
G1 X92.409 Y78.377 E7.50007
G1 X92.655 Y77.705 E7.53339
G1 X92.964 Y77.083 E7.56573
G1 X93.559 Y76.047 E7.62136
G1 X94.016 Y75.302 E7.66206
G1 X94.58 Y74.515 E7.70714
M204 S3000
M205 X10 Y10
G0 F3000 X94.987 Y74.9
M204 S1800
M205 X8 Y8
G1 F2400 X95.577 Y74.276 E7.74713
G1 X96.284 Y73.577 E7.79342
G1 X96.954 Y73.012 E7.83423
G1 X97.511 Y72.611 E7.86619
G1 X97.989 Y72.305 E7.89262
G1 X98.742 Y71.878 E7.93293
G1 X99.364 Y71.544 E7.9658
G1 X100.016 Y71.248 E7.99914
G1 X100.6 Y71.06 E8.02771
G1 X102.229 Y70.637 E8.10608
G1 X102.894 Y70.484 E8.13785
G1 X103.644 Y70.364 E8.17322
G1 X104.408 Y70.341 E8.20881
G1 X105.15 Y70.372 E8.24339
G1 X106.715 Y70.479 E8.31644
G1 X107.466 Y70.581 E8.35173
G1 X108.22 Y70.785 E8.3881
G1 X108.733 Y70.966 E8.41343
G1 X109.949 Y71.437 E8.47415
G1 X110.865 Y71.894 E8.52182
G1 X111.928 Y72.553 E8.58006
G1 X112.562 Y72.975 E8.61552
G1 X113.314 Y73.574 E8.66029
G1 X114.044 Y74.265 E8.70709
G1 X114.605 Y74.823 E8.74394
G1 X115.17 Y75.468 E8.78386
G1 X115.966 Y76.679 E8.85134
G1 X116.289 Y77.205 E8.88009
G1 X116.594 Y77.779 E8.91035
G1 X116.824 Y78.352 E8.9391
G1 X117.119 Y79.235 E8.98245
G1 X117.313 Y79.87 E9.01337
G1 X117.525 Y80.883 E9.06156
G1 X117.66 Y82.031 E9.11539
G1 X117.705 Y82.571 E9.14062
G1 X117.719 Y83.391 E9.17881
G1 X117.597 Y84.524 E9.23187
G1 X117.466 Y85.458 E9.27578
G1 X116.994 Y88.116 E9.40149
G1 X116.602 Y90.763 E9.52609
G1 X116.285 Y93.418 E9.65059
G1 X116.044 Y96.055 E9.7739
G1 X115.877 Y98.728 E9.8986
G1 X115.787 Y101.387 E10.02249
G1 X115.771 Y104.04 E10.14603
G1 X115.832 Y106.731 E10.27136
G1 X115.963 Y109.333 E10.39268
G1 X116.181 Y112.091 E10.5215
G1 X116.342 Y113.757 E10.59944
G1 X116.365 Y114.406 E10.62968
G1 X116.296 Y115.191 E10.66637
G1 X116.11 Y116.032 E10.70648
G1 X115.628 Y117.321 E10.77056
G1 X115.32 Y118.112 E10.81008
G1 X114.428 Y120.607 E10.93346
G1 X113.607 Y123.126 E11.05683
G1 X112.845 Y125.704 E11.18201
G1 X112.167 Y128.271 E11.30564
G1 X111.564 Y130.846 E11.42878
G1 X111.084 Y133.268 E11.54376
G1 X110.829 Y134.498 E11.60225
G1 X110.637 Y135.19 E11.63569
G1 X110.361 Y135.853 E11.66913
G1 X110.006 Y136.478 E11.7026
G1 X109.582 Y137.049 E11.73571
G1 X109.24 Y137.42 E11.75921
G1 X108.794 Y137.859 E11.78835
G1 X108.251 Y138.328 E11.82176
G1 X107.713 Y138.692 E11.85201
G1 X107.01 Y139.05 E11.88874
G1 X106.335 Y139.29 E11.9221
G1 X105.702 Y139.436 E11.95235
G1 X104.918 Y139.516 E11.98904
G1 X104.195 Y139.496 E12.02272
G1 X103.476 Y139.386 E12.05659
G1 X102.874 Y139.251 E12.08532
G1 X102.185 Y139.047 E12.11878
G1 X101.588 Y138.791 E12.14903
G1 X100.966 Y138.433 E12.18244
G1 X100.392 Y138 E12.21592
G1 X99.876 Y137.502 E12.24932
G1 X99.424 Y136.942 E12.28283
G1 X99.011 Y136.267 E12.31967
G1 X98.627 Y135.394 E12.36408
G1 X98.357 Y134.524 E12.4065
G1 X98.19 Y133.843 E12.43915
G1 X97.704 Y131.095 E12.56909
G1 X97.178 Y128.542 E12.69047
G1 X96.561 Y125.92 E12.81589
G1 X95.874 Y123.343 E12.94008
G1 X95.123 Y120.809 E13.06315
G1 X94.296 Y118.284 E13.18687
G1 X93.818 Y116.962 E13.25233
G1 X93.43 Y115.849 E13.30721
G1 X93.23 Y115.124 E13.34223
G1 X93.132 Y114.481 E13.37252
G1 X93.105 Y113.642 E13.41161
G1 X93.277 Y112.116 E13.48311
G1 X93.557 Y109.382 E13.61108
G1 X93.753 Y106.731 E13.73486
G1 X93.875 Y104.057 E13.85951
G1 X93.92 Y101.42 E13.98231
G1 X93.89 Y98.748 E14.10674
G1 X93.785 Y96.081 E14.23102
G1 X93.606 Y93.424 E14.35502
G1 X93.351 Y90.771 E14.47913
G1 X93.026 Y88.169 E14.60123
G1 X92.567 Y85.304 E14.73634
G1 X92.55 Y85.135 E14.74425
G1 X92.345 Y83.816 E14.8064
G1 X92.282 Y82.819 E14.85292
G1 X92.31 Y81.804 E14.9002
G1 X92.345 Y81.189 E14.92888
G1 X92.453 Y80.311 E14.97008
G1 X92.756 Y79.18 E15.0246
G1 X92.935 Y78.57 E15.0542
G1 X93.181 Y77.898 E15.08752
G1 X93.464 Y77.335 E15.11686
G1 X94.036 Y76.34 E15.1703
G1 X94.493 Y75.595 E15.211
G1 X94.987 Y74.9 E15.2507
M204 S3000
M205 X10 Y10
G0 F3000 X95.394 Y75.285
M204 S1800
M205 X8 Y8
G1 F2400 X95.972 Y74.673 E15.2899
G1 X96.646 Y74.004 E15.33412
G1 X97.281 Y73.466 E15.37288
G1 X97.813 Y73.083 E15.4034
G1 X98.291 Y72.777 E15.42983
G1 X99.007 Y72.371 E15.46815
G1 X99.598 Y72.053 E15.4994
G1 X100.188 Y71.781 E15.52966
G1 X100.772 Y71.593 E15.55822
G1 X102.355 Y71.183 E15.63437
G1 X103.02 Y71.03 E15.66614
G1 X103.661 Y70.924 E15.69639
G1 X104.425 Y70.901 E15.73199
G1 X105.112 Y70.931 E15.76401
G1 X106.677 Y71.038 E15.83705
G1 X107.321 Y71.122 E15.86729
G1 X108.034 Y71.313 E15.90166
G1 X108.531 Y71.488 E15.9262
G1 X109.7 Y71.939 E15.98454
G1 X110.57 Y72.37 E16.02975
G1 X111.619 Y73.02 E16.08721
G1 X112.214 Y73.414 E16.12044
G1 X112.929 Y73.981 E16.16293
G1 X113.659 Y74.672 E16.20974
G1 X114.186 Y75.195 E16.24431
G1 X114.702 Y75.776 E16.28049
G1 X115.489 Y76.972 E16.34716
G1 X115.794 Y77.468 E16.37427
G1 X116.099 Y78.042 E16.40454
G1 X116.303 Y78.558 E16.43038
G1 X116.583 Y79.399 E16.47165
G1 X116.777 Y80.034 E16.50257
G1 X116.969 Y80.948 E16.54606
G1 X117.102 Y82.079 E16.59908
G1 X117.145 Y82.584 E16.62268
G1 X117.162 Y83.331 E16.65748
G1 X117.042 Y84.446 E16.7097
G1 X116.911 Y85.38 E16.75361
G1 X116.44 Y88.034 E16.87912
G1 X116.048 Y90.681 E17.00372
G1 X115.727 Y93.367 E17.12969
G1 X115.486 Y96.004 E17.25299
G1 X115.318 Y98.693 E17.37844
G1 X115.227 Y101.368 E17.50307
G1 X115.211 Y104.037 E17.62736
G1 X115.272 Y106.745 E17.75348
G1 X115.405 Y109.377 E17.8762
G1 X115.624 Y112.145 E18.00549
G1 X115.782 Y113.777 E18.08184
G1 X115.805 Y114.426 E18.11208
G1 X115.748 Y115.074 E18.14237
G1 X115.585 Y115.836 E18.17865
G1 X115.106 Y117.118 E18.24238
G1 X114.798 Y117.909 E18.2819
G1 X113.901 Y120.419 E18.40602
G1 X113.07 Y122.967 E18.53081
G1 X112.308 Y125.545 E18.65599
G1 X111.626 Y128.128 E18.78039
G1 X111.019 Y130.718 E18.90426
G1 X110.536 Y133.155 E19.01994
G1 X110.289 Y134.351 E19.07681
G1 X110.119 Y134.978 E19.10706
G1 X109.873 Y135.579 E19.1373
G1 X109.555 Y136.146 E19.16757
G1 X109.17 Y136.669 E19.19781
G1 X108.828 Y137.04 E19.2213
G1 X108.426 Y137.437 E19.24761
G1 X107.937 Y137.864 E19.27784
G1 X107.399 Y138.228 E19.30809
G1 X106.82 Y138.523 E19.33834
G1 X106.209 Y138.744 E19.3686
G1 X105.576 Y138.89 E19.39885
G1 X104.93 Y138.956 E19.42908
G1 X104.28 Y138.942 E19.45936
G1 X103.561 Y138.832 E19.49323
G1 X103.03 Y138.713 E19.51857
G1 X102.406 Y138.532 E19.54882
G1 X101.809 Y138.276 E19.57907
G1 X101.248 Y137.949 E19.6093
G1 X100.732 Y137.555 E19.63953
G1 X100.267 Y137.101 E19.6698
G1 X99.862 Y136.593 E19.70005
G1 X99.523 Y136.039 E19.73029
G1 X99.162 Y135.228 E19.77163
G1 X98.892 Y134.358 E19.81404
G1 X98.734 Y133.71 E19.8451
G1 X98.255 Y130.998 E19.97334
G1 X97.723 Y128.414 E20.09618
G1 X97.106 Y125.792 E20.22161
G1 X96.415 Y123.199 E20.34656
G1 X95.66 Y120.65 E20.47035
G1 X94.823 Y118.094 E20.59559
G1 X94.347 Y116.778 E20.66075
G1 X93.959 Y115.665 E20.71564
G1 X93.784 Y115.04 E20.74586
G1 X93.686 Y114.397 E20.77615
G1 X93.665 Y113.627 E20.81201
G1 X93.833 Y112.181 E20.8798
G1 X94.114 Y109.439 E21.00815
G1 X94.311 Y106.772 E21.13267
G1 X94.435 Y104.067 E21.25876
G1 X94.48 Y101.43 E21.38157
G1 X94.45 Y98.726 E21.50748
G1 X94.345 Y96.059 E21.63177
G1 X94.164 Y93.386 E21.75652
G1 X93.907 Y90.702 E21.88207
G1 X93.582 Y88.1 E22.00417
G1 X93.12 Y85.215 E22.14022
G1 X93.105 Y85.063 E22.14733
G1 X92.904 Y83.779 E22.20785
G1 X92.842 Y82.834 E22.25195
G1 X92.869 Y81.836 E22.29843
G1 X92.904 Y81.221 E22.32712
G1 X92.994 Y80.456 E22.36298
G1 X93.293 Y79.337 E22.41692
G1 X93.462 Y78.76 E22.44491
G1 X93.682 Y78.149 E22.47515
G1 X93.95 Y77.614 E22.50302
G1 X94.514 Y76.632 E22.55575
G1 X94.952 Y75.916 E22.59483
G1 X95.394 Y75.285 E22.6307
M204 S3000
M205 X10 Y10
G1 F2400 E16.6307
G1 F600 Z0.275
G0 F3000 X103.73 Y81.566 Z0.275
M204 S1800
M205 X8 Y8
G1 F600 Z0.2
G1 F2400 E22.6307
G1 X104.067 Y81.23 E22.65286
G1 X104.49 Y81.013 E22.675
G1 X104.955 Y80.94 E22.69692
G1 X105.422 Y81.014 E22.71893
G1 X105.84 Y81.227 E22.74078
G1 X106.178 Y81.565 E22.76304
G1 X106.392 Y81.983 E22.7849
G1 X106.466 Y82.451 E22.80697
G1 X106.392 Y82.917 E22.82894
G1 X106.179 Y83.336 E22.85082
G1 X105.842 Y83.674 E22.87305
G1 X105.424 Y83.887 E22.89489
G1 X104.959 Y83.961 E22.91682
G1 X104.488 Y83.887 E22.93902
G1 X104.069 Y83.674 E22.96091
G1 X103.731 Y83.337 E22.98313
G1 X103.519 Y82.92 E23.00491
G1 X103.444 Y82.451 E23.02703
G1 X103.518 Y81.983 E23.04909
G1 X103.73 Y81.566 E23.07088
M204 S3000
M205 X10 Y10
G0 F3000 X104.19 Y81.898
M204 S1800
M205 X8 Y8
G1 F2400 X104.399 Y81.689 E23.08464
G1 X104.668 Y81.552 E23.0987
G1 X104.955 Y81.507 E23.11222
G1 X105.245 Y81.552 E23.12589
G1 X105.507 Y81.686 E23.13959
G1 X105.719 Y81.898 E23.15355
G1 X105.853 Y82.16 E23.16725
G1 X105.899 Y82.451 E23.18097
G1 X105.852 Y82.743 E23.19474
G1 X105.721 Y83.002 E23.20826
G1 X105.509 Y83.215 E23.22225
G1 X105.247 Y83.349 E23.23596
G1 X104.959 Y83.394 E23.24953
G1 X104.663 Y83.348 E23.26348
G1 X104.402 Y83.215 E23.27712
G1 X104.19 Y83.004 E23.29104
G1 X104.057 Y82.743 E23.30469
G1 X104.011 Y82.45 E23.3185
G1 X104.056 Y82.159 E23.33221
G1 X104.19 Y81.898 E23.34587
M204 S3000
M205 X10 Y10
G0 F3000 X104.649 Y82.231
M204 S1800
M205 X8 Y8
G1 F2400 X104.734 Y82.147 E23.35143
G1 X104.842 Y82.091 E23.3571
G1 X104.955 Y82.073 E23.36243
G1 X105.068 Y82.091 E23.36775
G1 X105.175 Y82.146 E23.37336
G1 X105.259 Y82.23 E23.37889
G1 X105.314 Y82.337 E23.38449
G1 X105.332 Y82.451 E23.38986
G1 X105.313 Y82.567 E23.39534
G1 X105.262 Y82.669 E23.40065
G1 X105.176 Y82.756 E23.40634
G1 X105.07 Y82.81 E23.41188
G1 X104.958 Y82.828 E23.41716
G1 X104.838 Y82.809 E23.42282
G1 X104.735 Y82.756 E23.42822
G1 X104.649 Y82.67 E23.43388
G1 X104.597 Y82.568 E23.43921
G1 X104.578 Y82.449 E23.44482
G1 X104.596 Y82.335 E23.4502
G1 X104.649 Y82.231 E23.45563
M204 S3000
M205 X10 Y10
G1 F2400 E17.45563
;MESH:SG90 Hand V3.stl
G0 F3000 X105.937 Y79.707
G0 X108.107 Y79.94
M204 S1800
M205 X8 Y8
;TYPE:WALL-INNER
G1 F2400 E23.45563
G1 F1206.9 X108.177 Y80.258 E23.47447
G1 F1500 X108.628 Y81.14 E23.5206
G1 X108.716 Y81.449 E23.53556
G1 X108.852 Y82.311 E23.5762
G1 X108.856 Y82.555 E23.58756
G1 X108.684 Y83.659 E23.63959
G1 X108.136 Y84.74 E23.69602
G1 X107.257 Y85.625 E23.7541
G1 X106.285 Y86.115 E23.80479
G1 X106.055 Y86.191 E23.81607
G1 X104.965 Y86.373 E23.86753
G1 X103.744 Y86.179 E23.92509
G1 X102.652 Y85.624 E23.98213
G1 X101.854 Y84.828 E24.03462
G1 X101.681 Y84.557 E24.04959
G1 X101.224 Y83.638 E24.09738
G1 X101.062 Y82.635 E24.14469
G1 X101.05 Y82.348 E24.15806
G1 X101.227 Y81.24 E24.21031
G1 X101.786 Y80.142 E24.26768
G1 X102.563 Y79.366 E24.31882
G1 X103.11 Y79.047 E24.3483
G1 F1237.1 X103.492 Y78.718 E24.37677
G1 F1068.7 X103.818 Y78.609 E24.39923
G1 X104.443 Y78.491 E24.4408
G1 F1088.1 X105.049 Y78.457 E24.47976
G1 F1100.9 X105.853 Y78.561 E24.5312
G1 F1099.5 X106.256 Y78.67 E24.55772
G1 F1118.5 X107.094 Y79.059 E24.61541
G1 F1100.9 X107.447 Y79.316 E24.64311
G1 F1046.1 X108.107 Y79.94 E24.70376
M204 S3000
M205 X10 Y10
G0 F3000 X108.308 Y82.451
G0 X108.143 Y83.486
G0 X107.667 Y84.421
G0 X106.927 Y85.161
G0 X106.086 Y85.59
G0 X104.959 Y85.863
G0 X104.961 Y85.802
M204 S1800
M205 X8 Y8
G1 F1500 X103.939 Y85.643 E24.75192
G1 X102.985 Y85.167 E24.80156
G1 X102.231 Y84.402 E24.85158
G1 X101.765 Y83.474 E24.89993
G1 X101.602 Y82.471 E24.94725
G1 X101.775 Y81.396 E24.99795
G1 X102.258 Y80.462 E25.04691
G1 X102.997 Y79.733 E25.09525
G1 X103.915 Y79.267 E25.14319
G1 X104.943 Y79.098 E25.1917
G1 X105.978 Y79.26 E25.24048
G1 X106.935 Y79.747 E25.29048
G1 X107.669 Y80.48 E25.33878
G1 X108.144 Y81.422 E25.38791
G1 X108.308 Y82.446 E25.4362
G1 X108.144 Y83.487 E25.48527
G1 X107.673 Y84.413 E25.53364
G1 X106.938 Y85.152 E25.58217
G1 X105.995 Y85.636 E25.63153
G1 X104.961 Y85.802 E25.68029
M204 S3000
M205 X10 Y10
G0 F3000 X104.959 Y85.863
G0 X104.633 Y89.771
M204 S1800
M205 X8 Y8
G1 F1257.5 X104.339 Y90.45 E25.72139
G1 F1500 X103.804 Y91.229 E25.7654
G1 X103.742 Y91.561 E25.78112
G1 X103.806 Y91.961 E25.79999
G1 X104.342 Y92.901 E25.85037
G1 F1312.5 X104.599 Y93.449 E25.88258
G1 F1176.5 X104.589 Y93.786 E25.9026
