;FLAVOR:Marlin
;TIME:1220
;Filament used: 0.619141m
;Layer height: 0.2
;MINX:91.722
;MINY:69.781
;MINZ:0.2
;MAXX:118.276
;MAXY:140.076
;MAXZ:25
;TARGET_MACHINE.NAME:Anycubic i3 Mega
;Generated with Cura_SteamEngine 5.7.0-alpha.0
M140 S60
M105
M190 S60
M104 S200
M105
M109 S200
M82 ;absolute extrusion mode
G21 ;metric values
G90 ;absolute positioning
M82 ;set extruder to absolute mode
M107 ;start with the fan off
G28 X0 Y0 ;move X/Y to min endstops
G28 Z0 ;move Z to min endstops
G1 Z15.0 F100 ;move the platform down 15mm
G92 E0 ;zero the extruded length
G1 F200 E3 ;extrude 3mm of feed stock
G92 E0 ;zero the extruded length again
G1 F100
G0 Y20 F100
M117 Printing...
G5
G92 E0
G92 E0
G1 F2400 E-6
;LAYER_COUNT:125
;LAYER:0
M107
M204 S3000
M205 X10 Y10
G1 F600 Z0.275
G0 F3000 X94.475 Y74.646 Z0.275
M204 S1800
M205 X8 Y8
;TYPE:SKIRT
G1 F600 Z0.2
G1 F2400 E0
G1 X95.176 Y73.885 E0.04818
G1 X95.919 Y73.152 E0.09678
G1 X96.575 Y72.597 E0.13679
G1 X97.185 Y72.155 E0.17187
G1 X97.653 Y71.853 E0.1978
G1 X98.4 Y71.427 E0.23784
G1 X99.134 Y71.034 E0.27661
G1 X99.845 Y70.715 E0.3129
G1 X100.459 Y70.518 E0.34293
G1 X102.103 Y70.091 E0.42202
G1 X102.768 Y69.938 E0.45379
G1 X103.627 Y69.804 E0.49427
G1 X104.431 Y69.781 E0.53173
G1 X105.188 Y69.813 E0.56701
G1 X106.753 Y69.92 E0.64005
G1 X107.612 Y70.04 E0.68044
G1 X108.366 Y70.244 E0.71681
G1 X108.935 Y70.444 E0.74489
G1 X110.199 Y70.936 E0.80805
G1 X111.16 Y71.418 E0.85811
G1 X112.238 Y72.087 E0.91719
G1 X112.911 Y72.537 E0.95489
G1 X113.699 Y73.167 E1.00186
G1 X114.439 Y73.868 E1.04933
G1 X115.026 Y74.454 E1.08795
G1 X115.638 Y75.16 E1.13146
G1 X116.443 Y76.386 E1.19975
G1 X116.784 Y76.942 E1.23012
G1 X117.114 Y77.57 E1.26316
G1 X117.344 Y78.143 E1.29191
G1 X117.655 Y79.071 E1.33748
G1 X117.849 Y79.706 E1.3684
G1 X118.081 Y80.818 E1.42129
G1 X118.218 Y81.984 E1.47596
G1 X118.265 Y82.561 E1.50292
G1 X118.276 Y83.451 E1.54436
G1 X118.152 Y84.602 E1.59827
G1 X118.021 Y85.536 E1.64218
G1 X117.55 Y88.187 E1.76756
G1 X117.156 Y90.845 E1.89268
G1 X116.845 Y93.449 E2.01479
G1 X116.602 Y96.106 E2.13903
G1 X116.436 Y98.763 E2.26299
G1 X116.347 Y101.406 E2.38613
G1 X116.331 Y104.043 E2.50892
G1 X116.392 Y106.719 E2.63356
G1 X116.521 Y109.289 E2.75338
G1 X116.738 Y112.035 E2.88165
G1 X116.902 Y113.737 E2.96127
G1 X116.925 Y114.386 E2.9915
G1 X116.843 Y115.312 E3.03479
G1 X116.635 Y116.228 E3.07853
G1 X116.15 Y117.524 E3.14296
G1 X115.842 Y118.315 E3.18249
G1 X114.955 Y120.796 E3.30518
G1 X114.144 Y123.285 E3.42707
G1 X113.382 Y125.863 E3.55225
G1 X112.708 Y128.414 E3.67511
G1 X112.109 Y130.974 E3.79753
G1 X111.632 Y133.382 E3.91184
G1 X111.369 Y134.648 E3.97205
G1 X111.177 Y135.34 E4.00549
G1 X110.848 Y136.13 E4.04534
G1 X110.456 Y136.812 E4.08197
G1 X109.994 Y137.429 E4.11786
G1 X109.652 Y137.8 E4.14135
G1 X109.16 Y138.283 E4.17346
G1 X108.565 Y138.792 E4.20992
G1 X108.027 Y139.156 E4.24016
G1 X107.198 Y139.578 E4.28348
G1 X106.461 Y139.836 E4.31984
G1 X105.828 Y139.982 E4.35009
G1 X104.903 Y140.076 E4.39338
G1 X104.11 Y140.05 E4.43033
G1 X103.391 Y139.94 E4.4642
G1 X102.715 Y139.788 E4.49646
G1 X101.964 Y139.562 E4.53298
G1 X101.367 Y139.306 E4.56323
G1 X100.629 Y138.88 E4.6029
G1 X100.003 Y138.403 E4.63955
G1 X99.44 Y137.854 E4.67617
G1 X98.946 Y137.234 E4.71308
G1 X98.498 Y136.492 E4.75344
G1 X98.092 Y135.56 E4.80078
G1 X97.822 Y134.69 E4.84319
G1 X97.646 Y133.976 E4.87744
G1 X97.162 Y131.254 E5.00617
G1 X96.623 Y128.63 E5.13091
G1 X96.019 Y126.059 E5.25388
G1 X95.342 Y123.52 E5.37624
G1 X94.582 Y120.955 E5.50081
G1 X93.771 Y118.48 E5.62209
G1 X93.263 Y117.075 E5.69165
G1 X92.889 Y115.999 E5.7447
G1 X92.675 Y115.211 E5.78272
G1 X92.577 Y114.569 E5.81296
G1 X92.548 Y113.574 E5.85931
G1 X92.721 Y112.047 E5.93087
G1 X92.997 Y109.361 E6.0566
G1 X93.195 Y106.694 E6.18113
G1 X93.312 Y104.118 E6.3012
G1 X93.359 Y101.448 E6.42555
G1 X93.331 Y98.806 E6.54857
G1 X93.227 Y96.133 E6.67314
G1 X93.05 Y93.499 E6.79606
G1 X92.8 Y90.899 E6.91769
G1 X92.472 Y88.258 E7.04161
G1 X92.003 Y85.322 E7.18005
G1 X91.987 Y85.153 E7.18796
G1 X91.786 Y83.851 E7.2493
G1 X91.722 Y82.804 E7.29815
G1 X91.751 Y81.772 E7.34622
G1 X91.789 Y81.121 E7.37658
G1 X91.912 Y80.166 E7.42142
G1 X92.219 Y79.022 E7.47658
G1 X92.409 Y78.377 E7.50788
G1 X92.655 Y77.705 E7.54121
G1 X92.964 Y77.083 E7.57355
G1 X93.558 Y76.048 E7.62911
G1 X94.015 Y75.303 E7.66981
G1 X94.475 Y74.646 E7.70716
M204 S3000
M205 X10 Y10
G0 F3000 X94.934 Y74.967
M204 S1800
M205 X8 Y8
G1 F2400 X95.569 Y74.283 E7.75062
G1 X96.281 Y73.58 E7.79721
G1 X96.937 Y73.025 E7.83722
G1 X97.489 Y72.626 E7.86893
G1 X97.957 Y72.324 E7.89487
G1 X98.665 Y71.92 E7.93283
G1 X99.365 Y71.544 E7.96983
G1 X100.017 Y71.248 E8.00317
G1 X100.6 Y71.06 E8.03169
G1 X102.229 Y70.637 E8.11006
G1 X102.894 Y70.484 E8.14183
G1 X103.644 Y70.364 E8.1772
G1 X104.408 Y70.341 E8.21279
G1 X105.15 Y70.372 E8.24737
G1 X106.715 Y70.479 E8.32042
G1 X107.466 Y70.581 E8.35571
G1 X108.22 Y70.785 E8.39208
G1 X108.733 Y70.966 E8.41741
G1 X109.949 Y71.437 E8.47813
G1 X110.865 Y71.894 E8.5258
G1 X111.928 Y72.553 E8.58403
G1 X112.562 Y72.975 E8.6195
G1 X113.314 Y73.574 E8.66427
G1 X114.044 Y74.265 E8.71107
G1 X114.605 Y74.823 E8.74791
G1 X115.17 Y75.468 E8.78784
G1 X115.966 Y76.679 E8.85532
G1 X116.289 Y77.205 E8.88406
G1 X116.594 Y77.779 E8.91433
G1 X116.824 Y78.352 E8.94308
G1 X117.119 Y79.235 E8.98643
G1 X117.313 Y79.87 E9.01735
G1 X117.525 Y80.883 E9.06554
G1 X117.66 Y82.031 E9.11936
G1 X117.705 Y82.571 E9.1446
G1 X117.719 Y83.391 E9.18278
G1 X117.597 Y84.524 E9.23585
G1 X117.466 Y85.458 E9.27976
G1 X116.996 Y88.105 E9.40495
G1 X116.602 Y90.763 E9.53007
G1 X116.287 Y93.398 E9.65364
G1 X116.044 Y96.055 E9.77787
G1 X115.877 Y98.728 E9.90258
G1 X115.787 Y101.387 E10.02647
G1 X115.771 Y104.04 E10.15001
G1 X115.832 Y106.732 E10.27539
G1 X115.963 Y109.333 E10.39666
G1 X116.181 Y112.089 E10.52539
G1 X116.342 Y113.757 E10.60342
G1 X116.365 Y114.406 E10.63366
G1 X116.296 Y115.191 E10.67035
G1 X116.11 Y116.032 E10.71046
G1 X115.628 Y117.321 E10.77454
G1 X115.32 Y118.112 E10.81406
G1 X114.428 Y120.607 E10.93744
G1 X113.607 Y123.126 E11.06081
G1 X112.845 Y125.704 E11.18599
G1 X112.167 Y128.271 E11.30962
G1 X111.564 Y130.846 E11.43276
G1 X111.084 Y133.268 E11.54773
G1 X110.829 Y134.498 E11.60623
G1 X110.637 Y135.19 E11.63967
G1 X110.361 Y135.853 E11.67311
G1 X110.006 Y136.478 E11.70658
G1 X109.582 Y137.049 E11.73969
G1 X109.24 Y137.42 E11.76319
G1 X108.794 Y137.859 E11.79233
G1 X108.251 Y138.328 E11.82574
G1 X107.713 Y138.692 E11.85598
G1 X107.01 Y139.05 E11.89272
G1 X106.335 Y139.29 E11.92608
G1 X105.702 Y139.436 E11.95633
G1 X104.918 Y139.516 E11.99302
G1 X104.195 Y139.496 E12.0267
G1 X103.476 Y139.386 E12.06057
G1 X102.874 Y139.251 E12.0893
G1 X102.185 Y139.047 E12.12276
G1 X101.588 Y138.791 E12.153
G1 X100.966 Y138.433 E12.18642
G1 X100.392 Y138 E12.2199
G1 X99.876 Y137.502 E12.25329
G1 X99.424 Y136.942 E12.2868
G1 X99.011 Y136.267 E12.32365
G1 X98.627 Y135.394 E12.36806
G1 X98.357 Y134.524 E12.41048
G1 X98.19 Y133.843 E12.44313
G1 X97.711 Y131.141 E12.57091
G1 X97.172 Y128.517 E12.69564
G1 X96.564 Y125.931 E12.81934
G1 X95.883 Y123.376 E12.94246
G1 X95.119 Y120.796 E13.06776
G1 X94.298 Y118.289 E13.19059
G1 X93.792 Y116.891 E13.25982
G1 X93.429 Y115.85 E13.31116
G1 X93.229 Y115.126 E13.34613
G1 X93.131 Y114.484 E13.37637
G1 X93.108 Y113.56 E13.41941
G1 X93.277 Y112.112 E13.4873
G1 X93.554 Y109.418 E13.6134
G1 X93.753 Y106.735 E13.73868
G1 X93.872 Y104.128 E13.8602
G1 X93.919 Y101.458 E13.98454
G1 X93.891 Y98.784 E14.10906
G1 X93.787 Y96.111 E14.23362
G1 X93.609 Y93.461 E14.35729
G1 X93.356 Y90.83 E14.48037
G1 X93.028 Y88.189 E14.60429
G1 X92.561 Y85.269 E14.74199
G1 X92.545 Y85.1 E14.74989
G1 X92.345 Y83.816 E14.8104
G1 X92.282 Y82.819 E14.85692
G1 X92.31 Y81.804 E14.9042
G1 X92.345 Y81.189 E14.93288
G1 X92.453 Y80.311 E14.97407
G1 X92.756 Y79.18 E15.02859
G1 X92.935 Y78.57 E15.0582
G1 X93.181 Y77.898 E15.09152
G1 X93.464 Y77.335 E15.12086
G1 X94.036 Y76.34 E15.1743
G1 X94.474 Y75.624 E15.21338
G1 X94.934 Y74.967 E15.25073
M204 S3000
M205 X10 Y10
G0 F3000 X95.392 Y75.289
M204 S1800
M205 X8 Y8
G1 F2400 X95.963 Y74.681 E15.28957
G1 X96.643 Y74.007 E15.33415
G1 X97.265 Y73.479 E15.37214
G1 X97.793 Y73.097 E15.40249
G1 X98.261 Y72.795 E15.42842
G1 X98.93 Y72.413 E15.46429
G1 X99.599 Y72.053 E15.49967
G1 X100.189 Y71.781 E15.52992
G1 X100.772 Y71.593 E15.55844
G1 X102.355 Y71.183 E15.63459
G1 X103.02 Y71.03 E15.66636
G1 X103.661 Y70.924 E15.69662
G1 X104.425 Y70.901 E15.73221
G1 X105.112 Y70.931 E15.76423
G1 X106.677 Y71.038 E15.83727
G1 X107.321 Y71.122 E15.86751
G1 X108.034 Y71.313 E15.90188
G1 X108.531 Y71.488 E15.92642
G1 X109.7 Y71.939 E15.98476
G1 X110.57 Y72.37 E16.02997
G1 X111.619 Y73.02 E16.08743
G1 X112.214 Y73.414 E16.12066
G1 X112.929 Y73.981 E16.16315
G1 X113.659 Y74.672 E16.20996
G1 X114.186 Y75.195 E16.24453
G1 X114.702 Y75.776 E16.28071
G1 X115.489 Y76.972 E16.34738
G1 X115.794 Y77.468 E16.37449
G1 X116.099 Y78.042 E16.40476
G1 X116.303 Y78.558 E16.4306
G1 X116.583 Y79.399 E16.47187
G1 X116.777 Y80.034 E16.50279
G1 X116.969 Y80.948 E16.54628
G1 X117.102 Y82.079 E16.5993
G1 X117.145 Y82.584 E16.6229
G1 X117.162 Y83.331 E16.6577
G1 X117.042 Y84.446 E16.70992
G1 X116.911 Y85.38 E16.75383
G1 X116.442 Y88.023 E16.87882
G1 X116.048 Y90.681 E17.00394
G1 X115.729 Y93.347 E17.12897
G1 X115.486 Y96.004 E17.25321
G1 X115.318 Y98.693 E17.37866
G1 X115.227 Y101.368 E17.50329
G1 X115.211 Y104.037 E17.62758
G1 X115.272 Y106.745 E17.7537
G1 X115.405 Y109.377 E17.87642
G1 X115.624 Y112.143 E18.00562
G1 X115.782 Y113.777 E18.08206
G1 X115.805 Y114.426 E18.1123
G1 X115.748 Y115.074 E18.14259
G1 X115.585 Y115.836 E18.17887
G1 X115.106 Y117.118 E18.2426
G1 X114.798 Y117.909 E18.28212
G1 X113.901 Y120.419 E18.40624
G1 X113.07 Y122.967 E18.53103
G1 X112.308 Y125.545 E18.65621
G1 X111.626 Y128.128 E18.78061
G1 X111.019 Y130.718 E18.90448
G1 X110.536 Y133.155 E19.02016
G1 X110.289 Y134.351 E19.07703
G1 X110.119 Y134.978 E19.10728
G1 X109.873 Y135.579 E19.13752
G1 X109.555 Y136.146 E19.16779
G1 X109.17 Y136.669 E19.19803
G1 X108.828 Y137.04 E19.22152
G1 X108.426 Y137.437 E19.24783
G1 X107.937 Y137.864 E19.27806
G1 X107.399 Y138.228 E19.30831
G1 X106.82 Y138.523 E19.33856
G1 X106.209 Y138.744 E19.36882
G1 X105.576 Y138.89 E19.39907
G1 X104.93 Y138.956 E19.42931
G1 X104.28 Y138.942 E19.45958
G1 X103.561 Y138.832 E19.49345
G1 X103.03 Y138.713 E19.51879
G1 X102.406 Y138.532 E19.54904
G1 X101.809 Y138.276 E19.57929
G1 X101.248 Y137.949 E19.60952
G1 X100.732 Y137.555 E19.63975
G1 X100.267 Y137.101 E19.67002
G1 X99.862 Y136.593 E19.70027
G1 X99.523 Y136.039 E19.73051
G1 X99.162 Y135.228 E19.77185
G1 X98.892 Y134.358 E19.81426
G1 X98.734 Y133.71 E19.84532
G1 X98.26 Y131.028 E19.97214
G1 X97.721 Y128.404 E20.09688
G1 X97.109 Y125.803 E20.2213
G1 X96.424 Y123.232 E20.34519
G1 X95.656 Y120.637 E20.47121
G1 X94.825 Y118.098 E20.5956
G1 X94.321 Y116.707 E20.66449
G1 X93.958 Y115.666 E20.71583
G1 X93.783 Y115.041 E20.74605
G1 X93.685 Y114.399 E20.77629
G1 X93.664 Y113.625 E20.81235
G1 X93.833 Y112.177 E20.88023
G1 X94.111 Y109.475 E21.00671
G1 X94.311 Y106.776 E21.13273
G1 X94.432 Y104.138 E21.2557
G1 X94.479 Y101.468 E21.38004
G1 X94.451 Y98.762 E21.50605
G1 X94.347 Y96.089 E21.63061
G1 X94.168 Y93.423 E21.75503
G1 X93.912 Y90.761 E21.87956
G1 X93.584 Y88.12 E22.00348
G1 X93.119 Y85.216 E22.14042
G1 X93.103 Y85.047 E22.14833
G1 X92.904 Y83.779 E22.20809
G1 X92.842 Y82.834 E22.25219
G1 X92.869 Y81.836 E22.29868
G1 X92.904 Y81.221 E22.32736
G1 X92.994 Y80.456 E22.36323
G1 X93.293 Y79.337 E22.41716
G1 X93.462 Y78.76 E22.44516
G1 X93.682 Y78.149 E22.4754
G1 X93.95 Y77.614 E22.50326
G1 X94.514 Y76.632 E22.55599
G1 X94.952 Y75.916 E22.59508
G1 X95.392 Y75.289 E22.63074
M204 S3000
M205 X10 Y10
G1 F2400 E16.63074
G1 F600 Z0.275
G0 F3000 X103.739 Y81.937 Z0.275
M204 S1800
M205 X8 Y8
G1 F600 Z0.2
G1 F2400 E22.63074
G1 X104.097 Y81.526 E22.65612
G1 X104.737 Y81.299 E22.68774
G1 X105.539 Y81.307 E22.72509
G1 X106.17 Y81.796 E22.76226
G1 X106.435 Y82.252 E22.78682
G1 X106.466 Y82.451 E22.7962
G1 X106.392 Y82.917 E22.81817
G1 X106.179 Y83.337 E22.8401
G1 X105.84 Y83.675 E22.86239
G1 X105.422 Y83.888 E22.88423
G1 X105.032 Y83.948 E22.90261
G1 X104.398 Y83.724 E22.93392
G1 X103.833 Y83.083 E22.9737
G1 X103.616 Y82.426 E23.00592
G1 X103.739 Y81.937 E23.0294
M204 S3000
M205 X10 Y10
G0 F3000 X104.249 Y82.204
M204 S1800
M205 X8 Y8
G1 F2400 X104.423 Y82.005 E23.04171
G1 X104.831 Y81.86 E23.06187
G1 X105.344 Y81.865 E23.08576
G1 X105.74 Y82.172 E23.10909
G1 X105.898 Y82.444 E23.12374
G1 X105.899 Y82.45 E23.12402
G1 X105.852 Y82.743 E23.13784
G1 X105.721 Y83.003 E23.1514
G1 X105.508 Y83.215 E23.16539
G1 X105.245 Y83.35 E23.17916
G1 X105.087 Y83.374 E23.1866
G1 X104.721 Y83.244 E23.20468
G1 X104.328 Y82.799 E23.23233
G1 X104.198 Y82.406 E23.2516
G1 X104.249 Y82.204 E23.26131
M204 S3000
M205 X10 Y10
G0 F3000 X104.807 Y82.462
M204 S1800
M205 X8 Y8
G1 F2400 X104.922 Y82.421 E23.26699
G1 X105.15 Y82.423 E23.27761
G1 X105.312 Y82.548 E23.28714
G1 X105.315 Y82.555 E23.28749
G1 X105.313 Y82.567 E23.28806
G1 X105.261 Y82.67 E23.29343
G1 X105.175 Y82.756 E23.29909
G1 X105.111 Y82.789 E23.30245
G1 X105.046 Y82.766 E23.30566
G1 X104.824 Y82.514 E23.32129
G1 X104.807 Y82.462 E23.32384
M204 S3000
M205 X10 Y10
G1 F2400 E17.32384
;MESH:SG90 Hand V2.stl
G0 F3000 X102.433 Y83.245
G0 X101.21 Y82.737
M204 S1800
M205 X8 Y8
;TYPE:WALL-INNER
G1 F2400 E23.32384
G1 F1500 X101.192 Y82.3 E23.34421
G1 X101.515 Y81.016 E23.40586
G1 X101.68 Y80.674 E23.42354
G1 X102.535 Y79.701 E23.48385
G1 X102.897 Y79.428 E23.50497
G1 X104.193 Y78.965 E23.56905
G1 X104.452 Y78.922 E23.58127
G1 X105.897 Y78.93 E23.64856
G1 X106.377 Y79.017 E23.67127
G1 X106.633 Y79.139 E23.68448
G1 X107.869 Y80.099 E23.75735
G1 X108.078 Y80.338 E23.77214
G1 X108.655 Y81.339 E23.82594
G1 X108.755 Y81.698 E23.84329
G1 X108.872 Y82.445 E23.8785
G1 X108.685 Y83.659 E23.93569
G1 X108.135 Y84.74 E23.99217
G1 X107.405 Y85.476 E24.04044
G1 X107.154 Y85.679 E24.05547
G1 X106.283 Y86.116 E24.10085
G1 X106.053 Y86.192 E24.11213
G1 X105.018 Y86.36 E24.16095
G1 X104.613 Y86.323 E24.17989
G1 X103.246 Y85.843 E24.24735
G1 X102.996 Y85.69 E24.261
G1 X102.776 Y85.487 E24.27494
G1 X101.859 Y84.44 E24.33975
G1 X101.684 Y84.164 E24.35496
G1 X101.21 Y82.737 E24.42498
M204 S3000
M205 X10 Y10
G0 F3000 X101.766 Y82.635
M204 S1800
M205 X8 Y8
G1 F1500 X101.752 Y82.366 E24.43752
G1 X102.059 Y81.172 E24.49493
G1 X102.212 Y80.918 E24.50874
G1 X102.932 Y80.096 E24.55962
G1 X103.151 Y79.93 E24.57242
G1 X104.432 Y79.48 E24.63564
G1 X105.892 Y79.49 E24.70362
G1 X106.311 Y79.604 E24.72384
G1 X107.565 Y80.579 E24.79781
G1 X108.182 Y81.652 E24.85544
G1 X108.307 Y82.45 E24.89305
G1 X108.143 Y83.489 E24.94203
G1 X107.673 Y84.413 E24.9903
G1 X106.922 Y85.167 E25.03986
G1 X105.992 Y85.637 E25.08838
G1 X104.988 Y85.797 E25.13572
G1 X104.743 Y85.776 E25.14717
G1 X103.452 Y85.315 E25.211
G1 X103.196 Y85.118 E25.22604
G1 X102.301 Y84.096 E25.2893
G1 X102.196 Y83.931 E25.29841
G1 X101.766 Y82.635 E25.36199
M204 S3000
M205 X10 Y10
G0 F3000 X101.712 Y82.652
G0 X104.633 Y89.771
M204 S1800
M205 X8 Y8
G1 F1257.5 X104.339 Y90.45 E25.40309
G1 F1500 X103.804 Y91.229 E25.44709
G1 X103.742 Y91.561 E25.46282
G1 X103.806 Y91.961 E25.48168
G1 X104.342 Y92.901 E25.53207
G1 F1312.5 X104.599 Y93.449 E25.56428
G1 F1176.5 X104.589 Y93.786 E25.58429
G1 F1235.3 X104.54 Y93.916 E25.59215
G1 F1386.1 X104.365 Y94.722 E25.63371
G1 F1500 X104.079 Y96.688 E25.72622
G1 X104.086 Y98.479 E25.80961
G1 X104.357 Y100.234 E25.8923
G1 X104.841 Y101.794 E25.96836
G1 X104.923 Y101.585 E25.97881
G1 X105.485 Y99.5 E26.07936
G1 X105.727 Y97.318 E26.18159
G1 X105.502 Y94.87 E26.29606
G1 F1386.1 X105.33 Y93.93 E26.34421
G1 F1235.3 X105.293 Y93.816 E26.35099
G1 F1176.5 X105.31 Y93.479 E26.37102
G1 F1312.5 X105.489 Y93.175 E26.38979
G1 F1500 X105.699 Y92.709 E26.41359
G1 X105.99 Y91.652 E26.46464
G1 X105.979 Y91.233 E26.48416
G1 X105.774 Y90.715 E26.5101
G1 F1363.6 X105.483 Y89.849 E26.5569
G1 F1160.2 X105.403 Y89.717 E26.56619
G1 F1083.9 X105.386 Y89.455 E26.58311
