;FLAVOR:Marlin
;TIME:367
;Filament used: 0.294249m
;Layer height: 0.2
;MINX:78.618
;MINY:93.6
;MINZ:0.2
;MAXX:131.382
;MAXY:116.4
;MAXZ:2
;TARGET_MACHINE.NAME:Anycubic i3 Mega
;Generated with Cura_SteamEngine 5.7.0-alpha.0
M140 S60
M105
M190 S60
M104 S200
M105
M109 S200
M82 ;absolute extrusion mode
G21 ;metric values
G90 ;absolute positioning
M82 ;set extruder to absolute mode
M107 ;start with the fan off
G28 X0 Y0 ;move X/Y to min endstops
G28 Z0 ;move Z to min endstops
G1 Z15.0 F100 ;move the platform down 15mm
G92 E0 ;zero the extruded length
G1 F200 E3 ;extrude 3mm of feed stock
G92 E0 ;zero the extruded length again
G1 F100
G0 Y20 F100
M117 Printing...
G5
G92 E0
G92 E0
G1 F2400 E-6
;LAYER_COUNT:10
;LAYER:0
M107
M204 S3000
M205 X10 Y10
G1 F600 Z0.275
G0 F3000 X82.424 Y96.508 Z0.275
M204 S1800
M205 X8 Y8
;TYPE:SKIRT
G1 F600 Z0.2
G1 F2400 E0
G1 X82.995 Y96.031 E0.03464
G1 X83.562 Y95.615 E0.06739
G1 X84.099 Y95.269 E0.09714
G1 X84.767 Y94.894 E0.13281
G1 X85.328 Y94.622 E0.16184
G1 X86.081 Y94.314 E0.19972
G1 X86.713 Y94.103 E0.23075
G1 X87.325 Y93.938 E0.26026
G1 X88.071 Y93.785 E0.29572
G1 X88.779 Y93.685 E0.32902
G1 X89.6 Y93.62 E0.36736
G1 X90.822 Y93.6 E0.42427
G1 X119.385 Y93.6 E1.75429
G1 X120.224 Y93.617 E1.79336
G1 X120.929 Y93.655 E1.82624
G1 X121.523 Y93.721 E1.85407
G1 X122.245 Y93.843 E1.88816
G1 X122.863 Y93.985 E1.91769
G1 X123.591 Y94.2 E1.95304
G1 X124.283 Y94.454 E1.98736
G1 X124.847 Y94.701 E2.01603
G1 X125.554 Y95.065 E2.05306
G1 X126.112 Y95.398 E2.08332
G1 X126.701 Y95.8 E2.11652
G1 X127.235 Y96.214 E2.14798
G1 X127.778 Y96.691 E2.18164
G1 X128.277 Y97.188 E2.21443
G1 X128.773 Y97.747 E2.24923
G1 X129.137 Y98.211 E2.27669
G1 X129.564 Y98.829 E2.31167
G1 X129.942 Y99.457 E2.3458
G1 X130.245 Y100.039 E2.37635
G1 X130.549 Y100.723 E2.41121
G1 X130.776 Y101.332 E2.44147
G1 X130.991 Y102.04 E2.47593
G1 X131.138 Y102.656 E2.50541
G1 X131.272 Y103.414 E2.54126
G1 X131.347 Y104.083 E2.5726
G1 X131.382 Y104.832 E2.60752
G1 X131.374 Y105.472 E2.63732
G1 X131.319 Y106.218 E2.67215
G1 X131.23 Y106.867 E2.70266
G1 X131.086 Y107.591 E2.73703
G1 X130.906 Y108.274 E2.76992
G1 X130.694 Y108.912 E2.80122
G1 X130.452 Y109.515 E2.83148
G1 X130.11 Y110.237 E2.86868
G1 X129.798 Y110.804 E2.89881
G1 X129.436 Y111.376 E2.93033
G1 X129.006 Y111.969 E2.96444
G1 X128.533 Y112.541 E2.999
G1 X128.093 Y113.013 E3.02905
G1 X127.61 Y113.473 E3.06011
G1 X127.043 Y113.949 E3.09458
G1 X126.516 Y114.34 E3.12514
G1 X125.826 Y114.786 E3.16339
G1 X125.244 Y115.11 E3.19441
G1 X124.601 Y115.419 E3.22763
G1 X123.987 Y115.669 E3.2585
G1 X123.33 Y115.891 E3.29079
G1 X122.691 Y116.067 E3.32165
G1 X121.887 Y116.235 E3.3599
G1 X121.296 Y116.318 E3.38769
G1 X120.529 Y116.378 E3.42351
G1 X119.346 Y116.4 E3.47861
G1 X90.312 Y116.4 E4.83055
G1 X89.426 Y116.386 E4.87181
G1 X88.503 Y116.292 E4.91501
G1 X87.751 Y116.167 E4.95051
G1 X87.121 Y116.021 E4.98062
G1 X86.422 Y115.814 E5.01457
G1 X85.817 Y115.595 E5.04453
G1 X85.059 Y115.263 E5.08306
G1 X84.488 Y114.967 E5.11301
G1 X83.891 Y114.613 E5.14533
G1 X83.357 Y114.252 E5.17534
G1 X82.718 Y113.756 E5.21301
G1 X82.216 Y113.313 E5.24418
G1 X81.682 Y112.78 E5.27932
G1 X81.291 Y112.339 E5.30676
G1 X80.826 Y111.745 E5.34189
G1 X80.424 Y111.16 E5.37494
G1 X80.035 Y110.509 E5.41025
G1 X79.754 Y109.965 E5.43876
G1 X79.454 Y109.287 E5.47329
G1 X79.224 Y108.67 E5.50395
G1 X79.002 Y107.943 E5.53934
G1 X78.851 Y107.305 E5.56987
G1 X78.724 Y106.563 E5.60492
G1 X78.656 Y105.945 E5.63387
G1 X78.618 Y105.165 E5.67024
G1 X78.626 Y104.537 E5.69948
G1 X78.684 Y103.754 E5.73604
G1 X78.762 Y103.181 E5.76297
G1 X78.902 Y102.473 E5.79657
G1 X79.094 Y101.745 E5.83163
G1 X79.336 Y101.021 E5.86718
G1 X79.587 Y100.402 E5.89828
G1 X79.857 Y99.835 E5.92752
G1 X80.178 Y99.249 E5.95864
G1 X80.588 Y98.601 E5.99434
G1 X81.024 Y98.001 E6.02888
G1 X81.443 Y97.494 E6.0595
G1 X81.89 Y97.015 E6.09001
G1 X82.424 Y96.508 E6.1243
M204 S3000
M205 X10 Y10
G0 F3000 X82.784 Y96.937
M204 S1800
M205 X8 Y8
G1 F2400 X83.326 Y96.483 E6.15722
G1 X83.893 Y96.067 E6.18997
G1 X84.402 Y95.74 E6.21814
G1 X85.011 Y95.398 E6.25066
G1 X85.572 Y95.126 E6.27969
G1 X86.259 Y94.845 E6.31425
G1 X86.859 Y94.644 E6.34372
G1 X87.471 Y94.479 E6.37323
G1 X88.15 Y94.339 E6.40552
G1 X88.824 Y94.243 E6.43722
G1 X89.609 Y94.18 E6.47389
G1 X90.831 Y94.16 E6.5308
G1 X119.374 Y94.16 E7.85988
G1 X120.194 Y94.176 E7.89807
G1 X120.867 Y94.212 E7.92945
G1 X121.461 Y94.278 E7.95728
G1 X122.12 Y94.389 E7.9884
G1 X122.738 Y94.531 E8.01792
G1 X123.399 Y94.726 E8.05001
G1 X124.058 Y94.967 E8.08269
G1 X124.622 Y95.214 E8.11136
G1 X125.267 Y95.546 E8.14514
G1 X125.796 Y95.861 E8.17381
G1 X126.385 Y96.263 E8.20701
G1 X126.865 Y96.635 E8.23529
G1 X127.408 Y97.112 E8.26894
G1 X127.881 Y97.584 E8.30006
G1 X128.332 Y98.093 E8.33172
G1 X128.696 Y98.557 E8.35919
G1 X129.103 Y99.147 E8.39256
G1 X129.445 Y99.716 E8.42347
G1 X129.748 Y100.298 E8.45403
G1 X130.024 Y100.919 E8.48567
G1 X130.251 Y101.528 E8.51593
G1 X130.446 Y102.17 E8.54718
G1 X130.593 Y102.786 E8.57667
G1 X130.715 Y103.476 E8.60929
G1 X130.79 Y104.145 E8.64064
G1 X130.822 Y104.825 E8.67234
G1 X130.814 Y105.465 E8.70214
G1 X130.764 Y106.142 E8.73375
G1 X130.675 Y106.791 E8.76425
G1 X130.544 Y107.448 E8.79545
G1 X130.364 Y108.131 E8.82834
G1 X130.174 Y108.703 E8.8564
G1 X129.932 Y109.306 E8.88666
G1 X129.619 Y109.967 E8.92071
G1 X129.307 Y110.534 E8.95085
G1 X128.983 Y111.047 E8.9791
G1 X128.553 Y111.64 E9.01321
G1 X128.123 Y112.159 E9.04459
G1 X127.683 Y112.631 E9.07464
G1 X127.224 Y113.067 E9.10412
G1 X126.709 Y113.499 E9.13542
G1 X126.182 Y113.89 E9.16598
G1 X125.553 Y114.297 E9.20086
G1 X125.001 Y114.605 E9.2303
G1 X124.358 Y114.914 E9.26351
G1 X123.808 Y115.138 E9.29117
G1 X123.151 Y115.36 E9.32346
G1 X122.543 Y115.527 E9.35282
G1 X121.809 Y115.68 E9.38773
G1 X121.218 Y115.763 E9.41552
G1 X120.519 Y115.818 E9.44817
G1 X119.336 Y115.84 E9.50326
G1 X90.321 Y115.84 E10.85432
G1 X89.435 Y115.826 E10.89559
G1 X88.561 Y115.735 E10.9365
G1 X87.877 Y115.621 E10.96879
G1 X87.247 Y115.475 E10.9989
G1 X86.613 Y115.287 E11.0297
G1 X86.008 Y115.068 E11.05966
G1 X85.316 Y114.765 E11.09483
G1 X84.774 Y114.485 E11.12324
G1 X84.177 Y114.131 E11.15556
G1 X83.671 Y113.788 E11.18402
G1 X83.089 Y113.336 E11.21834
G1 X82.587 Y112.893 E11.24951
G1 X82.101 Y112.408 E11.28148
G1 X81.71 Y111.967 E11.30893
G1 X81.288 Y111.428 E11.3408
G1 X80.886 Y110.843 E11.37385
G1 X80.533 Y110.252 E11.40591
G1 X80.252 Y109.708 E11.43442
G1 X79.979 Y109.091 E11.46584
G1 X79.749 Y108.474 E11.4965
G1 X79.547 Y107.814 E11.52864
G1 X79.396 Y107.176 E11.55916
G1 X79.281 Y106.502 E11.591
G1 X79.213 Y105.884 E11.61995
G1 X79.178 Y105.172 E11.65315
G1 X79.186 Y104.544 E11.68239
G1 X79.239 Y103.83 E11.71573
G1 X79.317 Y103.257 E11.74266
G1 X79.451 Y102.582 E11.7747
G1 X79.625 Y101.922 E11.80648
G1 X79.855 Y101.231 E11.8404
G1 X80.093 Y100.643 E11.86993
G1 X80.363 Y100.076 E11.89918
G1 X80.669 Y99.518 E11.92881
G1 X81.041 Y98.93 E11.96121
G1 X81.456 Y98.358 E11.99411
G1 X81.875 Y97.851 E12.02474
G1 X82.299 Y97.397 E12.05367
G1 X82.784 Y96.937 E12.08479
M204 S3000
M205 X10 Y10
G0 F3000 X83.169 Y97.344
M204 S1800
M205 X8 Y8
G1 F2400 X82.708 Y97.78 E12.11434
G1 X82.307 Y98.208 E12.14165
G1 X81.888 Y98.715 E12.17227
G1 X81.514 Y99.23 E12.20191
G1 X81.16 Y99.788 E12.23268
G1 X80.869 Y100.317 E12.2608
G1 X80.599 Y100.884 E12.29004
G1 X80.374 Y101.441 E12.31801
G1 X80.166 Y102.066 E12.34868
G1 X80 Y102.692 E12.37884
G1 X79.872 Y103.333 E12.40928
G1 X79.794 Y103.906 E12.4362
G1 X79.746 Y104.551 E12.46632
G1 X79.738 Y105.179 E12.49557
G1 X79.77 Y105.823 E12.52559
G1 X79.838 Y106.441 E12.55454
G1 X79.948 Y107.081 E12.58478
G1 X80.083 Y107.651 E12.61205
G1 X80.274 Y108.278 E12.64257
G1 X80.504 Y108.895 E12.67324
G1 X80.764 Y109.481 E12.70309
G1 X81.03 Y109.994 E12.72999
G1 X81.366 Y110.555 E12.76044
G1 X81.729 Y111.083 E12.79028
G1 X82.129 Y111.595 E12.82053
G1 X82.52 Y112.036 E12.84798
G1 X82.982 Y112.496 E12.87834
G1 X83.459 Y112.916 E12.90793
G1 X83.985 Y113.324 E12.93893
G1 X84.491 Y113.667 E12.96739
G1 X85.031 Y113.987 E12.99662
G1 X85.573 Y114.267 E13.02503
G1 X86.199 Y114.541 E13.05685
G1 X86.804 Y114.76 E13.08681
G1 X87.406 Y114.938 E13.11604
G1 X87.97 Y115.069 E13.143
G1 X88.619 Y115.178 E13.17364
G1 X89.493 Y115.269 E13.21456
G1 X90.328 Y115.28 E13.25344
G1 X119.326 Y115.28 E14.60371
G1 X120.509 Y115.258 E14.65881
G1 X121.14 Y115.208 E14.68828
G1 X121.731 Y115.125 E14.71607
G1 X122.395 Y114.987 E14.74765
G1 X123.003 Y114.82 E14.77701
G1 X123.597 Y114.619 E14.80621
G1 X124.147 Y114.395 E14.83386
G1 X124.728 Y114.116 E14.86387
G1 X125.28 Y113.808 E14.89331
G1 X125.849 Y113.44 E14.92486
G1 X126.35 Y113.069 E14.95389
G1 X126.839 Y112.66 E14.98357
G1 X127.273 Y112.249 E15.01141
G1 X127.713 Y111.777 E15.04145
G1 X128.121 Y111.283 E15.07129
G1 X128.51 Y110.747 E15.10213
G1 X128.816 Y110.264 E15.12875
G1 X129.128 Y109.697 E15.15888
G1 X129.412 Y109.097 E15.18979
G1 X129.654 Y108.494 E15.22005
G1 X129.832 Y107.955 E15.24648
G1 X129.995 Y107.338 E15.2762
G1 X130.12 Y106.715 E15.30578
G1 X130.209 Y106.066 E15.33629
G1 X130.254 Y105.458 E15.36468
G1 X130.262 Y104.818 E15.39448
G1 X130.233 Y104.207 E15.42296
G1 X130.158 Y103.538 E15.45431
G1 X130.048 Y102.916 E15.48372
G1 X129.901 Y102.3 E15.51321
G1 X129.726 Y101.724 E15.54124
G1 X129.499 Y101.115 E15.5715
G1 X129.251 Y100.557 E15.59994
G1 X128.948 Y99.975 E15.63049
G1 X128.623 Y99.436 E15.6598
G1 X128.255 Y98.903 E15.68996
G1 X127.891 Y98.439 E15.71742
G1 X127.462 Y97.956 E15.7475
G1 X127.013 Y97.509 E15.777
G1 X126.522 Y97.078 E15.80742
G1 X126.042 Y96.706 E15.8357
G1 X125.509 Y96.342 E15.86576
G1 X124.98 Y96.027 E15.89442
G1 X124.397 Y95.727 E15.92495
G1 X123.833 Y95.48 E15.95362
G1 X123.207 Y95.252 E15.98465
G1 X122.613 Y95.077 E16.01348
G1 X121.995 Y94.935 E16.04301
G1 X121.399 Y94.835 E16.07115
G1 X120.805 Y94.769 E16.09898
G1 X120.164 Y94.735 E16.12887
G1 X119.364 Y94.72 E16.16612
G1 X90.84 Y94.72 E17.49432
G1 X89.618 Y94.74 E17.55123
G1 X88.87 Y94.801 E17.58618
G1 X88.23 Y94.893 E17.61628
G1 X87.617 Y95.02 E17.64543
G1 X87.005 Y95.185 E17.67495
G1 X86.437 Y95.376 E17.70285
G1 X85.816 Y95.63 E17.73409
G1 X85.255 Y95.902 E17.76313
G1 X84.705 Y96.211 E17.7925
G1 X84.196 Y96.538 E17.82067
G1 X83.658 Y96.934 E17.85178
G1 X83.169 Y97.344 E17.88149
M204 S3000
M205 X10 Y10
G1 F2400 E11.88149
;MESH:Label (Sign).stl
G0 F3000 X89.941 Y99.339
G0 X90.009 Y100.419
G0 X120.215 Y108.6
M204 S1800
M205 X8 Y8
;TYPE:WALL-INNER
G1 F2400 E17.88149
G1 F1500 X120.661 Y108.544 E17.90242
G1 X121.096 Y108.435 E17.9233
G1 X121.501 Y108.278 E17.94353
G1 X121.893 Y108.068 E17.96424
G1 X122.26 Y107.808 E17.98518
G1 X122.582 Y107.514 E18.00548
G1 X122.868 Y107.18 E18.02596
G1 X123.119 Y106.799 E18.0472
G1 X123.317 Y106.404 E18.06778
G1 X123.46 Y105.997 E18.08787
G1 X123.556 Y105.553 E18.10902
G1 X123.597 Y105.113 E18.12959
G1 X123.584 Y104.666 E18.15042
G1 X123.516 Y104.23 E18.17096
G1 X123.398 Y103.814 E18.1911
G1 X123.222 Y103.402 E18.21196
G1 X123 Y103.017 E18.23266
G1 X122.729 Y102.656 E18.25367
G1 X122.429 Y102.345 E18.2738
G1 X122.083 Y102.067 E18.29446
G1 X121.707 Y101.835 E18.31504
G1 X121.3 Y101.647 E18.33591
G1 X120.872 Y101.511 E18.35682
G1 X120.447 Y101.432 E18.37695
G1 X119.953 Y101.4 E18.4
G1 X90.047 Y101.4 E19.79255
G1 X89.553 Y101.431 E19.8156
G1 X89.128 Y101.511 E19.83574
G1 X88.7 Y101.646 E19.85663
G1 X88.293 Y101.835 E19.87753
G1 X87.917 Y102.068 E19.89813
G1 X87.572 Y102.345 E19.91873
G1 X87.271 Y102.656 E19.93888
G1 X86.997 Y103.019 E19.96006
G1 X86.776 Y103.403 E19.98069
G1 X86.603 Y103.812 E20.00137
G1 X86.482 Y104.238 E20.02199
G1 X86.417 Y104.666 E20.04215
G1 X86.402 Y105.12 E20.0633
G1 X86.443 Y105.55 E20.08341
G1 X86.54 Y105.997 E20.10471
G1 X86.682 Y106.404 E20.12478
G1 X86.881 Y106.799 E20.14538
G1 X87.132 Y107.18 E20.16662
G1 X87.418 Y107.514 E20.1871
G1 X87.74 Y107.807 E20.20737
G1 X88.107 Y108.068 E20.22834
G1 X88.499 Y108.278 E20.24905
G1 X88.904 Y108.435 E20.26927
G1 X89.339 Y108.544 E20.29015
G1 X89.785 Y108.6 E20.31109
G1 X120.215 Y108.6 E21.72803
M204 S3000
M205 X10 Y10
G0 F3000 X120.249 Y109.16
M204 S1800
M205 X8 Y8
G1 F1500 X120.765 Y109.095 E21.75225
G1 X121.266 Y108.969 E21.77631
G1 X121.735 Y108.788 E21.79971
G1 X122.188 Y108.545 E21.82365
G1 X122.612 Y108.244 E21.84786
G1 X122.985 Y107.904 E21.87136
G1 X123.316 Y107.518 E21.89504
G1 X123.605 Y107.08 E21.91948
G1 X123.834 Y106.622 E21.94332
G1 X124 Y106.149 E21.96666
G1 X124.111 Y105.638 E21.99101
G1 X124.158 Y105.129 E22.01481
G1 X124.143 Y104.615 E22.03876
G1 X124.064 Y104.11 E22.06256
G1 X123.927 Y103.627 E22.08594
G1 X123.725 Y103.152 E22.10997
G1 X123.468 Y102.707 E22.1339
G1 X123.155 Y102.291 E22.15814
G1 X122.807 Y101.931 E22.18146
G1 X122.407 Y101.609 E22.20537
G1 X121.973 Y101.341 E22.22912
G1 X121.503 Y101.123 E22.25324
G1 X121.009 Y100.967 E22.27736
G1 X120.516 Y100.875 E22.30072
G1 X119.97 Y100.84 E22.32619
G1 X90.03 Y100.84 E23.72033
G1 X89.484 Y100.875 E23.7458
G1 X88.991 Y100.967 E23.76915
G1 X88.497 Y101.123 E23.79328
G1 X88.027 Y101.341 E23.8174
G1 X87.593 Y101.61 E23.84118
G1 X87.193 Y101.931 E23.86506
G1 X86.845 Y102.292 E23.88841
G1 X86.529 Y102.709 E23.91277
G1 X86.273 Y103.153 E23.93663
G1 X86.074 Y103.626 E23.96053
G1 X85.934 Y104.119 E23.98439
G1 X85.858 Y104.614 E24.00771
G1 X85.842 Y105.137 E24.03208
G1 X85.888 Y105.636 E24.05541
G1 X86 Y106.149 E24.07986
G1 X86.166 Y106.622 E24.1032
G1 X86.395 Y107.08 E24.12705
G1 X86.684 Y107.518 E24.15148
G1 X87.015 Y107.904 E24.17516
G1 X87.388 Y108.244 E24.19866
G1 X87.812 Y108.545 E24.22287
G1 X88.265 Y108.788 E24.24681
G1 X88.734 Y108.969 E24.27022
G1 X89.235 Y109.095 E24.29427
G1 X89.751 Y109.16 E24.31849
G1 X120.249 Y109.16 E25.7386
M204 S3000
M205 X10 Y10
G0 F3000 X120.284 Y109.72
M204 S1800
M205 X8 Y8
;TYPE:WALL-OUTER
G1 F1500 X120.868 Y109.647 E25.76601
G1 X121.436 Y109.504 E25.79328
G1 X121.969 Y109.298 E25.81989
G1 X122.484 Y109.022 E25.8471
G1 X122.964 Y108.681 E25.87451
G1 X123.388 Y108.294 E25.90125
G1 X123.764 Y107.856 E25.92812
G1 X124.091 Y107.361 E25.95575
G1 X124.351 Y106.841 E25.98282
G1 X124.54 Y106.302 E26.00942
G1 X124.666 Y105.723 E26.03701
G1 X124.719 Y105.145 E26.06404
G1 X124.701 Y104.563 E26.09115
G1 X124.612 Y103.99 E26.11815
G1 X124.456 Y103.441 E26.14473
G1 X124.227 Y102.901 E26.17204
G1 X123.936 Y102.396 E26.19918
G1 X123.581 Y101.927 E26.22657
G1 X123.185 Y101.517 E26.25311
G1 X122.731 Y101.151 E26.28026
G1 X122.239 Y100.847 E26.30719
G1 X121.706 Y100.6 E26.33455
G1 X121.145 Y100.423 E26.36194
G1 X120.585 Y100.318 E26.38847
G1 X119.988 Y100.28 E26.41632
G1 X90.012 Y100.28 E27.81213
G1 X89.415 Y100.318 E27.83999
G1 X88.855 Y100.423 E27.86652
G1 X88.294 Y100.6 E27.89391
G1 X87.761 Y100.847 E27.92126
G1 X87.269 Y101.152 E27.94822
G1 X86.815 Y101.517 E27.97534
G1 X86.419 Y101.927 E28.00189
G1 X86.061 Y102.399 E28.02947
G1 X85.771 Y102.903 E28.05655
G1 X85.544 Y103.44 E28.08369
G1 X85.386 Y103.999 E28.11074
G1 X85.299 Y104.563 E28.13732
G1 X85.281 Y105.155 E28.1649
G1 X85.334 Y105.722 E28.19141
G1 X85.46 Y106.302 E28.21905
G1 X85.649 Y106.841 E28.24565
G1 X85.909 Y107.361 E28.27272
G1 X86.236 Y107.856 E28.30034
G1 X86.612 Y108.294 E28.32722
G1 X87.036 Y108.681 E28.35395
G1 X87.516 Y109.022 E28.38137
G1 X88.031 Y109.298 E28.40858
G1 X88.564 Y109.504 E28.43518
G1 X89.132 Y109.647 E28.46246
G1 X89.716 Y109.72 E28.48986
G1 X120.284 Y109.72 E29.91324
M204 S3000
M205 X10 Y10
G0 F3000 X120.482 Y109.696
G0 X120.406 Y109.081
G0 X120.174 Y108.06
M204 S1800
M205 X8 Y8
;TYPE:SKIN
G1 F1200 X89.826 Y108.06 E31.32637
G1 X89.446 Y108.011 E31.34421
G1 X88.724 Y107.782 E31.37948
G1 X88.077 Y107.384 E31.41485
G1 X87.57 Y106.858 E31.44887
G1 X87.175 Y106.176 E31.48557
G1 X87.062 Y105.856 E31.50137
G1 X86.944 Y105.102 E31.5369
G1 X86.956 Y104.725 E31.55447
G1 X87.117 Y103.987 E31.58964
G1 X87.45 Y103.318 E31.62444
G1 X87.942 Y102.741 E31.65975
G1 X88.22 Y102.518 E31.67634
G1 X88.896 Y102.154 E31.71209
G1 X89.631 Y101.969 E31.74738
G1 X90.068 Y101.94 E31.76778
G1 X119.932 Y101.941 E33.15837
G1 X120.369 Y101.969 E33.17876
G1 X121.105 Y102.154 E33.2141
