;FLAVOR:Marlin
;TIME:785
;Filament used: 0.485867m
;Layer height: 0.2
;MINX:91.722
;MINY:69.781
;MINZ:0.2
;MAXX:118.276
;MAXY:140.067
;MAXZ:12.8
;TARGET_MACHINE.NAME:Anycubic i3 Mega
;Generated with Cura_SteamEngine 5.7.0-alpha.0
M140 S60
M105
M190 S60
M104 S220
M105
M109 S220
M82 ;absolute extrusion mode
G21 ;metric values
G90 ;absolute positioning
M82 ;set extruder to absolute mode
M107 ;start with the fan off
G28 X0 Y0 ;move X/Y to min endstops
G28 Z0 ;move Z to min endstops
G1 Z15.0 F100 ;move the platform down 15mm
G92 E0 ;zero the extruded length
G1 F200 E3 ;extrude 3mm of feed stock
G92 E0 ;zero the extruded length again
G1 F100
G0 Y20 F100
M117 Printing...
G5
G92 E0
G92 E0
G1 F2400 E-6
;LAYER_COUNT:64
;LAYER:0
M107
M204 S3000
M205 X10 Y10
G1 F600 Z0.275
G0 F3000 X94.475 Y74.646 Z0.275
M204 S1800
M205 X8 Y8
;TYPE:SKIRT
G1 F600 Z0.2
G1 F2400 E0
G1 X95.176 Y73.885 E0.04818
G1 X95.919 Y73.152 E0.09678
G1 X96.575 Y72.597 E0.13679
G1 X97.185 Y72.155 E0.17187
G1 X97.653 Y71.853 E0.1978
G1 X98.4 Y71.427 E0.23784
G1 X99.134 Y71.034 E0.27661
G1 X99.845 Y70.715 E0.3129
G1 X100.459 Y70.518 E0.34293
G1 X102.103 Y70.091 E0.42202
G1 X102.768 Y69.938 E0.45379
G1 X103.627 Y69.804 E0.49427
G1 X104.431 Y69.781 E0.53173
G1 X105.188 Y69.813 E0.56701
G1 X106.753 Y69.92 E0.64005
G1 X107.612 Y70.04 E0.68044
G1 X108.366 Y70.244 E0.71681
G1 X108.935 Y70.444 E0.74489
G1 X110.199 Y70.936 E0.80805
G1 X111.16 Y71.418 E0.85811
G1 X112.238 Y72.087 E0.91719
G1 X112.911 Y72.537 E0.95489
G1 X113.699 Y73.167 E1.00186
G1 X114.439 Y73.868 E1.04933
G1 X115.026 Y74.454 E1.08795
G1 X115.638 Y75.16 E1.13146
G1 X116.443 Y76.386 E1.19975
G1 X116.784 Y76.942 E1.23012
G1 X117.114 Y77.57 E1.26316
G1 X117.344 Y78.143 E1.29191
G1 X117.655 Y79.071 E1.33748
G1 X117.849 Y79.706 E1.3684
G1 X118.081 Y80.818 E1.42129
G1 X118.218 Y81.984 E1.47596
G1 X118.265 Y82.561 E1.50292
G1 X118.276 Y83.451 E1.54436
G1 X118.152 Y84.602 E1.59827
G1 X118.021 Y85.536 E1.64218
G1 X117.55 Y88.187 E1.76756
G1 X117.156 Y90.845 E1.89268
G1 X116.845 Y93.449 E2.01479
G1 X116.602 Y96.106 E2.13903
G1 X116.436 Y98.763 E2.26299
G1 X116.347 Y101.406 E2.38613
G1 X116.331 Y104.043 E2.50892
G1 X116.392 Y106.719 E2.63356
G1 X116.521 Y109.289 E2.75338
G1 X116.738 Y112.035 E2.88165
G1 X116.902 Y113.737 E2.96127
G1 X116.925 Y114.386 E2.9915
G1 X116.843 Y115.312 E3.03479
G1 X116.636 Y116.223 E3.07829
G1 X116.16 Y117.497 E3.14162
G1 X115.848 Y118.298 E3.18165
G1 X114.96 Y120.776 E3.30422
G1 X114.16 Y123.23 E3.42441
G1 X113.388 Y125.844 E3.55132
G1 X112.717 Y128.375 E3.67325
G1 X112.112 Y130.955 E3.79664
G1 X111.654 Y133.278 E3.90689
G1 X111.391 Y134.556 E3.96765
G1 X111.181 Y135.318 E4.00445
G1 X110.855 Y136.107 E4.04421
G1 X110.5 Y136.732 E4.07768
G1 X109.959 Y137.465 E4.1201
G1 X109.29 Y138.156 E4.16488
G1 X108.76 Y138.638 E4.19824
G1 X108.003 Y139.171 E4.24135
G1 X107.429 Y139.476 E4.27162
G1 X106.566 Y139.806 E4.31464
G1 X105.87 Y139.974 E4.34798
G1 X105.089 Y140.067 E4.3846
G1 X104.292 Y140.064 E4.42171
G1 X103.329 Y139.928 E4.467
G1 X102.762 Y139.801 E4.49406
G1 X102.038 Y139.59 E4.52917
G1 X101.313 Y139.28 E4.56589
G1 X100.575 Y138.845 E4.60578
G1 X99.957 Y138.364 E4.64224
G1 X99.492 Y137.911 E4.67247
G1 X98.912 Y137.186 E4.7157
G1 X98.502 Y136.502 E4.75284
G1 X98.091 Y135.559 E4.80074
G1 X97.826 Y134.709 E4.8422
G1 X97.651 Y133.991 E4.87661
G1 X97.166 Y131.271 E5.00526
G1 X96.623 Y128.631 E5.13076
G1 X96.019 Y126.059 E5.25378
G1 X95.342 Y123.52 E5.37614
G1 X94.582 Y120.955 E5.50071
G1 X93.771 Y118.48 E5.62199
G1 X93.263 Y117.075 E5.69155
G1 X92.889 Y115.999 E5.7446
G1 X92.675 Y115.211 E5.78262
G1 X92.577 Y114.569 E5.81286
G1 X92.548 Y113.574 E5.85921
G1 X92.721 Y112.047 E5.93077
G1 X92.997 Y109.361 E6.0565
G1 X93.195 Y106.694 E6.18103
G1 X93.312 Y104.118 E6.3011
G1 X93.359 Y101.448 E6.42545
G1 X93.331 Y98.806 E6.54847
G1 X93.227 Y96.133 E6.67304
G1 X93.05 Y93.499 E6.79596
G1 X92.8 Y90.899 E6.91759
G1 X92.472 Y88.258 E7.04151
G1 X92.003 Y85.322 E7.17995
G1 X91.987 Y85.153 E7.18786
G1 X91.786 Y83.851 E7.2492
G1 X91.722 Y82.804 E7.29805
G1 X91.751 Y81.772 E7.34612
G1 X91.789 Y81.121 E7.37648
G1 X91.912 Y80.166 E7.42132
G1 X92.219 Y79.022 E7.47648
G1 X92.409 Y78.377 E7.50778
G1 X92.655 Y77.705 E7.54111
G1 X92.964 Y77.083 E7.57345
G1 X93.558 Y76.048 E7.62901
G1 X94.015 Y75.303 E7.66971
G1 X94.475 Y74.646 E7.70706
M204 S3000
M205 X10 Y10
G0 F3000 X94.934 Y74.967
M204 S1800
M205 X8 Y8
G1 F2400 X95.569 Y74.283 E7.75052
G1 X96.281 Y73.58 E7.79711
G1 X96.937 Y73.025 E7.83712
G1 X97.489 Y72.626 E7.86883
G1 X97.957 Y72.324 E7.89477
G1 X98.665 Y71.92 E7.93273
G1 X99.365 Y71.544 E7.96973
G1 X100.017 Y71.248 E8.00307
G1 X100.6 Y71.06 E8.03159
G1 X102.229 Y70.637 E8.10996
G1 X102.894 Y70.484 E8.14173
G1 X103.644 Y70.364 E8.1771
G1 X104.408 Y70.341 E8.21269
G1 X105.15 Y70.372 E8.24727
G1 X106.715 Y70.479 E8.32032
G1 X107.466 Y70.581 E8.35561
G1 X108.22 Y70.785 E8.39198
G1 X108.733 Y70.966 E8.41731
G1 X109.949 Y71.437 E8.47803
G1 X110.865 Y71.894 E8.5257
G1 X111.928 Y72.553 E8.58393
G1 X112.562 Y72.975 E8.6194
G1 X113.314 Y73.574 E8.66417
G1 X114.044 Y74.265 E8.71097
G1 X114.605 Y74.823 E8.74781
G1 X115.17 Y75.468 E8.78774
G1 X115.966 Y76.679 E8.85522
G1 X116.289 Y77.205 E8.88396
G1 X116.594 Y77.779 E8.91423
G1 X116.824 Y78.352 E8.94298
G1 X117.119 Y79.235 E8.98633
G1 X117.313 Y79.87 E9.01725
G1 X117.525 Y80.883 E9.06544
G1 X117.66 Y82.031 E9.11926
G1 X117.705 Y82.571 E9.1445
G1 X117.719 Y83.391 E9.18268
G1 X117.597 Y84.524 E9.23575
G1 X117.466 Y85.458 E9.27966
G1 X116.996 Y88.105 E9.40485
G1 X116.602 Y90.763 E9.52997
G1 X116.287 Y93.398 E9.65354
G1 X116.044 Y96.055 E9.77777
G1 X115.877 Y98.728 E9.90248
G1 X115.787 Y101.387 E10.02637
G1 X115.771 Y104.04 E10.14991
G1 X115.832 Y106.732 E10.27529
G1 X115.963 Y109.333 E10.39656
G1 X116.181 Y112.089 E10.52529
G1 X116.342 Y113.757 E10.60332
G1 X116.365 Y114.406 E10.63356
G1 X116.296 Y115.191 E10.67025
G1 X116.111 Y116.027 E10.71012
G1 X115.638 Y117.294 E10.77309
G1 X115.326 Y118.095 E10.81312
G1 X114.433 Y120.587 E10.93638
G1 X113.623 Y123.071 E11.05804
G1 X112.851 Y125.685 E11.18496
G1 X112.176 Y128.231 E11.30761
G1 X111.567 Y130.827 E11.43177
G1 X111.105 Y133.165 E11.54274
G1 X110.842 Y134.443 E11.6035
G1 X110.641 Y135.169 E11.63858
G1 X110.366 Y135.833 E11.67204
G1 X110.049 Y136.399 E11.70225
G1 X109.508 Y137.132 E11.74467
G1 X108.89 Y137.764 E11.78583
G1 X108.384 Y138.223 E11.81764
G1 X107.74 Y138.676 E11.8543
G1 X107.166 Y138.981 E11.88457
G1 X106.431 Y139.262 E11.92121
G1 X105.801 Y139.418 E11.95143
G1 X105.087 Y139.507 E11.98494
G1 X104.369 Y139.509 E12.01837
G1 X103.45 Y139.381 E12.06158
G1 X102.919 Y139.263 E12.0869
G1 X102.195 Y139.052 E12.12202
G1 X101.536 Y138.766 E12.15547
G1 X100.917 Y138.401 E12.18893
G1 X100.348 Y137.963 E12.22237
G1 X99.883 Y137.51 E12.2526
G1 X99.391 Y136.896 E12.28923
G1 X99.015 Y136.276 E12.323
G1 X98.626 Y135.392 E12.36797
G1 X98.361 Y134.542 E12.40943
G1 X98.195 Y133.859 E12.44216
G1 X97.715 Y131.158 E12.5699
G1 X97.172 Y128.518 E12.6954
G1 X96.564 Y125.931 E12.81914
G1 X95.883 Y123.376 E12.94227
G1 X95.119 Y120.796 E13.06756
G1 X94.298 Y118.289 E13.1904
G1 X93.792 Y116.891 E13.25963
G1 X93.429 Y115.85 E13.31096
G1 X93.229 Y115.126 E13.34594
G1 X93.131 Y114.484 E13.37618
G1 X93.108 Y113.56 E13.41922
G1 X93.277 Y112.112 E13.4871
G1 X93.554 Y109.418 E13.6132
G1 X93.753 Y106.735 E13.73848
G1 X93.872 Y104.128 E13.86
G1 X93.919 Y101.458 E13.98434
G1 X93.891 Y98.784 E14.10886
G1 X93.787 Y96.111 E14.23342
G1 X93.609 Y93.461 E14.3571
G1 X93.356 Y90.83 E14.48017
G1 X93.028 Y88.189 E14.60409
G1 X92.561 Y85.269 E14.74179
G1 X92.545 Y85.1 E14.74969
G1 X92.345 Y83.816 E14.8102
G1 X92.282 Y82.819 E14.85672
G1 X92.31 Y81.804 E14.904
G1 X92.345 Y81.189 E14.93268
G1 X92.453 Y80.311 E14.97387
G1 X92.756 Y79.18 E15.0284
G1 X92.935 Y78.57 E15.058
G1 X93.181 Y77.898 E15.09132
G1 X93.464 Y77.335 E15.12066
G1 X94.036 Y76.34 E15.1741
G1 X94.474 Y75.624 E15.21319
G1 X94.934 Y74.967 E15.25053
M204 S3000
M205 X10 Y10
G0 F3000 X95.392 Y75.289
M204 S1800
M205 X8 Y8
G1 F2400 X95.963 Y74.681 E15.28937
G1 X96.643 Y74.007 E15.33395
G1 X97.265 Y73.479 E15.37194
G1 X97.793 Y73.097 E15.40229
G1 X98.261 Y72.795 E15.42822
G1 X98.93 Y72.413 E15.4641
G1 X99.599 Y72.053 E15.49947
G1 X100.189 Y71.781 E15.52972
G1 X100.772 Y71.593 E15.55825
G1 X102.355 Y71.183 E15.63439
G1 X103.02 Y71.03 E15.66617
G1 X103.661 Y70.924 E15.69642
G1 X104.425 Y70.901 E15.73201
G1 X105.112 Y70.931 E15.76403
G1 X106.677 Y71.038 E15.83707
G1 X107.321 Y71.122 E15.86731
G1 X108.034 Y71.313 E15.90168
G1 X108.531 Y71.488 E15.92622
G1 X109.7 Y71.939 E15.98456
G1 X110.57 Y72.37 E16.02977
G1 X111.619 Y73.02 E16.08724
G1 X112.214 Y73.414 E16.12047
G1 X112.929 Y73.981 E16.16296
G1 X113.659 Y74.672 E16.20976
G1 X114.186 Y75.195 E16.24433
G1 X114.702 Y75.776 E16.28052
G1 X115.489 Y76.972 E16.34718
G1 X115.794 Y77.468 E16.3743
G1 X116.099 Y78.042 E16.40456
G1 X116.303 Y78.558 E16.4304
G1 X116.583 Y79.399 E16.47167
G1 X116.777 Y80.034 E16.50259
G1 X116.969 Y80.948 E16.54608
G1 X117.102 Y82.079 E16.59911
G1 X117.145 Y82.584 E16.62271
G1 X117.162 Y83.331 E16.6575
G1 X117.042 Y84.446 E16.70972
G1 X116.911 Y85.38 E16.75364
G1 X116.442 Y88.023 E16.87863
G1 X116.048 Y90.681 E17.00375
G1 X115.729 Y93.347 E17.12877
G1 X115.486 Y96.004 E17.25301
G1 X115.318 Y98.693 E17.37847
G1 X115.227 Y101.368 E17.5031
G1 X115.211 Y104.037 E17.62738
G1 X115.272 Y106.745 E17.75351
G1 X115.405 Y109.377 E17.87622
G1 X115.624 Y112.143 E18.00542
G1 X115.782 Y113.777 E18.08186
G1 X115.805 Y114.426 E18.1121
G1 X115.748 Y115.074 E18.14239
G1 X115.586 Y115.831 E18.17844
G1 X115.116 Y117.091 E18.24106
G1 X114.804 Y117.892 E18.28108
G1 X113.906 Y120.398 E18.40504
G1 X113.086 Y122.912 E18.52817
G1 X112.314 Y125.526 E18.65509
G1 X111.635 Y128.088 E18.7785
G1 X111.022 Y130.699 E18.90339
G1 X110.556 Y133.052 E19.01508
G1 X110.293 Y134.33 E19.07584
G1 X110.123 Y134.957 E19.10609
G1 X109.877 Y135.559 E19.13637
G1 X109.56 Y136.125 E19.16658
G1 X109.108 Y136.74 E19.20212
G1 X108.49 Y137.372 E19.24328
G1 X108.008 Y137.808 E19.27354
G1 X107.477 Y138.181 E19.30376
G1 X106.903 Y138.486 E19.33402
G1 X106.296 Y138.718 E19.36428
G1 X105.666 Y138.874 E19.3945
G1 X105.021 Y138.951 E19.42475
G1 X104.371 Y138.949 E19.45502
G1 X103.571 Y138.834 E19.49265
G1 X103.04 Y138.716 E19.51798
G1 X102.415 Y138.537 E19.54825
G1 X101.818 Y138.282 E19.57848
G1 X101.256 Y137.955 E19.60876
G1 X100.739 Y137.562 E19.639
G1 X100.274 Y137.109 E19.66923
G1 X99.868 Y136.602 E19.69947
G1 X99.527 Y136.049 E19.72972
G1 X99.161 Y135.225 E19.77171
G1 X98.896 Y134.375 E19.81316
G1 X98.739 Y133.727 E19.84421
G1 X98.264 Y131.045 E19.97104
G1 X97.721 Y128.405 E20.09654
G1 X97.109 Y125.803 E20.22101
G1 X96.424 Y123.232 E20.3449
G1 X95.656 Y120.637 E20.47092
G1 X94.825 Y118.098 E20.59531
G1 X94.321 Y116.707 E20.66421
G1 X93.958 Y115.666 E20.71554
G1 X93.783 Y115.041 E20.74576
G1 X93.685 Y114.399 E20.776
G1 X93.664 Y113.625 E20.81206
G1 X93.833 Y112.177 E20.87994
G1 X94.111 Y109.475 E21.00642
G1 X94.311 Y106.776 E21.13244
G1 X94.432 Y104.138 E21.25541
G1 X94.479 Y101.468 E21.37975
G1 X94.451 Y98.762 E21.50576
G1 X94.347 Y96.089 E21.63032
G1 X94.168 Y93.423 E21.75474
G1 X93.912 Y90.761 E21.87927
G1 X93.584 Y88.12 E22.00319
G1 X93.119 Y85.216 E22.14013
G1 X93.103 Y85.047 E22.14804
G1 X92.904 Y83.779 E22.2078
G1 X92.842 Y82.834 E22.2519
G1 X92.869 Y81.836 E22.29839
G1 X92.904 Y81.221 E22.32707
G1 X92.994 Y80.456 E22.36294
G1 X93.293 Y79.337 E22.41687
G1 X93.462 Y78.76 E22.44487
G1 X93.682 Y78.149 E22.47511
G1 X93.95 Y77.614 E22.50297
G1 X94.514 Y76.632 E22.5557
G1 X94.952 Y75.916 E22.59479
G1 X95.392 Y75.289 E22.63045
M204 S3000
M205 X10 Y10
G1 F2400 E16.63045
G1 F600 Z0.275
G0 F3000 X103.744 Y81.93 Z0.275
M204 S1800
M205 X8 Y8
G1 F600 Z0.2
G1 F2400 E22.63045
G1 X104.097 Y81.526 E22.65544
G1 X104.737 Y81.299 E22.68706
G1 X105.539 Y81.307 E22.7244
G1 X106.169 Y81.795 E22.76151
G1 X106.633 Y82.595 E22.80457
G1 X106.52 Y83.062 E22.82695
G1 X106.381 Y83.335 E22.84121
G1 X106.04 Y83.675 E22.86363
G1 X105.622 Y83.889 E22.8855
G1 X105.158 Y83.961 E22.90736
G1 X104.993 Y83.936 E22.91513
G1 X104.399 Y83.725 E22.94449
G1 X103.833 Y83.083 E22.98434
G1 X103.638 Y82.488 E23.0135
G1 X103.719 Y81.981 E23.0374
G1 X103.744 Y81.93 E23.04005
M204 S3000
M205 X10 Y10
G0 F3000 X104.251 Y82.201
M204 S1800
M205 X8 Y8
G1 F2400 X104.422 Y82.005 E23.05216
G1 X104.831 Y81.86 E23.07237
G1 X105.344 Y81.865 E23.09625
G1 X105.741 Y82.172 E23.11962
G1 X106.037 Y82.681 E23.14704
G1 X105.992 Y82.863 E23.15577
G1 X105.922 Y83.002 E23.16302
G1 X105.708 Y83.215 E23.17708
G1 X105.445 Y83.35 E23.19084
G1 X105.157 Y83.394 E23.20441
G1 X105.13 Y83.39 E23.20568
G1 X104.722 Y83.245 E23.22584
G1 X104.329 Y82.8 E23.25349
G1 X104.212 Y82.443 E23.27098
G1 X104.251 Y82.201 E23.28239
M204 S3000
M205 X10 Y10
G0 F3000 X104.808 Y82.461
M204 S1800
M205 X8 Y8
G1 F2400 X104.922 Y82.421 E23.28802
G1 X105.15 Y82.423 E23.29864
G1 X105.311 Y82.548 E23.30813
G1 X105.411 Y82.72 E23.31739
G1 X105.375 Y82.756 E23.31976
G1 X105.268 Y82.811 E23.32536
G1 X105.2 Y82.821 E23.32856
G1 X105.048 Y82.767 E23.33608
G1 X104.826 Y82.516 E23.35168
G1 X104.808 Y82.461 E23.35437
M204 S3000
M205 X10 Y10
G1 F2400 E17.35437
;MESH:SG90 Hand.stl
G0 F3000 X107.309 Y81.011
G0 X109.042 Y82.175
M204 S1800
M205 X8 Y8
;TYPE:WALL-INNER
G1 F2400 E23.35437
G1 F1500 X109.058 Y82.519 E23.37041
G1 X108.886 Y83.657 E23.424
G1 X108.335 Y84.741 E23.48062
G1 X107.446 Y85.63 E23.53917
G1 X106.483 Y86.116 E23.58939
G1 X106.253 Y86.193 E23.60069
G1 X105.378 Y86.337 E23.64198
G1 X105.054 Y86.351 E23.65708
G1 X104.422 Y86.258 E23.68683
G1 X103.249 Y85.844 E23.74475
G1 X102.998 Y85.691 E23.75844
G1 X102.778 Y85.489 E23.77234
G1 X101.859 Y84.44 E23.83728
G1 X101.684 Y84.164 E23.8525
G1 X101.378 Y83.244 E23.89765
G1 X101.262 Y82.633 E23.9266
G1 X101.25 Y82.334 E23.94054
G1 X101.435 Y81.244 E23.99202
G1 X101.761 Y80.585 E24.02625
G1 X102.535 Y79.701 E24.08097
G1 X102.897 Y79.428 E24.10208
G1 X104.193 Y78.965 E24.16616
G1 X104.452 Y78.922 E24.17839
G1 X105.897 Y78.93 E24.24567
G1 X106.377 Y79.017 E24.26839
G1 X106.633 Y79.139 E24.28159
G1 X107.869 Y80.099 E24.35447
G1 X108.054 Y80.311 E24.36757
G1 X108.874 Y81.712 E24.44316
G1 X109.042 Y82.175 E24.46609
M204 S3000
M205 X10 Y10
G0 F3000 X108.5 Y82.477
M204 S1800
M205 X8 Y8
G1 F1500 X108.344 Y83.485 E24.51359
G1 X107.873 Y84.415 E24.56213
G1 X107.129 Y85.157 E24.61106
G1 X106.192 Y85.637 E24.66008
G1 X105.189 Y85.794 E24.70735
G1 X104.558 Y85.712 E24.73698
G1 X103.482 Y85.333 E24.7901
G1 X103.276 Y85.207 E24.80134
G1 X102.301 Y84.096 E24.87017
G1 X102.196 Y83.931 E24.87928
G1 X101.91 Y83.068 E24.92161
G1 X101.811 Y82.414 E24.95241
G1 X101.963 Y81.434 E24.99859
G1 X102.228 Y80.899 E25.02639
G1 X102.932 Y80.096 E25.07612
G1 X103.151 Y79.93 E25.08892
G1 X104.432 Y79.48 E25.15214
G1 X105.892 Y79.49 E25.22012
G1 X106.311 Y79.604 E25.24034
G1 X107.564 Y80.578 E25.31424
G1 X108.456 Y82.108 E25.39671
G1 X108.5 Y82.477 E25.41401
M204 S3000
M205 X10 Y10
G0 F3000 X108.56 Y82.487
G0 X108.344 Y83.486
G0 X104.631 Y89.77
M204 S1800
M205 X8 Y8
G1 F1257.5 X104.342 Y90.442 E25.45464
G1 F1500 X103.805 Y91.228 E25.49897
G1 X103.742 Y91.561 E25.51475
G1 X103.806 Y91.96 E25.53357
G1 X104.344 Y92.903 E25.58412
G1 F1312.5 X104.599 Y93.451 E25.61629
G1 F1176.5 X104.589 Y93.787 E25.63624
G1 F1235.3 X104.54 Y93.917 E25.6441
G1 F1386.1 X104.365 Y94.722 E25.68561
G1 F1500 X104.079 Y96.688 E25.77812
G1 X104.086 Y98.479 E25.86151
G1 X104.357 Y100.234 E25.9442
G1 X104.841 Y101.794 E26.02026
G1 X104.923 Y101.585 E26.03071
G1 X105.485 Y99.499 E26.13131
G1 X105.727 Y97.318 E26.23349
G1 X105.502 Y94.87 E26.34796
G1 F1386.1 X105.33 Y93.931 E26.39606
G1 F1235.3 X105.293 Y93.817 E26.40284
G1 F1176.5 X105.31 Y93.481 E26.42281
G1 F1312.5 X105.489 Y93.177 E26.44159
G1 F1500 X105.699 Y92.709 E26.46547
G1 X105.99 Y91.652 E26.51652
G1 X105.979 Y91.232 E26.53608
G1 X105.774 Y90.713 E26.56207
G1 F1363.6 X105.483 Y89.848 E26.60881
G1 F1158.6 X105.403 Y89.716 E26.61812
G1 F1082.5 X105.385 Y89.454 E26.63506
G1 F1257.5 X105.686 Y88.772 E26.67647
