;FLAVOR:Marlin
;TIME:316
;Filament used: 0.262275m
;Layer height: 0.2
;MINX:91.112
;MINY:91.111
;MINZ:0.2
;MAXX:118.888
;MAXY:118.888
;MAXZ:5.075
;TARGET_MACHINE.NAME:Anycubic i3 Mega
;Generated with Cura_SteamEngine 5.7.0-alpha.0
M140 S60
M105
M190 S60
M104 S200
M105
M109 S200
M82 ;absolute extrusion mode
G21 ;metric values
G90 ;absolute positioning
M82 ;set extruder to absolute mode
M107 ;start with the fan off
G28 X0 Y0 ;move X/Y to min endstops
G28 Z0 ;move Z to min endstops
G1 Z15.0 F100 ;move the platform down 15mm
G92 E0 ;zero the extruded length
G1 F200 E3 ;extrude 3mm of feed stock
G92 E0 ;zero the extruded length again
G1 F100
G0 Y20 F100
M117 Printing...
G5
G92 E0
G92 E0
G1 F2400 E-6
;LAYER_COUNT:25
;LAYER:0
M107
M204 S3000
M205 X10 Y10
G1 F600 Z0.275
G0 F3000 X95.18 Y95.187 Z0.275
M204 S1800
M205 X8 Y8
;TYPE:SKIRT
G1 F600 Z0.2
G1 F2400 E0
G1 X94.647 Y95.735 E0.0356
G1 X94.098 Y96.387 E0.07529
G1 X93.619 Y97.051 E0.11341
G1 X93.188 Y97.687 E0.14918
G1 X92.765 Y98.416 E0.18843
G1 X92.487 Y98.984 E0.21788
G1 X92.099 Y99.844 E0.26181
G1 X91.791 Y100.691 E0.30377
G1 X91.63 Y101.258 E0.33122
G1 X91.399 Y102.166 E0.37485
G1 X91.25 Y103.003 E0.41443
G1 X91.184 Y103.629 E0.44375
G1 X91.112 Y104.606 E0.48936
G1 X91.112 Y105.455 E0.52889
G1 X91.155 Y106.05 E0.55667
G1 X91.251 Y106.988 E0.60058
G1 X91.412 Y107.9 E0.6437
G1 X91.556 Y108.468 E0.67099
G1 X91.8 Y109.335 E0.71293
G1 X92.091 Y110.14 E0.75278
G1 X92.352 Y110.729 E0.78278
G1 X92.783 Y111.615 E0.82866
G1 X93.178 Y112.3 E0.86548
G1 X93.637 Y112.975 E0.90349
G1 X94.094 Y113.605 E0.93973
G1 X94.626 Y114.242 E0.97838
G1 X95.187 Y114.82 E1.01588
G1 X95.735 Y115.353 E1.05148
G1 X96.387 Y115.902 E1.09117
G1 X97.051 Y116.381 E1.12929
G1 X97.687 Y116.812 E1.16507
G1 X98.416 Y117.235 E1.20431
G1 X98.984 Y117.513 E1.23376
G1 X99.879 Y117.916 E1.27946
G1 X100.655 Y118.199 E1.31793
G1 X101.262 Y118.371 E1.3473
G1 X102.167 Y118.601 E1.39078
G1 X103.003 Y118.75 E1.43032
G1 X103.629 Y118.816 E1.45963
G1 X104.605 Y118.888 E1.5052
G1 X105.453 Y118.888 E1.54469
G1 X106.049 Y118.845 E1.57252
G1 X106.988 Y118.749 E1.61647
G1 X107.9 Y118.588 E1.65959
G1 X108.468 Y118.444 E1.68688
G1 X109.336 Y118.199 E1.72887
G1 X110.135 Y117.91 E1.76844
G1 X110.859 Y117.585 E1.80539
G1 X111.651 Y117.198 E1.84644
G1 X112.3 Y116.822 E1.88136
G1 X112.975 Y116.363 E1.91937
G1 X113.605 Y115.906 E1.95561
G1 X114.242 Y115.374 E1.99426
G1 X114.82 Y114.813 E2.03176
G1 X115.353 Y114.265 E2.06736
G1 X115.902 Y113.613 E2.10705
G1 X116.381 Y112.949 E2.14517
G1 X116.812 Y112.313 E2.18095
G1 X117.235 Y111.584 E2.22019
G1 X117.513 Y111.016 E2.24964
G1 X117.901 Y110.156 E2.29357
G1 X118.209 Y109.309 E2.33554
G1 X118.37 Y108.742 E2.36298
G1 X118.601 Y107.834 E2.40661
G1 X118.75 Y106.997 E2.4462
G1 X118.816 Y106.371 E2.47551
G1 X118.888 Y105.395 E2.52108
G1 X118.888 Y104.547 E2.56056
G1 X118.845 Y103.951 E2.58839
G1 X118.749 Y103.012 E2.63234
G1 X118.588 Y102.1 E2.67546
G1 X118.444 Y101.532 E2.70275
G1 X118.2 Y100.665 E2.74469
G1 X117.909 Y99.86 E2.78455
G1 X117.648 Y99.271 E2.81455
G1 X117.217 Y98.385 E2.86042
G1 X116.822 Y97.7 E2.89724
G1 X116.363 Y97.025 E2.93525
G1 X115.906 Y96.395 E2.97149
G1 X115.374 Y95.758 E3.01014
G1 X114.813 Y95.18 E3.04765
G1 X114.265 Y94.647 E3.08324
G1 X113.613 Y94.098 E3.12293
G1 X112.949 Y93.619 E3.16105
G1 X112.313 Y93.188 E3.19683
G1 X111.584 Y92.765 E3.23607
G1 X111.016 Y92.487 E3.26552
G1 X110.16 Y92.101 E3.30925
G1 X109.35 Y91.804 E3.34942
G1 X108.742 Y91.629 E3.37888
G1 X107.829 Y91.398 E3.42273
G1 X106.956 Y91.244 E3.46401
G1 X106.371 Y91.184 E3.49139
G1 X105.354 Y91.111 E3.53887
G1 X104.547 Y91.112 E3.57645
G1 X103.951 Y91.155 E3.60427
G1 X103.012 Y91.251 E3.64822
G1 X102.1 Y91.412 E3.69135
G1 X101.532 Y91.556 E3.71863
G1 X100.665 Y91.8 E3.76057
G1 X99.86 Y92.091 E3.80043
G1 X99.271 Y92.352 E3.83043
G1 X98.385 Y92.783 E3.87631
G1 X97.7 Y93.178 E3.91313
G1 X97.025 Y93.637 E3.95113
G1 X96.395 Y94.094 E3.98738
G1 X95.758 Y94.626 E4.02602
G1 X95.18 Y95.187 E4.06353
M204 S3000
M205 X10 Y10
G0 F3000 X95.57 Y95.588
M204 S1800
M205 X8 Y8
G1 F2400 X96.118 Y95.055 E4.09912
G1 X96.724 Y94.547 E4.13594
G1 X97.34 Y94.1 E4.17138
G1 X97.981 Y93.663 E4.20751
G1 X98.63 Y93.287 E4.24243
G1 X99.516 Y92.856 E4.28831
G1 X100.051 Y92.617 E4.3156
G1 X100.817 Y92.339 E4.35354
G1 X101.67 Y92.099 E4.3948
G1 X102.238 Y91.955 E4.42209
G1 X103.069 Y91.808 E4.46138
G1 X103.991 Y91.714 E4.50454
G1 X104.587 Y91.671 E4.53236
G1 X105.354 Y91.671 E4.56808
G1 X106.314 Y91.741 E4.6129
G1 X106.899 Y91.801 E4.64028
G1 X107.692 Y91.941 E4.67778
G1 X108.589 Y92.168 E4.72086
G1 X109.158 Y92.33 E4.74841
G1 X109.93 Y92.612 E4.78668
G1 X110.771 Y92.991 E4.82963
G1 X111.304 Y93.25 E4.85723
G1 X111.999 Y93.652 E4.89461
G1 X112.622 Y94.074 E4.92965
G1 X113.253 Y94.527 E4.96582
G1 X113.875 Y95.049 E5.00363
G1 X114.412 Y95.57 E5.03847
G1 X114.945 Y96.118 E5.07407
G1 X115.453 Y96.724 E5.11089
G1 X115.9 Y97.34 E5.14633
G1 X116.337 Y97.981 E5.18245
G1 X116.713 Y98.63 E5.21738
G1 X117.144 Y99.516 E5.26326
G1 X117.383 Y100.051 E5.29054
G1 X117.661 Y100.817 E5.32849
G1 X117.901 Y101.67 E5.36975
G1 X118.045 Y102.238 E5.39703
G1 X118.192 Y103.069 E5.43633
G1 X118.286 Y103.991 E5.47948
G1 X118.329 Y104.587 E5.50731
G1 X118.329 Y105.354 E5.54302
G1 X118.259 Y106.314 E5.58784
G1 X118.199 Y106.899 E5.61523
G1 X118.058 Y107.696 E5.65291
G1 X117.831 Y108.589 E5.69582
G1 X117.67 Y109.156 E5.72326
G1 X117.39 Y109.926 E5.76141
G1 X117.009 Y110.771 E5.80458
G1 X116.75 Y111.304 E5.83217
G1 X116.348 Y111.999 E5.86956
G1 X115.926 Y112.622 E5.90459
G1 X115.473 Y113.253 E5.94076
G1 X114.951 Y113.875 E5.97857
G1 X114.43 Y114.412 E6.01341
G1 X113.882 Y114.945 E6.04901
G1 X113.276 Y115.453 E6.08583
G1 X112.66 Y115.9 E6.12127
G1 X112.019 Y116.337 E6.15739
G1 X111.37 Y116.713 E6.19232
G1 X110.629 Y117.075 E6.23072
G1 X109.944 Y117.384 E6.26571
G1 X109.184 Y117.66 E6.30336
G1 X108.33 Y117.901 E6.34468
G1 X107.762 Y118.045 E6.37197
G1 X106.931 Y118.192 E6.41126
G1 X106.009 Y118.286 E6.45442
G1 X105.413 Y118.329 E6.48224
G1 X104.646 Y118.329 E6.51796
G1 X103.686 Y118.259 E6.56278
G1 X103.101 Y118.199 E6.59016
G1 X102.305 Y118.058 E6.6278
G1 X101.414 Y117.832 E6.6706
G1 X100.846 Y117.672 E6.69808
G1 X100.109 Y117.405 E6.73458
G1 X99.229 Y117.009 E6.77952
G1 X98.696 Y116.75 E6.80711
G1 X98.001 Y116.348 E6.8445
G1 X97.378 Y115.926 E6.87954
G1 X96.747 Y115.473 E6.9157
G1 X96.125 Y114.951 E6.95352
G1 X95.588 Y114.43 E6.98836
G1 X95.055 Y113.882 E7.02395
G1 X94.547 Y113.276 E7.06077
G1 X94.1 Y112.66 E7.09621
G1 X93.663 Y112.019 E7.13234
G1 X93.287 Y111.37 E7.16726
G1 X92.856 Y110.484 E7.21314
G1 X92.617 Y109.949 E7.24042
G1 X92.339 Y109.183 E7.27837
G1 X92.099 Y108.33 E7.31963
G1 X91.955 Y107.762 E7.34692
G1 X91.808 Y106.931 E7.38621
G1 X91.714 Y106.01 E7.42932
G1 X91.671 Y105.415 E7.4571
G1 X91.671 Y104.647 E7.49286
G1 X91.741 Y103.686 E7.53773
G1 X91.801 Y103.101 E7.56511
G1 X91.942 Y102.304 E7.6028
G1 X92.169 Y101.411 E7.6457
G1 X92.33 Y100.844 E7.67315
G1 X92.61 Y100.074 E7.7113
G1 X92.991 Y99.229 E7.75446
G1 X93.25 Y98.696 E7.78205
G1 X93.652 Y98.001 E7.81944
G1 X94.074 Y97.378 E7.85448
G1 X94.527 Y96.747 E7.89065
G1 X95.049 Y96.125 E7.92846
G1 X95.57 Y95.588 E7.9633
M204 S3000
M205 X10 Y10
G0 F3000 X95.961 Y95.989
M204 S1800
M205 X8 Y8
G1 F2400 X96.479 Y95.483 E7.99702
G1 X97.053 Y95 E8.03195
G1 X97.656 Y94.562 E8.06665
G1 X98.262 Y94.148 E8.10082
G1 X98.911 Y93.772 E8.13575
G1 X99.746 Y93.367 E8.17896
G1 X100.243 Y93.143 E8.20435
G1 X100.969 Y92.878 E8.24034
G1 X101.808 Y92.642 E8.28092
G1 X102.376 Y92.498 E8.3082
G1 X103.126 Y92.365 E8.34367
G1 X104.032 Y92.272 E8.38608
G1 X104.587 Y92.231 E8.41199
G1 X105.354 Y92.231 E8.44771
G1 X106.258 Y92.298 E8.48992
G1 X106.803 Y92.353 E8.51542
G1 X107.555 Y92.484 E8.55097
G1 X108.437 Y92.707 E8.59333
G1 X108.967 Y92.856 E8.61897
G1 X109.7 Y93.122 E8.65528
G1 X110.527 Y93.495 E8.69752
G1 X111.024 Y93.735 E8.72322
G1 X111.685 Y94.116 E8.75875
G1 X112.296 Y94.529 E8.79309
G1 X112.894 Y94.957 E8.82733
G1 X113.485 Y95.451 E8.8632
G1 X114.011 Y95.961 E8.89731
G1 X114.517 Y96.479 E8.93103
G1 X115 Y97.053 E8.96596
G1 X115.438 Y97.656 E9.00066
G1 X115.852 Y98.262 E9.03484
G1 X116.228 Y98.911 E9.06976
G1 X116.633 Y99.746 E9.11298
G1 X116.857 Y100.243 E9.13836
G1 X117.122 Y100.969 E9.17435
G1 X117.358 Y101.808 E9.21493
G1 X117.502 Y102.376 E9.24222
G1 X117.635 Y103.126 E9.27769
G1 X117.728 Y104.032 E9.32009
G1 X117.769 Y104.587 E9.34601
G1 X117.769 Y105.354 E9.38172
G1 X117.702 Y106.258 E9.42393
G1 X117.647 Y106.803 E9.44944
G1 X117.515 Y107.558 E9.48513
G1 X117.292 Y108.438 E9.5274
G1 X117.144 Y108.965 E9.55289
G1 X116.879 Y109.696 E9.58909
G1 X116.505 Y110.527 E9.63153
G1 X116.265 Y111.024 E9.65723
G1 X115.884 Y111.685 E9.69275
G1 X115.471 Y112.296 E9.72709
G1 X115.043 Y112.894 E9.76134
G1 X114.549 Y113.485 E9.7972
G1 X114.039 Y114.011 E9.83132
G1 X113.521 Y114.517 E9.86504
G1 X112.947 Y115 E9.89997
G1 X112.344 Y115.438 E9.93467
G1 X111.738 Y115.852 E9.96885
G1 X111.089 Y116.228 E10.00377
G1 X110.398 Y116.565 E10.03957
G1 X109.752 Y116.858 E10.0726
G1 X109.032 Y117.121 E10.10829
G1 X108.192 Y117.358 E10.14893
G1 X107.624 Y117.502 E10.17622
G1 X106.874 Y117.635 E10.21169
G1 X105.968 Y117.728 E10.25409
G1 X105.413 Y117.769 E10.28001
G1 X104.646 Y117.769 E10.31572
G1 X103.742 Y117.702 E10.35793
G1 X103.197 Y117.647 E10.38344
G1 X102.442 Y117.515 E10.41913
G1 X101.565 Y117.293 E10.46125
G1 X101.037 Y117.145 E10.48679
G1 X100.3 Y116.878 E10.52329
G1 X99.473 Y116.505 E10.56553
G1 X98.976 Y116.265 E10.59123
G1 X98.315 Y115.884 E10.62676
G1 X97.704 Y115.471 E10.6611
G1 X97.106 Y115.043 E10.69534
G1 X96.515 Y114.549 E10.73121
G1 X95.989 Y114.039 E10.76532
G1 X95.483 Y113.521 E10.79904
G1 X95 Y112.947 E10.83397
G1 X94.562 Y112.344 E10.86868
G1 X94.148 Y111.738 E10.90285
G1 X93.772 Y111.089 E10.93777
G1 X93.367 Y110.254 E10.98099
G1 X93.143 Y109.757 E11.00637
G1 X92.878 Y109.031 E11.04236
G1 X92.642 Y108.192 E11.08294
G1 X92.498 Y107.624 E11.11023
G1 X92.365 Y106.874 E11.1457
G1 X92.272 Y105.969 E11.18806
G1 X92.231 Y105.415 E11.21393
G1 X92.231 Y104.647 E11.24969
G1 X92.298 Y103.742 E11.29194
G1 X92.353 Y103.197 E11.31745
G1 X92.485 Y102.442 E11.35314
G1 X92.708 Y101.562 E11.39541
G1 X92.856 Y101.035 E11.4209
G1 X93.121 Y100.304 E11.45711
G1 X93.495 Y99.473 E11.49954
G1 X93.735 Y98.976 E11.52524
G1 X94.116 Y98.315 E11.56076
G1 X94.529 Y97.704 E11.5951
G1 X94.957 Y97.106 E11.62935
G1 X95.451 Y96.515 E11.66521
G1 X95.961 Y95.989 E11.69933
M204 S3000
M205 X10 Y10
G1 F2400 E5.69933
;MESH:Label Sticker.stl
G0 F3000 X98.799 Y99.675
G0 X99.566 Y100.441
G0 X105 Y111.108
M204 S1800
M205 X8 Y8
;TYPE:WALL-INNER
G1 F2400 E11.69933
G1 F1500 X106.067 Y111.015 E11.7492
G1 X107.084 Y110.743 E11.79822
G1 X108.052 Y110.29 E11.84799
G1 X108.926 Y109.678 E11.89767
G1 X109.678 Y108.926 E11.94719
G1 X110.29 Y108.053 E11.99683
G1 X110.743 Y107.082 E12.04673
G1 X111.014 Y106.066 E12.09569
G1 X111.108 Y105.001 E12.14547
G1 X111.015 Y103.932 E12.19544
G1 X110.743 Y102.918 E12.24432
G1 X110.29 Y101.948 E12.29417
G1 X109.678 Y101.074 E12.34386
G1 X108.926 Y100.322 E12.39338
G1 X108.053 Y99.71 E12.44302
G1 X107.082 Y99.257 E12.49291
G1 X106.066 Y98.986 E12.54188
G1 X105 Y98.892 E12.59171
G1 X103.933 Y98.985 E12.64158
G1 X102.918 Y99.257 E12.69051
G1 X101.947 Y99.71 E12.7404
G1 X101.074 Y100.322 E12.79005
G1 X100.322 Y101.074 E12.83957
G1 X99.71 Y101.948 E12.88925
G1 X99.257 Y102.919 E12.93914
G1 X98.986 Y103.932 E12.98797
G1 X98.892 Y105.001 E13.03794
G1 X98.985 Y106.067 E13.08776
G1 X99.257 Y107.082 E13.13669
G1 X99.71 Y108.053 E13.18659
G1 X100.322 Y108.926 E13.23623
G1 X101.074 Y109.678 E13.28575
G1 X101.948 Y110.29 E13.33543
G1 X102.917 Y110.743 E13.38524
G1 X103.933 Y111.014 E13.43421
G1 X105 Y111.108 E13.48408
M204 S3000
M205 X10 Y10
G0 F3000 X105 Y111.67
M204 S1800
M205 X8 Y8
G1 F1500 X106.164 Y111.568 E13.53849
G1 X107.276 Y111.271 E13.59208
G1 X108.334 Y110.777 E13.64646
G1 X109.288 Y110.109 E13.70068
G1 X110.109 Y109.288 E13.75475
G1 X110.776 Y108.334 E13.80895
G1 X111.271 Y107.274 E13.86343
G1 X111.568 Y106.164 E13.91693
G1 X111.67 Y105.001 E13.97129
G1 X111.568 Y103.834 E14.02584
G1 X111.271 Y102.726 E14.07925
G1 X110.776 Y101.667 E14.13369
G1 X110.109 Y100.712 E14.18793
G1 X109.288 Y99.891 E14.24199
G1 X108.334 Y99.224 E14.2962
G1 X107.274 Y98.729 E14.35067
G1 X106.164 Y98.432 E14.40417
G1 X105 Y98.33 E14.45858
G1 X103.836 Y98.432 E14.51299
G1 X102.726 Y98.729 E14.5665
G1 X101.666 Y99.224 E14.62097
G1 X100.712 Y99.891 E14.67517
G1 X99.891 Y100.712 E14.72924
G1 X99.224 Y101.666 E14.78344
G1 X98.729 Y102.726 E14.83792
G1 X98.432 Y103.834 E14.89133
G1 X98.33 Y105.001 E14.94588
G1 X98.432 Y106.164 E15.00024
G1 X98.729 Y107.274 E15.05374
G1 X99.224 Y108.334 E15.10822
G1 X99.891 Y109.288 E15.16242
G1 X100.712 Y110.109 E15.21649
G1 X101.666 Y110.777 E15.27072
G1 X102.724 Y111.271 E15.32509
G1 X103.836 Y111.568 E15.37868
G1 X105 Y111.67 E15.43309
M204 S3000
M205 X10 Y10
G0 F3000 X105 Y112.232
M204 S1800
M205 X8 Y8
;TYPE:WALL-OUTER
G1 F1500 X106.262 Y112.122 E15.49208
G1 X107.468 Y111.799 E15.55021
G1 X108.615 Y111.263 E15.60916
G1 X109.649 Y110.539 E15.66794
G1 X110.539 Y109.649 E15.72655
G1 X111.263 Y108.615 E15.78533
G1 X111.799 Y107.466 E15.84436
G1 X112.122 Y106.262 E15.90241
G1 X112.232 Y105.001 E15.96135
G1 X112.122 Y103.736 E16.02047
G1 X111.799 Y102.534 E16.07843
G1 X111.263 Y101.385 E16.13747
G1 X110.539 Y100.351 E16.19624
G1 X109.649 Y99.461 E16.25485
G1 X108.615 Y98.737 E16.31363
G1 X107.466 Y98.201 E16.37267
G1 X106.262 Y97.878 E16.43071
G1 X105 Y97.768 E16.4897
G1 X103.738 Y97.878 E16.54869
G1 X102.534 Y98.201 E16.60673
G1 X101.385 Y98.737 E16.66577
G1 X100.351 Y99.461 E16.72455
G1 X99.461 Y100.351 E16.78315
G1 X98.737 Y101.385 E16.84193
G1 X98.201 Y102.534 E16.90097
G1 X97.878 Y103.736 E16.95892
G1 X97.768 Y105.001 E17.01805
G1 X97.878 Y106.262 E17.07699
G1 X98.201 Y107.466 E17.13504
G1 X98.737 Y108.615 E17.19407
G1 X99.461 Y109.649 E17.25285
G1 X100.351 Y110.539 E17.31146
G1 X101.385 Y111.263 E17.37023
G1 X102.532 Y111.799 E17.42919
G1 X103.738 Y112.122 E17.48732
G1 X105 Y112.232 E17.54631
M204 S3000
M205 X10 Y10
G0 F3000 X105.199 Y112.215
G0 X105.146 Y111.598
G0 X105 Y110.565
M204 S1800
M205 X8 Y8
;TYPE:SKIN
G1 F1200 X104.021 Y110.48 E17.59207
G1 X103.108 Y110.236 E17.63607
G1 X102.22 Y109.82 E17.68173
G1 X101.422 Y109.261 E17.7271
G1 X100.739 Y108.578 E17.77208
G1 X100.181 Y107.78 E17.81742
G1 X99.764 Y106.889 E17.86323
G1 X99.52 Y105.978 E17.90714
G1 X99.435 Y105.001 E17.95281
G1 X99.52 Y104.018 E17.99875
G1 X99.764 Y103.112 E18.04244
G1 X100.183 Y102.217 E18.08846
G1 X100.739 Y101.422 E18.13363
G1 X101.422 Y100.739 E18.17861
G1 X102.22 Y100.181 E18.22395
G1 X103.111 Y99.764 E18.26976
G1 X104.022 Y99.52 E18.31367
G1 X105 Y99.435 E18.35938
G1 X105.978 Y99.52 E18.4051
G1 X106.888 Y99.764 E18.44897
G1 X107.78 Y100.181 E18.49482
G1 X108.578 Y100.739 E18.54016
G1 X109.261 Y101.422 E18.58513
G1 X109.818 Y102.22 E18.63045
G1 X110.236 Y103.112 E18.67632
G1 X110.48 Y104.018 E18.72001
G1 X110.565 Y105 E18.76591
G1 X110.48 Y105.978 E18.81162
G1 X110.236 Y106.888 E18.85549
G1 X109.819 Y107.78 E18.90134
G1 X109.261 Y108.578 E18.94668
G1 X108.578 Y109.261 E18.99165
G1 X107.78 Y109.82 E19.03702
G1 X106.892 Y110.236 E19.08268
G1 X105.979 Y110.48 E19.12669
G1 X105 Y110.565 E19.17245
M204 S3000
M205 X10 Y10
G0 F3000 X102.526 Y109.654
M204 S1800
M205 X8 Y8
G1 F1200 X100.346 Y107.474 E19.316
G1 X100.276 Y107.404
M204 S3000
M205 X10 Y10
G0 F3000 X99.871 Y106.207
M204 S1800
M205 X8 Y8
G1 F1200 X103.793 Y110.129 E19.57427
M204 S3000
M205 X10 Y10
G0 F3000 X104.715 Y110.259
M204 S1800
M205 X8 Y8
G1 F1200 X99.74 Y105.284 E19.90189
M204 S3000
M205 X10 Y10
G0 F3000 X99.759 Y104.51
M204 S1800
M205 X8 Y8
G1 F1200 X105.489 Y110.241 E20.27925
M204 S3000
M205 X10 Y10
G0 F3000 X106.177 Y110.137
M204 S1800
M205 X8 Y8
G1 F1200 X99.863 Y103.822 E20.69507
M204 S3000
M205 X10 Y10
G0 F3000 X100.032 Y103.199
M204 S1800
M205 X8 Y8
G1 F1200 X106.801 Y109.969 E21.14085
M204 S3000
M205 X10 Y10
G0 F3000 X107.34 Y109.716
M204 S1800
M205 X8 Y8
