;FLAVOR:Marlin
;TIME:2695
;Filament used: 2.23046m
;Layer height: 0.2
;MINX:73.362
;MINY:73.443
;MINZ:0.2
;MAXX:136.641
;MAXY:136.558
;MAXZ:16.4
;TARGET_MACHINE.NAME:Anycubic i3 Mega
;Generated with Cura_SteamEngine 5.7.0-alpha.0
M140 S60
M105
M190 S60
M104 S220
M105
M109 S220
M82 ;absolute extrusion mode
G21 ;metric values
G90 ;absolute positioning
M82 ;set extruder to absolute mode
M107 ;start with the fan off
G28 X0 Y0 ;move X/Y to min endstops
G28 Z0 ;move Z to min endstops
G1 Z15.0 F100 ;move the platform down 15mm
G92 E0 ;zero the extruded length
G1 F200 E3 ;extrude 3mm of feed stock
G92 E0 ;zero the extruded length again
G1 F100
G0 Y20 F100
M117 Printing...
G5
G92 E0
G92 E0
G1 F2400 E-6
;LAYER_COUNT:82
;LAYER:0
M107
M204 S3000
M205 X10 Y10
G1 F600 Z0.275
G0 F3000 X83.337 Y81.936 Z0.275
M204 S1800
M205 X8 Y8
;TYPE:SKIRT
G1 F600 Z0.2
G1 F2400 E0
G1 X83.852 Y81.46 E0.03265
G1 X84.605 Y80.809 E0.079
G1 X87.276 Y78.887 E0.23223
G1 X88.313 Y78.12 E0.29229
G1 X89.16 Y77.605 E0.33845
G1 X90.029 Y77.123 E0.38472
G1 X94.073 Y75.327 E0.59076
G1 X94.558 Y75.133 E0.61508
G1 X95.227 Y74.905 E0.648
G1 X95.93 Y74.689 E0.68224
G1 X96.481 Y74.547 E0.70874
G1 X98.907 Y74.048 E0.82407
G1 X100.653 Y73.667 E0.90728
G1 X101.838 Y73.519 E0.96289
G1 X102.721 Y73.443 E1.00415
G1 X107.432 Y73.45 E1.22352
G1 X108.313 Y73.531 E1.26472
G1 X109.038 Y73.62 E1.29873
G1 X109.591 Y73.714 E1.32485
G1 X112.016 Y74.244 E1.44043
G1 X113.732 Y74.597 E1.52201
G1 X115.296 Y75.075 E1.59816
G1 X116.01 Y75.357 E1.63391
G1 X118.183 Y76.345 E1.74506
G1 X119.928 Y77.108 E1.83374
G1 X121.268 Y77.853 E1.90513
G1 X121.883 Y78.259 E1.93945
G1 X125.5 Y80.895 E2.14785
G1 X126.184 Y81.493 E2.19015
G1 X126.838 Y82.102 E2.23177
G1 X130.079 Y85.705 E2.45743
G1 X130.624 Y86.435 E2.49985
G1 X131.027 Y87.008 E2.53247
G1 X131.319 Y87.471 E2.55795
G1 X132.61 Y89.744 E2.67967
G1 X133.292 Y90.894 E2.74193
G1 X133.562 Y91.403 E2.76876
G1 X133.941 Y92.215 E2.81049
G1 X134.3 Y93.054 E2.85298
G1 X135.726 Y97.456 E3.06844
G1 X135.96 Y98.47 E3.1169
G1 X136.091 Y99.136 E3.14851
G1 X136.166 Y99.645 E3.17246
G1 X136.411 Y102.154 E3.28985
G1 X136.62 Y104.004 E3.37654
G1 X136.641 Y105.572 E3.44956
G1 X136.598 Y106.245 E3.48096
G1 X136.327 Y108.662 E3.59421
G1 X136.183 Y110.198 E3.66605
G1 X136.094 Y110.815 E3.69508
G1 X135.925 Y111.684 E3.7363
G1 X135.739 Y112.503 E3.7754
G1 X135.47 Y113.349 E3.81674
G1 X134.777 Y115.426 E3.9187
G1 X134.333 Y116.83 E3.98726
G1 X133.829 Y118.033 E4.048
G1 X133.476 Y118.793 E4.08702
G1 X131.854 Y121.574 E4.23693
G1 X131.133 Y122.843 E4.30489
G1 X130.633 Y123.556 E4.34544
G1 X129.984 Y124.417 E4.39565
G1 X126.819 Y127.921 E4.61551
G1 X126.115 Y128.569 E4.66007
G1 X125.439 Y129.156 E4.70175
G1 X122.718 Y131.119 E4.85799
G1 X121.655 Y131.905 E4.91955
G1 X120.833 Y132.4 E4.96423
G1 X119.971 Y132.877 E5.0101
G1 X116.385 Y134.464 E5.1927
G1 X115.982 Y134.652 E5.21341
G1 X115.487 Y134.853 E5.23828
G1 X114.791 Y135.092 E5.27255
G1 X114.125 Y135.298 E5.30501
G1 X113.574 Y135.439 E5.33149
G1 X111.183 Y135.932 E5.44517
G1 X109.348 Y136.333 E5.53263
G1 X107.793 Y136.524 E5.60558
G1 X107.043 Y136.558 E5.64054
G1 X102.584 Y136.552 E5.84817
G1 X101.6 Y136.462 E5.89418
G1 X100.686 Y136.346 E5.93708
G1 X96.179 Y135.387 E6.15165
G1 X95.19 Y135.086 E6.19979
G1 X94.581 Y134.878 E6.22975
G1 X94.001 Y134.648 E6.2588
G1 X91.796 Y133.646 E6.37158
G1 X90.352 Y133.02 E6.44487
G1 X89.888 Y132.792 E6.46894
G1 X88.683 Y132.117 E6.53325
G1 X88.107 Y131.734 E6.56546
G1 X84.798 Y129.325 E6.75605
G1 X84.163 Y128.823 E6.79374
G1 X83.287 Y128.013 E6.8493
G1 X82.89 Y127.607 E6.87574
G1 X81.19 Y125.691 E6.99501
G1 X80.22 Y124.635 E7.06178
G1 X79.852 Y124.191 E7.08863
G1 X79.091 Y123.174 E7.14778
G1 X78.667 Y122.505 E7.18466
G1 X77.451 Y120.363 E7.29935
G1 X76.526 Y118.786 E7.38448
G1 X75.894 Y117.43 E7.45415
G1 X75.612 Y116.672 E7.4918
G1 X74.84 Y114.241 E7.61057
G1 X74.376 Y112.856 E7.67859
G1 X74.239 Y112.373 E7.70196
G1 X74.04 Y111.519 E7.7428
G1 X73.908 Y110.855 E7.77432
G1 X73.827 Y110.295 E7.80067
G1 X73.581 Y107.79 E7.91787
G1 X73.415 Y106.353 E7.98523
G1 X73.379 Y105.792 E8.01141
G1 X73.362 Y104.86 E8.05481
G1 X73.378 Y103.982 E8.0957
G1 X73.87 Y99.335 E8.31329
G1 X74.057 Y98.374 E8.35888
G1 X74.269 Y97.467 E8.40225
G1 X75.628 Y93.294 E8.60661
G1 X75.83 Y92.744 E8.63389
G1 X76.108 Y92.095 E8.66677
G1 X76.53 Y91.195 E8.71305
G1 X78.133 Y88.446 E8.86123
G1 X78.831 Y87.217 E8.92705
G1 X79.381 Y86.425 E8.97195
G1 X80.014 Y85.588 E9.02081
G1 X82.456 Y82.895 E9.19009
G1 X82.905 Y82.382 E9.22183
G1 X83.337 Y81.936 E9.25074
M204 S3000
M205 X10 Y10
G0 F3000 X83.717 Y82.347
M204 S1800
M205 X8 Y8
G1 F2400 X84.219 Y81.883 E9.28257
G1 X84.932 Y81.264 E9.32654
G1 X87.603 Y79.342 E9.47977
G1 X88.646 Y78.57 E9.54019
G1 X89.432 Y78.095 E9.58295
G1 X90.301 Y77.613 E9.62923
G1 X94.281 Y75.847 E9.83198
G1 X94.766 Y75.653 E9.8563
G1 X95.392 Y75.44 E9.88709
G1 X96.07 Y75.231 E9.92013
G1 X96.594 Y75.096 E9.94532
G1 X99.02 Y74.597 E10.06065
G1 X100.723 Y74.223 E10.14184
G1 X101.888 Y74.077 E10.19651
G1 X102.72 Y74.003 E10.23541
G1 X107.381 Y74.008 E10.45244
G1 X108.245 Y74.087 E10.49284
G1 X108.945 Y74.172 E10.52568
G1 X109.471 Y74.261 E10.55052
G1 X111.904 Y74.793 E10.66648
G1 X113.568 Y75.133 E10.74557
G1 X115.132 Y75.611 E10.82172
G1 X115.778 Y75.867 E10.85408
G1 X117.951 Y76.855 E10.96523
G1 X119.656 Y77.598 E11.05183
G1 X120.96 Y78.321 E11.12126
G1 X121.553 Y78.712 E11.15433
G1 X125.131 Y81.317 E11.36042
G1 X125.815 Y81.915 E11.40272
G1 X126.457 Y82.512 E11.44355
G1 X129.63 Y86.04 E11.66449
G1 X130.166 Y86.757 E11.70618
G1 X130.553 Y87.307 E11.73749
G1 X130.845 Y87.77 E11.76298
G1 X132.128 Y90.03 E11.88399
G1 X132.81 Y91.18 E11.94625
G1 X133.067 Y91.665 E11.97181
G1 X133.427 Y92.436 E12.01143
G1 X133.767 Y93.227 E12.05152
G1 X135.193 Y97.629 E12.26698
G1 X135.411 Y98.578 E12.31232
G1 X135.537 Y99.218 E12.34269
G1 X135.612 Y99.727 E12.36665
G1 X135.855 Y102.218 E12.48319
G1 X136.06 Y104.012 E12.56727
G1 X136.082 Y105.536 E12.63824
G1 X136.039 Y106.209 E12.66965
G1 X135.769 Y108.61 E12.78215
G1 X135.625 Y110.146 E12.85399
G1 X135.544 Y110.709 E12.88047
G1 X135.379 Y111.561 E12.92088
G1 X135.205 Y112.334 E12.95778
G1 X134.939 Y113.172 E12.99872
G1 X134.246 Y115.249 E13.10067
G1 X133.799 Y116.661 E13.16964
G1 X133.321 Y117.798 E13.22707
G1 X132.992 Y118.511 E13.26363
G1 X131.37 Y121.292 E13.41354
G1 X130.674 Y122.522 E13.47935
G1 X130.185 Y123.22 E13.51904
G1 X129.568 Y124.042 E13.56689
G1 X126.44 Y127.509 E13.78433
G1 X125.747 Y128.147 E13.82819
G1 X125.111 Y128.702 E13.86749
G1 X122.384 Y130.669 E14.02406
G1 X121.366 Y131.425 E14.0831
G1 X120.562 Y131.91 E14.12683
G1 X119.7 Y132.387 E14.1727
G1 X116.159 Y133.952 E14.35297
G1 X115.771 Y134.133 E14.37291
G1 X115.276 Y134.334 E14.39778
G1 X114.625 Y134.557 E14.42983
G1 X113.986 Y134.755 E14.46098
G1 X113.435 Y134.896 E14.48746
G1 X111.063 Y135.385 E14.60023
G1 X109.28 Y135.777 E14.68524
G1 X107.725 Y135.968 E14.75819
G1 X107.044 Y135.998 E14.78993
G1 X102.635 Y135.994 E14.99523
G1 X101.669 Y135.906 E15.0404
G1 X100.803 Y135.798 E15.08104
G1 X96.296 Y134.839 E15.2956
G1 X95.371 Y134.556 E15.34064
G1 X94.762 Y134.348 E15.37061
G1 X94.233 Y134.138 E15.39711
G1 X92.028 Y133.136 E15.50989
G1 X90.599 Y132.517 E15.5824
G1 X90.135 Y132.289 E15.60648
G1 X88.993 Y131.651 E15.66739
G1 X88.437 Y131.281 E15.69849
G1 X85.128 Y128.872 E15.88908
G1 X84.543 Y128.412 E15.92373
G1 X83.687 Y127.621 E15.978
G1 X83.309 Y127.235 E16.00316
G1 X81.609 Y125.319 E16.12243
G1 X80.651 Y124.277 E16.18834
G1 X80.3 Y123.855 E16.2139
G1 X79.539 Y122.838 E16.27304
G1 X79.154 Y122.229 E16.30659
G1 X77.934 Y120.079 E16.4217
G1 X77.034 Y118.549 E16.50435
G1 X76.402 Y117.193 E16.57402
G1 X76.146 Y116.503 E16.60829
G1 X75.374 Y114.072 E16.72705
G1 X74.915 Y112.703 E16.79429
G1 X74.778 Y112.22 E16.81767
G1 X74.589 Y111.409 E16.85644
G1 X74.462 Y110.774 E16.8866
G1 X74.384 Y110.24 E16.91172
G1 X74.138 Y107.735 E17.02893
G1 X73.974 Y106.316 E17.09544
G1 X73.939 Y105.782 E17.12036
G1 X73.922 Y104.869 E17.16288
G1 X73.935 Y104.041 E17.20144
G1 X74.427 Y99.394 E17.41904
G1 X74.603 Y98.5 E17.46146
G1 X74.802 Y97.64 E17.50257
G1 X76.154 Y93.486 E17.70598
G1 X76.345 Y92.964 E17.73186
G1 X76.615 Y92.332 E17.76387
G1 X77.014 Y91.477 E17.8078
G1 X78.617 Y88.728 E17.95598
G1 X79.318 Y87.494 E18.02206
G1 X79.828 Y86.762 E18.0636
G1 X80.429 Y85.964 E18.11012
G1 X82.871 Y83.271 E18.2794
G1 X83.326 Y82.751 E18.31157
G1 X83.717 Y82.347 E18.33775
M204 S3000
M205 X10 Y10
G0 F3000 X84.098 Y82.758
M204 S1800
M205 X8 Y8
G1 F2400 X84.587 Y82.305 E18.36879
G1 X85.259 Y81.719 E18.41031
G1 X87.93 Y79.797 E18.56353
G1 X88.979 Y79.02 E18.62432
G1 X89.705 Y78.584 E18.66375
G1 X90.528 Y78.125 E18.70763
G1 X94.489 Y76.367 E18.90942
G1 X94.974 Y76.173 E18.93375
G1 X95.557 Y75.975 E18.96242
G1 X96.21 Y75.773 E18.99424
G1 X96.707 Y75.645 E19.01814
G1 X99.133 Y75.146 E19.13347
G1 X100.793 Y74.779 E19.21263
G1 X101.939 Y74.635 E19.26642
G1 X102.72 Y74.563 E19.30294
G1 X107.33 Y74.566 E19.5176
G1 X108.178 Y74.643 E19.55725
G1 X108.852 Y74.724 E19.58886
G1 X109.351 Y74.808 E19.61242
G1 X111.792 Y75.342 E19.72877
G1 X113.456 Y75.682 E19.80785
G1 X114.926 Y76.132 E19.87944
G1 X115.546 Y76.377 E19.91048
G1 X117.728 Y77.369 E20.02209
G1 X119.384 Y78.088 E20.10616
G1 X120.688 Y78.811 E20.17558
G1 X121.224 Y79.165 E20.2055
G1 X124.762 Y81.739 E20.40923
G1 X125.446 Y82.337 E20.45153
G1 X126.076 Y82.922 E20.49156
G1 X129.181 Y86.375 E20.7078
G1 X129.708 Y87.08 E20.74878
G1 X130.08 Y87.607 E20.77882
G1 X130.358 Y88.046 E20.80301
G1 X131.646 Y90.316 E20.92454
G1 X132.328 Y91.466 E20.9868
G1 X132.572 Y91.927 E21.01109
G1 X132.913 Y92.658 E21.04865
G1 X133.234 Y93.4 E21.08629
G1 X134.66 Y97.802 E21.30176
G1 X134.862 Y98.686 E21.34398
G1 X134.983 Y99.3 E21.37312
G1 X135.058 Y99.809 E21.39708
G1 X135.299 Y102.282 E21.51278
G1 X135.5 Y104.021 E21.59429
G1 X135.523 Y105.5 E21.66317
G1 X135.48 Y106.173 E21.69457
G1 X135.211 Y108.558 E21.80633
G1 X135.067 Y110.094 E21.87816
G1 X134.994 Y110.603 E21.90211
G1 X134.832 Y111.44 E21.94181
G1 X134.671 Y112.165 E21.97639
G1 X134.408 Y112.995 E22.01693
G1 X133.715 Y115.072 E22.11888
G1 X133.283 Y116.444 E22.18586
G1 X132.812 Y117.565 E22.24248
G1 X132.508 Y118.229 E22.27649
G1 X130.886 Y121.01 E22.4264
G1 X130.215 Y122.201 E22.49005
G1 X129.736 Y122.885 E22.52893
G1 X129.152 Y123.667 E22.57438
G1 X126.06 Y127.097 E22.78941
G1 X125.379 Y127.725 E22.83255
G1 X124.743 Y128.28 E22.87185
G1 X122.05 Y130.219 E23.02637
G1 X121.032 Y130.975 E23.08542
G1 X120.289 Y131.421 E23.12577
G1 X119.474 Y131.875 E23.16921
G1 X115.933 Y133.44 E23.34948
G1 X115.56 Y133.614 E23.36864
G1 X115.065 Y133.815 E23.39352
G1 X114.459 Y134.022 E23.42334
G1 X113.82 Y134.22 E23.45449
G1 X113.322 Y134.348 E23.47843
G1 X110.942 Y134.838 E23.59158
G1 X109.212 Y135.221 E23.67409
G1 X107.657 Y135.412 E23.74704
G1 X107.044 Y135.438 E23.77561
G1 X102.686 Y135.436 E23.97853
G1 X101.737 Y135.35 E24.0229
G1 X100.92 Y135.25 E24.06123
G1 X96.413 Y134.291 E24.27579
G1 X95.552 Y134.026 E24.31774
G1 X94.943 Y133.818 E24.34771
G1 X94.465 Y133.628 E24.37166
G1 X92.26 Y132.626 E24.48444
G1 X90.846 Y132.014 E24.55618
G1 X90.382 Y131.786 E24.58025
G1 X89.303 Y131.185 E24.63777
G1 X88.767 Y130.829 E24.66773
G1 X85.853 Y128.7 E24.83577
G1 X85.473 Y128.431 E24.85745
G1 X84.923 Y128.001 E24.88996
G1 X84.087 Y127.229 E24.94295
G1 X83.728 Y126.863 E24.96682
G1 X82.028 Y124.947 E25.08609
G1 X81.081 Y123.919 E25.15117
G1 X80.748 Y123.519 E25.17541
G1 X80.012 Y122.538 E25.23252
G1 X79.641 Y121.953 E25.26477
G1 X78.421 Y119.803 E25.37988
G1 X77.542 Y118.312 E25.46047
G1 X76.91 Y116.956 E25.53014
G1 X76.68 Y116.334 E25.56102
G1 X75.908 Y113.903 E25.67978
G1 X75.454 Y112.55 E25.74624
G1 X75.317 Y112.067 E25.76962
G1 X75.138 Y111.298 E25.80638
G1 X75.016 Y110.692 E25.83516
G1 X74.941 Y110.185 E25.85903
G1 X74.695 Y107.68 E25.97623
G1 X74.533 Y106.279 E26.0419
G1 X74.499 Y105.771 E26.06561
G1 X74.482 Y104.876 E26.10729
G1 X74.492 Y104.1 E26.14343
G1 X74.977 Y99.502 E26.35872
G1 X75.149 Y98.626 E26.40029
G1 X75.348 Y97.766 E26.44139
G1 X76.68 Y93.678 E26.6416
G1 X76.86 Y93.184 E26.66608
G1 X77.123 Y92.568 E26.69727
G1 X77.498 Y91.759 E26.73879
G1 X79.101 Y89.01 E26.88697
G1 X79.778 Y87.814 E26.95096
G1 X80.276 Y87.098 E26.99157
G1 X80.844 Y86.34 E27.03568
G1 X83.286 Y83.647 E27.20495
G1 X83.729 Y83.14 E27.2363
G1 X84.098 Y82.758 E27.26104
M204 S3000
M205 X10 Y10
G1 F2400 E21.26104
G1 F600 Z0.275
G0 F3000 X104.12 Y103.83 Z0.275
M204 S1800
M205 X8 Y8
G1 F600 Z0.2
G1 F2400 E27.26104
G1 X104.54 Y103.617 E27.28296
G1 X105.006 Y103.543 E27.30493
G1 X105.472 Y103.617 E27.32691
G1 X105.892 Y103.83 E27.34883
G1 X106.231 Y104.169 E27.37116
G1 X106.443 Y104.586 E27.39294
G1 X106.517 Y105.054 E27.415
G1 X106.443 Y105.52 E27.43697
G1 X106.231 Y105.939 E27.45884
G1 X105.891 Y106.278 E27.4812
G1 X105.472 Y106.491 E27.50308
G1 X105.007 Y106.565 E27.52501
G1 X104.539 Y106.492 E27.54706
G1 X104.121 Y106.278 E27.56893
G1 X103.784 Y105.942 E27.59109
G1 X103.569 Y105.519 E27.61318
G1 X103.495 Y105.054 E27.63511
G1 X103.569 Y104.586 E27.65717
G1 X103.781 Y104.169 E27.67895
G1 X104.12 Y103.83 E27.70128
M204 S3000
M205 X10 Y10
G0 F3000 X104.454 Y104.288
M204 S1800
M205 X8 Y8
G1 F2400 X104.714 Y104.156 E27.71485
G1 X105.006 Y104.11 E27.72862
G1 X105.298 Y104.156 E27.74238
G1 X105.558 Y104.288 E27.75596
G1 X105.771 Y104.501 E27.76999
G1 X105.905 Y104.762 E27.78365
G1 X105.95 Y105.053 E27.79736
G1 X105.904 Y105.344 E27.81108
G1 X105.771 Y105.607 E27.8248
G1 X105.559 Y105.818 E27.83873
G1 X105.295 Y105.953 E27.85254
G1 X105.007 Y105.998 E27.86611
G1 X104.716 Y105.953 E27.87982
G1 X104.453 Y105.818 E27.89359
G1 X104.242 Y105.608 E27.90745
G1 X104.108 Y105.345 E27.92119
G1 X104.062 Y105.053 E27.93496
G1 X104.107 Y104.762 E27.94867
G1 X104.241 Y104.501 E27.96233
G1 X104.454 Y104.288 E27.97636
M204 S3000
M205 X10 Y10
G0 F3000 X104.787 Y104.747
M204 S1800
M205 X8 Y8
G1 F2400 X104.889 Y104.696 E27.98167
G1 X105.006 Y104.677 E27.98719
G1 X105.123 Y104.696 E27.99271
G1 X105.225 Y104.747 E27.99802
G1 X105.312 Y104.834 E28.00374
G1 X105.365 Y104.938 E28.00918
G1 X105.383 Y105.052 E28.01455
G1 X105.364 Y105.171 E28.02016
G1 X105.313 Y105.273 E28.02548
G1 X105.226 Y105.36 E28.0312
G1 X105.12 Y105.414 E28.03674
G1 X105.006 Y105.432 E28.04212
G1 X104.893 Y105.414 E28.04745
G1 X104.786 Y105.359 E28.05305
G1 X104.7 Y105.274 E28.05868
G1 X104.648 Y105.17 E28.06409
G1 X104.629 Y105.052 E28.06966
G1 X104.647 Y104.938 E28.07503
G1 X104.7 Y104.834 E28.08047
G1 X104.787 Y104.747 E28.0862
M204 S3000
M205 X10 Y10
G1 F2400 E22.0862
;MESH:SG90 Large Cogwheel.stl
G0 F3000 X105.289 Y107.917
G0 X105.463 Y108.732
M204 S1800
M205 X8 Y8
;TYPE:WALL-OUTER
G1 F2400 E28.0862
G1 F1030.7 X104.641 Y108.73 E28.1419
G1 F1035.8 X103.75 Y108.562 E28.20304
G1 F1024.4 X103.205 Y108.304 E28.24416
G1 F1016.9 X102.677 Y107.97 E28.28707
G1 F1015.7 X102.311 Y107.615 E28.32213
G1 F1026.9 X101.968 Y107.187 E28.35944
G1 F1024.4 X101.685 Y106.737 E28.39568
G1 F1021.9 X101.467 Y106.191 E28.43587
G1 F1033.2 X101.361 Y105.658 E28.4726
G1 F1042.2 X101.304 Y105.072 E28.51206
G1 F1040.9 X101.343 Y104.543 E28.54766
G1 F1038.3 X101.458 Y103.993 E28.58545
G1 F1033.2 X101.679 Y103.411 E28.62754
G1 F1035.8 X101.967 Y102.951 E28.66414
G1 F1042.2 X102.296 Y102.536 E28.69963
G1 F1040.9 X102.695 Y102.174 E28.73578
G1 F1043.5 X103.126 Y101.87 E28.77108
G1 F1046.1 X103.587 Y101.665 E28.80477
G1 F1055.3 X104.113 Y101.486 E28.84155
G1 F1060.6 X104.904 Y101.368 E28.89421
G1 F1066 X105.749 Y101.471 E28.94999
G1 F1075.5 X106.215 Y101.598 E28.98136
G1 F1068.7 X106.716 Y101.806 E29.01681
G1 F1064.6 X107.162 Y102.076 E29.05101
G1 F1070.1 X107.558 Y102.436 E29.08595
G1 F1072.8 X107.921 Y102.828 E29.12073
G1 F1078.3 X108.192 Y103.279 E29.15481
G1 F1076.9 X108.492 Y103.904 E29.19978
G1 F1075.5 X108.571 Y104.265 E29.22377
G1 F1078.3 X108.672 Y105.142 E29.28096
G1 F1079.7 X108.581 Y105.774 E29.32226
G1 F1067.3 X108.397 Y106.469 E29.36931
G1 X108.059 Y107.086 E29.41535
G1 F1061.9 X107.742 Y107.515 E29.45043
G1 F1052.6 X107.355 Y107.886 E29.486
