;FLAVOR:Marlin
;TIME:322
;Filament used: 0.258113m
;Layer height: 0.2
;MINX:91.127
;MINY:91.125
;MINZ:0.2
;MAXX:118.873
;MAXY:118.873
;MAXZ:5
;TARGET_MACHINE.NAME:Anycubic i3 Mega
;Generated with Cura_SteamEngine 5.7.0-alpha.0
M140 S60
M105
M190 S60
M104 S200
M105
M109 S200
M82 ;absolute extrusion mode
G21 ;metric values
G90 ;absolute positioning
M82 ;set extruder to absolute mode
M107 ;start with the fan off
G28 X0 Y0 ;move X/Y to min endstops
G28 Z0 ;move Z to min endstops
G1 Z15.0 F100 ;move the platform down 15mm
G92 E0 ;zero the extruded length
G1 F200 E3 ;extrude 3mm of feed stock
G92 E0 ;zero the extruded length again
G1 F100
G0 Y20 F100
M117 Printing...
G5
G92 E0
G92 E0
G1 F2400 E-6
;LAYER_COUNT:25
;LAYER:0
M107
M204 S3000
M205 X10 Y10
G1 F600 Z0.275
G0 F3000 X95.197 Y95.189 Z0.275
M204 S1800
M205 X8 Y8
;TYPE:SKIRT
G1 F600 Z0.2
G1 F2400 E0
G1 X95.764 Y94.639 E0.03678
G1 X96.408 Y94.101 E0.07586
G1 X97.553 Y93.28 E0.14146
G1 X98.307 Y92.843 E0.18204
G1 X99.688 Y92.172 E0.25354
G1 X100.655 Y91.82 E0.30145
G1 X101.406 Y91.605 E0.33783
G1 X102.185 Y91.408 E0.37524
G1 X102.982 Y91.268 E0.41292
G1 X103.923 Y91.172 E0.45697
G1 X104.543 Y91.127 E0.48591
G1 X105.348 Y91.125 E0.5234
G1 X106.206 Y91.184 E0.56344
G1 X107.009 Y91.266 E0.60103
G1 X107.846 Y91.415 E0.64062
G1 X108.719 Y91.637 E0.68256
G1 X109.319 Y91.807 E0.7116
G1 X110.149 Y92.108 E0.75271
G1 X110.874 Y92.434 E0.78973
G1 X111.552 Y92.764 E0.82484
G1 X112.272 Y93.179 E0.86353
G1 X113.062 Y93.714 E0.90796
G1 X113.611 Y94.114 E0.93959
G1 X114.253 Y94.656 E0.97871
G1 X114.811 Y95.197 E1.0149
G1 X115.362 Y95.765 E1.05175
G1 X115.899 Y96.407 E1.09073
G1 X116.459 Y97.183 E1.13529
G1 X116.792 Y97.678 E1.16306
G1 X117.221 Y98.424 E1.20314
G1 X117.649 Y99.307 E1.24883
G1 X117.881 Y99.828 E1.27538
G1 X118.179 Y100.65 E1.3161
G1 X118.44 Y101.572 E1.36072
G1 X118.574 Y102.099 E1.38604
G1 X118.737 Y103.023 E1.42973
G1 X118.827 Y103.92 E1.4717
G1 X118.872 Y104.539 E1.5006
G1 X118.873 Y105.427 E1.54195
G1 X118.816 Y106.205 E1.57828
G1 X118.735 Y107.009 E1.6159
G1 X118.604 Y107.757 E1.65126
G1 X118.393 Y108.602 E1.69182
G1 X118.185 Y109.343 E1.72766
G1 X117.905 Y110.111 E1.76572
G1 X117.479 Y111.054 E1.8139
G1 X117.213 Y111.595 E1.84197
G1 X116.823 Y112.269 E1.87823
G1 X116.286 Y113.062 E1.92283
G1 X115.886 Y113.611 E1.95446
G1 X115.344 Y114.253 E1.99358
G1 X114.803 Y114.811 E2.02977
G1 X114.235 Y115.362 E2.06662
G1 X113.593 Y115.899 E2.10559
G1 X112.817 Y116.459 E2.15015
G1 X112.322 Y116.792 E2.17793
G1 X111.576 Y117.221 E2.218
G1 X110.694 Y117.649 E2.26365
G1 X110.134 Y117.897 E2.29217
G1 X109.385 Y118.168 E2.32926
G1 X108.579 Y118.399 E2.3683
G1 X107.82 Y118.591 E2.40476
G1 X107.018 Y118.732 E2.44268
G1 X106.077 Y118.828 E2.48672
G1 X105.457 Y118.873 E2.51567
G1 X104.57 Y118.873 E2.55697
G1 X103.794 Y118.816 E2.5932
G1 X102.99 Y118.734 E2.63083
G1 X102.158 Y118.585 E2.67019
G1 X101.279 Y118.363 E2.7124
G1 X100.658 Y118.186 E2.74247
G1 X99.932 Y117.923 E2.77843
G1 X99.126 Y117.564 E2.81951
G1 X98.42 Y117.221 E2.85606
G1 X97.689 Y116.797 E2.89541
G1 X96.939 Y116.286 E2.93767
G1 X96.392 Y115.888 E2.96917
G1 X95.777 Y115.371 E3.00658
G1 X95.068 Y114.683 E3.05258
G1 X94.636 Y114.234 E3.0816
G1 X94.101 Y113.593 E3.12047
G1 X93.541 Y112.817 E3.16503
G1 X93.206 Y112.319 E3.19298
G1 X92.795 Y111.607 E3.23126
G1 X92.425 Y110.851 E3.27046
G1 X92.118 Y110.168 E3.30532
G1 X91.821 Y109.348 E3.34593
G1 X91.601 Y108.579 E3.38318
G1 X91.409 Y107.82 E3.41963
G1 X91.268 Y107.018 E3.45755
G1 X91.173 Y106.08 E3.50145
G1 X91.128 Y105.461 E3.53035
G1 X91.127 Y104.573 E3.5717
G1 X91.184 Y103.795 E3.60802
G1 X91.266 Y102.99 E3.6457
G1 X91.415 Y102.158 E3.68506
G1 X91.638 Y101.277 E3.72738
G1 X91.815 Y100.657 E3.7574
G1 X92.091 Y99.899 E3.79496
G1 X92.435 Y99.129 E3.83423
G1 X92.779 Y98.42 E3.87093
G1 X93.203 Y97.689 E3.91028
G1 X93.714 Y96.939 E3.95254
G1 X94.112 Y96.392 E3.98403
G1 X94.656 Y95.747 E4.02332
G1 X95.197 Y95.189 E4.05951
M204 S3000
M205 X10 Y10
G0 F3000 X95.588 Y95.59
M204 S1800
M205 X8 Y8
G1 F2400 X95.058 Y96.137 E4.09498
G1 X94.541 Y96.752 E4.13239
G1 X94.167 Y97.268 E4.16207
G1 X93.666 Y98.004 E4.20352
G1 X93.264 Y98.7 E4.24095
G1 X92.939 Y99.373 E4.27575
G1 X92.603 Y100.127 E4.31419
G1 X92.342 Y100.848 E4.34989
G1 X92.177 Y101.43 E4.37806
G1 X91.958 Y102.295 E4.41961
G1 X91.817 Y103.088 E4.45711
G1 X91.741 Y103.851 E4.49282
G1 X91.686 Y104.613 E4.52839
G1 X91.687 Y105.42 E4.56597
G1 X91.732 Y106.039 E4.59487
G1 X91.82 Y106.921 E4.63614
G1 X91.961 Y107.723 E4.67406
G1 X92.144 Y108.441 E4.70856
G1 X92.359 Y109.194 E4.74503
G1 X92.629 Y109.938 E4.78188
G1 X92.936 Y110.621 E4.81675
G1 X93.298 Y111.361 E4.85511
G1 X93.671 Y112.006 E4.8898
G1 X94.006 Y112.504 E4.91775
G1 X94.555 Y113.265 E4.96144
G1 X95.065 Y113.874 E4.99843
G1 X95.471 Y114.294 E5.02563
G1 X96.167 Y114.969 E5.07078
G1 X96.752 Y115.459 E5.10631
G1 X97.268 Y115.833 E5.13599
G1 X98.004 Y116.334 E5.17745
G1 X98.7 Y116.736 E5.21487
G1 X99.37 Y117.06 E5.24953
G1 X100.123 Y117.396 E5.28792
G1 X100.849 Y117.659 E5.32388
G1 X101.432 Y117.824 E5.35209
G1 X102.295 Y118.042 E5.39354
G1 X103.088 Y118.183 E5.43104
G1 X103.85 Y118.259 E5.4667
G1 X104.61 Y118.314 E5.50218
G1 X105.416 Y118.314 E5.53971
G1 X106.036 Y118.269 E5.56866
G1 X106.921 Y118.18 E5.61007
G1 X107.723 Y118.039 E5.64799
G1 X108.441 Y117.856 E5.68249
G1 X109.194 Y117.641 E5.71896
G1 X109.943 Y117.37 E5.75605
G1 X110.466 Y117.137 E5.78271
G1 X111.332 Y116.717 E5.82752
G1 X112.009 Y116.327 E5.86391
G1 X112.504 Y115.994 E5.89168
G1 X113.265 Y115.445 E5.93538
G1 X113.875 Y114.933 E5.97246
G1 X114.412 Y114.41 E6.00737
G1 X114.942 Y113.863 E6.04283
G1 X115.458 Y113.25 E6.08014
G1 X115.833 Y112.733 E6.10988
G1 X116.359 Y111.955 E6.15361
G1 X116.728 Y111.315 E6.18801
G1 X116.976 Y110.808 E6.21429
G1 X117.394 Y109.881 E6.26164
G1 X117.658 Y109.152 E6.29775
G1 X117.854 Y108.451 E6.33164
G1 X118.052 Y107.66 E6.36961
G1 X118.183 Y106.912 E6.40497
G1 X118.259 Y106.149 E6.44067
G1 X118.314 Y105.387 E6.47625
G1 X118.313 Y104.58 E6.51382
G1 X118.268 Y103.961 E6.54272
G1 X118.18 Y103.079 E6.584
G1 X118.031 Y102.237 E6.62381
G1 X117.897 Y101.71 E6.64913
G1 X117.64 Y100.803 E6.69303
G1 X117.369 Y100.056 E6.73003
G1 X117.137 Y99.535 E6.75659
G1 X116.717 Y98.668 E6.80145
G1 X116.327 Y97.991 E6.83783
G1 X115.994 Y97.496 E6.86561
G1 X115.445 Y96.735 E6.9093
G1 X114.933 Y96.125 E6.94638
G1 X114.41 Y95.588 E6.98129
G1 X113.863 Y95.058 E7.01675
G1 X113.25 Y94.542 E7.05406
G1 X112.733 Y94.167 E7.0838
G1 X111.958 Y93.643 E7.12737
G1 X111.307 Y93.268 E7.16235
G1 X110.629 Y92.938 E7.19746
G1 X109.919 Y92.619 E7.2337
G1 X109.166 Y92.346 E7.271
G1 X108.566 Y92.176 E7.30004
G1 X107.708 Y91.958 E7.34126
G1 X106.911 Y91.817 E7.37895
G1 X106.15 Y91.741 E7.41456
G1 X105.349 Y91.685 E7.45195
G1 X104.584 Y91.686 E7.48757
G1 X103.964 Y91.731 E7.51652
G1 X103.079 Y91.82 E7.55793
G1 X102.282 Y91.96 E7.59561
G1 X101.544 Y92.148 E7.63107
G1 X100.809 Y92.358 E7.66667
G1 X99.932 Y92.676 E7.71011
G1 X98.588 Y93.328 E7.77966
G1 X97.834 Y93.765 E7.82024
G1 X96.735 Y94.556 E7.8833
G1 X96.124 Y95.068 E7.92041
G1 X95.588 Y95.59 E7.95525
M204 S3000
M205 X10 Y10
G0 F3000 X95.98 Y95.99
M204 S1800
M205 X8 Y8
G1 F2400 X96.484 Y95.497 E7.98808
G1 X97.063 Y95.01 E8.02331
G1 X98.115 Y94.25 E8.08374
G1 X98.869 Y93.813 E8.12432
G1 X100.124 Y93.202 E8.18932
G1 X100.963 Y92.896 E8.2309
G1 X101.683 Y92.69 E8.26577
G1 X102.38 Y92.511 E8.29928
G1 X103.135 Y92.377 E8.33499
G1 X104.005 Y92.289 E8.37571
G1 X104.585 Y92.246 E8.40279
G1 X105.35 Y92.245 E8.43841
G1 X106.095 Y92.298 E8.47319
G1 X106.815 Y92.369 E8.50688
G1 X107.57 Y92.501 E8.54257
G1 X108.414 Y92.715 E8.58311
G1 X108.976 Y92.873 E8.61029
G1 X109.69 Y93.13 E8.64563
G1 X110.385 Y93.442 E8.6811
G1 X111.027 Y93.753 E8.71432
G1 X111.678 Y94.128 E8.7493
G1 X112.405 Y94.621 E8.7902
G1 X112.89 Y94.971 E8.81805
G1 X113.473 Y95.46 E8.85348
G1 X114.01 Y95.98 E8.88829
G1 X114.505 Y96.486 E8.92125
G1 X114.991 Y97.063 E8.95638
G1 X115.53 Y97.81 E8.99927
G1 X115.842 Y98.271 E9.02519
G1 X116.213 Y98.913 E9.05972
G1 X116.626 Y99.764 E9.10377
G1 X116.843 Y100.248 E9.12847
G1 X117.101 Y100.956 E9.16355
G1 X117.354 Y101.848 E9.20673
G1 X117.488 Y102.375 E9.23205
G1 X117.623 Y103.135 E9.26799
G1 X117.71 Y104.003 E9.30861
G1 X117.753 Y104.581 E9.3356
G1 X117.755 Y105.347 E9.37127
G1 X117.702 Y106.094 E9.40614
G1 X117.631 Y106.815 E9.43987
G1 X117.5 Y107.563 E9.47523
G1 X117.315 Y108.301 E9.51066
G1 X117.131 Y108.961 E9.54257
G1 X116.867 Y109.69 E9.57867
G1 X116.473 Y110.563 E9.62327
G1 X116.243 Y111.035 E9.64772
G1 X115.874 Y111.675 E9.68212
G1 X115.379 Y112.405 E9.72319
G1 X115.029 Y112.89 E9.75104
G1 X114.54 Y113.473 E9.78647
G1 X114.02 Y114.01 E9.82127
G1 X113.514 Y114.505 E9.85423
G1 X112.937 Y114.991 E9.88936
G1 X112.19 Y115.53 E9.93226
G1 X111.729 Y115.842 E9.95818
G1 X111.087 Y116.213 E9.9927
G1 X110.237 Y116.626 E10.03671
G1 X109.751 Y116.844 E10.06151
G1 X109.04 Y117.103 E10.09675
G1 X108.301 Y117.314 E10.13253
G1 X107.625 Y117.488 E10.16503
G1 X106.865 Y117.623 E10.20098
G1 X105.995 Y117.711 E10.2417
G1 X105.415 Y117.754 E10.26878
G1 X104.65 Y117.755 E10.3044
G1 X103.905 Y117.702 E10.33918
G1 X103.185 Y117.631 E10.37286
G1 X102.432 Y117.499 E10.40846
G1 X101.584 Y117.285 E10.44919
G1 X101.04 Y117.132 E10.4755
G1 X100.314 Y116.869 E10.51146
G1 X99.612 Y116.555 E10.54726
G1 X98.979 Y116.251 E10.57996
G1 X98.319 Y115.871 E10.61543
G1 X97.596 Y115.379 E10.65615
G1 X97.112 Y115.03 E10.68393
G1 X96.527 Y114.54 E10.71947
G1 X95.873 Y113.904 E10.76194
G1 X95.494 Y113.514 E10.78727
G1 X95.009 Y112.937 E10.82236
G1 X94.47 Y112.19 E10.86526
G1 X94.156 Y111.726 E10.89135
G1 X93.783 Y111.081 E10.92604
G1 X93.446 Y110.39 E10.96184
G1 X93.155 Y109.746 E10.99474
G1 X92.897 Y109.04 E11.02975
G1 X92.686 Y108.302 E11.06549
G1 X92.512 Y107.625 E11.09804
G1 X92.377 Y106.865 E11.13398
G1 X92.29 Y105.997 E11.1746
G1 X92.247 Y105.419 E11.20159
G1 X92.245 Y104.653 E11.23726
G1 X92.298 Y103.906 E11.27213
G1 X92.369 Y103.185 E11.30586
G1 X92.501 Y102.432 E11.34146
G1 X92.716 Y101.582 E11.38228
G1 X92.869 Y101.039 E11.40855
G1 X93.13 Y100.318 E11.44426
G1 X93.444 Y99.615 E11.48011
G1 X93.749 Y98.979 E11.51295
G1 X94.129 Y98.319 E11.54842
G1 X94.621 Y97.596 E11.58914
G1 X94.97 Y97.112 E11.61692
G1 X95.46 Y96.527 E11.65246
G1 X95.98 Y95.99 E11.68726
M204 S3000
M205 X10 Y10
G1 F2400 E5.68726
;MESH:Label (Holder).stl
G0 F3000 X98.81 Y99.684
G0 X99.577 Y100.45
G0 X104.999 Y111.094
M204 S1800
M205 X8 Y8
;TYPE:WALL-INNER
G1 F2400 E11.68726
G1 F1500 X106.064 Y111.001 E11.73704
G1 X107.079 Y110.73 E11.78596
G1 X108.045 Y110.278 E11.83562
G1 X108.916 Y109.667 E11.88516
G1 X109.666 Y108.917 E11.93455
G1 X110.278 Y108.045 E11.98416
G1 X110.73 Y107.077 E12.0339
G1 X111.001 Y106.064 E12.08273
G1 X111.093 Y105 E12.13246
G1 X111.001 Y103.934 E12.18228
G1 X110.73 Y102.923 E12.23102
G1 X110.278 Y101.955 E12.28077
G1 X109.666 Y101.083 E12.33037
G1 X108.916 Y100.333 E12.37976
G1 X108.045 Y99.722 E12.4293
G1 X107.078 Y99.27 E12.47901
G1 X106.064 Y99 E12.52787
G1 X104.999 Y98.906 E12.57765
G1 X103.936 Y98.999 E12.62734
G1 X102.923 Y99.27 E12.67617
G1 X101.955 Y99.722 E12.72591
G1 X101.083 Y100.333 E12.77549
G1 X100.333 Y101.083 E12.82488
G1 X99.722 Y101.955 E12.87446
G1 X99.27 Y102.923 E12.92421
G1 X99 Y103.934 E12.97293
G1 X98.906 Y105 E13.02276
G1 X98.999 Y106.064 E13.0725
G1 X99.27 Y107.077 E13.12133
G1 X99.722 Y108.045 E13.17107
G1 X100.333 Y108.917 E13.22065
G1 X101.083 Y109.667 E13.27004
G1 X101.955 Y110.278 E13.31962
G1 X102.921 Y110.73 E13.36928
G1 X103.936 Y111 E13.41819
G1 X104.999 Y111.094 E13.46788
M204 S3000
M205 X10 Y10
G0 F3000 X104.999 Y111.656
M204 S1800
M205 X8 Y8
G1 F1500 X106.161 Y111.554 E13.52219
G1 X107.271 Y111.258 E13.57569
G1 X108.326 Y110.765 E13.62991
G1 X109.278 Y110.097 E13.68406
G1 X110.097 Y109.278 E13.738
G1 X110.764 Y108.327 E13.79208
G1 X111.258 Y107.269 E13.84646
G1 X111.554 Y106.161 E13.89986
G1 X111.656 Y105 E13.95413
G1 X111.554 Y103.837 E14.00849
G1 X111.258 Y102.731 E14.0618
G1 X110.764 Y101.673 E14.11617
G1 X110.097 Y100.722 E14.17026
G1 X109.278 Y99.903 E14.22419
G1 X108.327 Y99.235 E14.27831
G1 X107.27 Y98.742 E14.33262
G1 X106.161 Y98.446 E14.38606
G1 X104.999 Y98.344 E14.44038
G1 X103.839 Y98.446 E14.4946
G1 X102.731 Y98.742 E14.54801
G1 X101.674 Y99.236 E14.60233
G1 X100.721 Y99.903 E14.6565
G1 X99.902 Y100.722 E14.71043
G1 X99.236 Y101.673 E14.76449
G1 X98.742 Y102.731 E14.81886
G1 X98.446 Y103.837 E14.87218
G1 X98.344 Y105 E14.92654
G1 X98.446 Y106.161 E14.98081
G1 X98.742 Y107.269 E15.03421
G1 X99.236 Y108.327 E15.08858
G1 X99.902 Y109.278 E15.14264
G1 X100.721 Y110.097 E15.19657
G1 X101.674 Y110.765 E15.25077
G1 X102.729 Y111.258 E15.30499
G1 X103.839 Y111.554 E15.35848
G1 X104.999 Y111.656 E15.41271
M204 S3000
M205 X10 Y10
G0 F3000 X104.999 Y112.218
M204 S1800
M205 X8 Y8
;TYPE:WALL-OUTER
G1 F1500 X106.259 Y112.108 E15.4716
G1 X107.463 Y111.786 E15.52963
G1 X108.608 Y111.251 E15.58848
G1 X109.64 Y110.528 E15.64716
G1 X110.528 Y109.64 E15.70563
G1 X111.251 Y108.608 E15.76431
G1 X111.786 Y107.461 E15.82324
G1 X112.108 Y106.259 E15.88118
G1 X112.218 Y105 E15.94003
G1 X112.108 Y103.739 E15.99897
G1 X111.786 Y102.539 E16.05682
G1 X111.251 Y101.392 E16.11576
G1 X110.528 Y100.36 E16.17443
G1 X109.64 Y99.472 E16.23291
G1 X108.608 Y98.749 E16.29158
G1 X107.462 Y98.214 E16.35047
G1 X106.259 Y97.892 E16.40846
G1 X104.999 Y97.782 E16.46736
G1 X103.741 Y97.892 E16.52616
G1 X102.539 Y98.214 E16.5841
G1 X101.393 Y98.749 E16.64299
G1 X100.36 Y99.472 E16.7017
G1 X99.472 Y100.36 E16.76018
G1 X98.749 Y101.392 E16.81885
G1 X98.214 Y102.539 E16.87779
G1 X97.892 Y103.739 E16.93564
G1 X97.782 Y105 E16.99458
G1 X97.892 Y106.259 E17.05343
G1 X98.214 Y107.461 E17.11137
G1 X98.749 Y108.608 E17.17031
G1 X99.472 Y109.64 E17.22898
G1 X100.36 Y110.528 E17.28746
G1 X101.392 Y111.251 E17.34613
G1 X102.537 Y111.786 E17.40498
G1 X103.741 Y112.108 E17.46301
G1 X104.999 Y112.218 E17.52181
M204 S3000
M205 X10 Y10
G0 F3000 X105.198 Y112.201
G0 X105.145 Y111.584
G0 X104.999 Y110.55
M204 S1800
M205 X8 Y8
;TYPE:SKIN
G1 F1200 X104.023 Y110.466 E17.56743
G1 X103.112 Y110.223 E17.61133
G1 X102.228 Y109.808 E17.6568
G1 X101.431 Y109.249 E17.70213
G1 X100.75 Y108.568 E17.74698
G1 X100.193 Y107.773 E17.79218
G1 X99.777 Y106.884 E17.83788
G1 X99.534 Y105.975 E17.8817
G1 X99.449 Y105 E17.92727
G1 X99.534 Y104.021 E17.97303
G1 X99.777 Y103.116 E18.01666
G1 X100.193 Y102.227 E18.06236
G1 X100.75 Y101.432 E18.10756
G1 X101.431 Y100.751 E18.15241
G1 X102.228 Y100.193 E18.19771
G1 X103.116 Y99.777 E18.24337
G1 X104.025 Y99.534 E18.28719
G1 X105 Y99.45 E18.33275
G1 X105.976 Y99.534 E18.37837
G1 X106.886 Y99.777 E18.42223
G1 X107.771 Y100.191 E18.46772
G1 X108.567 Y100.751 E18.51304
G1 X109.249 Y101.433 E18.55795
G1 X109.807 Y102.227 E18.60314
G1 X110.223 Y103.116 E18.64884
G1 X110.466 Y104.021 E18.69248
G1 X110.55 Y105.001 E18.73828
G1 X110.466 Y105.975 E18.7838
G1 X110.223 Y106.884 E18.82761
G1 X109.807 Y107.773 E18.87332
G1 X109.249 Y108.568 E18.91854
G1 X108.566 Y109.249 E18.96345
G1 X107.771 Y109.808 E19.00871
G1 X106.888 Y110.223 E19.05414
G1 X105.977 Y110.466 E19.09804
G1 X104.999 Y110.55 E19.14375
M204 S3000
M205 X10 Y10
G0 F3000 X102.497 Y109.625
M204 S1800
M205 X8 Y8
G1 F1200 X100.376 Y107.504 E19.28342
G1 X100.306 Y107.434
M204 S3000
M205 X10 Y10
G0 F3000 X99.891 Y106.227
M204 S1800
M205 X8 Y8
G1 F1200 X103.774 Y110.11 E19.53912
M204 S3000
M205 X10 Y10
G0 F3000 X104.698 Y110.242
M204 S1800
M205 X8 Y8
G1 F1200 X99.756 Y105.3 E19.86456
M204 S3000
M205 X10 Y10
G0 F3000 X99.771 Y104.523
M204 S1800
M205 X8 Y8
G1 F1200 X105.476 Y110.227 E20.24021
M204 S3000
M205 X10 Y10
G0 F3000 X106.166 Y110.126
M204 S1800
M205 X8 Y8
G1 F1200 X99.874 Y103.834 E20.65455
M204 S3000
M205 X10 Y10
G0 F3000 X100.042 Y103.21
M204 S1800
M205 X8 Y8
G1 F1200 X106.791 Y109.959 E21.09899
M204 S3000
M205 X10 Y10
G0 F3000 X107.33 Y109.705
M204 S1800
M205 X8 Y8
G1 F1200 X100.294 Y102.67 E21.56228
M204 S3000
M205 X10 Y10
G0 F3000 X100.579 Y102.163
M204 S1800
M205 X8 Y8
G1 F1200 X107.836 Y109.42 E22.04017
M204 S3000
M205 X10 Y10
